;FLAVOR:Marlin
;TIME:1805
;Filament used: 0.775276m
;Layer height: 0.2
;MINX:88.2
;MINY:78.2
;MINZ:0.3
;MAXX:131.8
;MAXY:141.8
;MAXZ:25.7
;Generated with Cura_SteamEngine 4.11.0
M140 S60
M105
M190 S60
M104 S220
M105
M109 S220
M82 ;absolute extrusion mode
; Ender 3 Custom Start G-code
G92 E0 ; Reset Extruder
G28 ; Home all axes
M420 S1 Z2; enable ABL using saved mesh
G1 Z2.0 F3000 ; Move Z Axis up little to prevent scratching of Heat Bed
G1 X0.1 Y20 Z0.3 F5000.0 ; Move to start position
G1 X0.1 Y200.0 Z0.3 F1500.0 E15 ; Draw the first line
G1 X0.4 Y200.0 Z0.3 F5000.0 ; Move to side a little
G1 X0.4 Y20 Z0.3 F1500.0 E30 ; Draw the second line
G92 E0 ; Reset Extruder
G1 Z2.0 F3000 ; Move Z Axis up little to prevent scratching of Heat Bed
G1 X5 Y20 Z0.3 F5000.0 ; Move over to prevent blob squish
G92 E0
G92 E0
G1 F2400 E-6.5
;LAYER_COUNT:129
;LAYER:0
M107
G0 F6000 X91.412 Y81.926 Z0.3
;TYPE:SKIRT
G1 F2400 E0
G1 F1200 X92.106 Y81.246 E0.04847
G1 X92.854 Y80.626 E0.09694
G1 X93.65 Y80.069 E0.14541
G1 X94.489 Y79.58 E0.19386
G1 X95.366 Y79.161 E0.24235
G1 X96.274 Y78.816 E0.29081
G1 X97.207 Y78.547 E0.33926
G1 X98.159 Y78.355 E0.38771
G1 X99.124 Y78.242 E0.43618
G1 X99.678 Y78.214 E0.46386
G1 X99.999 Y78.205 E0.47988
G1 X100.33 Y78.2 E0.49639
G1 X119.293 Y78.2 E1.44246
G1 X120.16 Y78.211 E1.48572
G1 X121.13 Y78.265 E1.53419
G1 X122.092 Y78.399 E1.58265
G1 X123.04 Y78.611 E1.63111
G1 X123.967 Y78.9 E1.67955
G1 X124.868 Y79.265 E1.72805
G1 X125.735 Y79.702 E1.77649
G1 X126.563 Y80.21 E1.82496
G1 X127.347 Y80.784 E1.87343
G1 X128.081 Y81.42 E1.92189
G1 X128.76 Y82.114 E1.97033
G1 X129.38 Y82.862 E2.0188
G1 X129.936 Y83.659 E2.06728
G1 X130.425 Y84.498 E2.11573
G1 X130.843 Y85.375 E2.1642
G1 X131.187 Y86.284 E2.21269
G1 X131.456 Y87.217 E2.26113
G1 X131.647 Y88.17 E2.30962
G1 X131.758 Y89.134 E2.35803
G1 X131.786 Y89.678 E2.38521
G1 X131.795 Y89.998 E2.40118
G1 X131.8 Y90.33 E2.41774
G1 X131.799 Y129.41 E4.36745
G1 X131.79 Y130.137 E4.40373
G1 X131.738 Y131.107 E4.45219
G1 X131.606 Y132.07 E4.50068
G1 X131.396 Y133.018 E4.54913
G1 X131.109 Y133.946 E4.59759
G1 X130.746 Y134.847 E4.64605
G1 X130.31 Y135.715 E4.69451
G1 X129.804 Y136.544 E4.74296
G1 X129.232 Y137.329 E4.79142
G1 X128.597 Y138.064 E4.83988
G1 X127.904 Y138.745 E4.88835
G1 X127.157 Y139.366 E4.93682
G1 X126.361 Y139.924 E4.98532
G1 X125.523 Y140.414 E5.03375
G1 X124.647 Y140.834 E5.08222
G1 X123.739 Y141.18 E5.13069
G1 X122.806 Y141.45 E5.17915
G1 X121.854 Y141.643 E5.22761
G1 X120.889 Y141.757 E5.27609
G1 X120.322 Y141.786 E5.30442
G1 X120.001 Y141.795 E5.32044
G1 X119.67 Y141.8 E5.33695
G1 X100.555 Y141.799 E6.2906
G1 X99.857 Y141.79 E6.32543
G1 X98.887 Y141.738 E6.37389
G1 X97.925 Y141.605 E6.42234
G1 X96.976 Y141.395 E6.47083
G1 X96.049 Y141.107 E6.51926
G1 X95.148 Y140.743 E6.56774
G1 X94.28 Y140.307 E6.61621
G1 X93.451 Y139.801 E6.66466
G1 X92.666 Y139.228 E6.71315
G1 X91.931 Y138.593 E6.76161
G1 X91.251 Y137.899 E6.81008
G1 X90.63 Y137.152 E6.85854
G1 X90.073 Y136.356 E6.90701
G1 X89.583 Y135.518 E6.95544
G1 X89.164 Y134.641 E7.00394
G1 X88.818 Y133.734 E7.05237
G1 X88.548 Y132.8 E7.10087
G1 X88.356 Y131.848 E7.14932
G1 X88.243 Y130.883 E7.1978
G1 X88.213 Y130.31 E7.22642
G1 X88.204 Y129.977 E7.24304
G1 X88.2 Y129.658 E7.25896
G1 X88.201 Y90.514 E9.21186
G1 X88.21 Y89.849 E9.24504
G1 X88.263 Y88.879 E9.29351
G1 X88.396 Y87.917 E9.34196
G1 X88.607 Y86.969 E9.39041
G1 X88.896 Y86.041 E9.4389
G1 X89.26 Y85.141 E9.48734
G1 X89.697 Y84.273 E9.53582
G1 X90.204 Y83.444 E9.5843
G1 X90.777 Y82.66 E9.63275
G1 X91.412 Y81.926 E9.68117
G0 F6000 X91.805 Y82.093
G1 F1200 X92.496 Y81.435 E9.72877
G1 X93.24 Y80.836 E9.77643
G1 X94.032 Y80.302 E9.82408
G1 X94.865 Y79.836 E9.8717
G1 X95.734 Y79.441 E9.91932
G1 X96.633 Y79.12 E9.96695
G1 X97.556 Y78.876 E10.01458
G1 X98.497 Y78.71 E10.06225
G1 X99.689 Y78.613 E10.12192
G1 X100.01 Y78.604 E10.13794
G1 X100.33 Y78.6 E10.1539
G1 X119.293 Y78.6 E11.09997
G1 X120.154 Y78.611 E11.14293
G1 X121.108 Y78.665 E11.1906
G1 X122.053 Y78.798 E11.23821
G1 X122.984 Y79.01 E11.28585
G1 X123.894 Y79.299 E11.33348
G1 X124.777 Y79.663 E11.38113
G1 X125.626 Y80.1 E11.42877
G1 X126.435 Y80.606 E11.47638
G1 X127.199 Y81.178 E11.52399
G1 X127.913 Y81.812 E11.57163
G1 X128.571 Y82.504 E11.61927
G1 X129.169 Y83.248 E11.66689
G1 X129.703 Y84.04 E11.71455
G1 X130.168 Y84.874 E11.76219
G1 X130.563 Y85.743 E11.80981
G1 X130.882 Y86.643 E11.85745
G1 X131.126 Y87.566 E11.90508
G1 X131.291 Y88.507 E11.95274
G1 X131.386 Y89.69 E12.01195
G1 X131.395 Y90.01 E12.02792
G1 X131.4 Y90.33 E12.04389
G1 X131.399 Y129.405 E13.99335
G1 X131.39 Y130.132 E14.02962
G1 X131.338 Y131.085 E14.07724
G1 X131.207 Y132.031 E14.12489
G1 X130.997 Y132.963 E14.17255
G1 X130.71 Y133.873 E14.22015
G1 X130.347 Y134.756 E14.26778
G1 X129.912 Y135.606 E14.31542
G1 X129.407 Y136.417 E14.36309
G1 X128.837 Y137.182 E14.41068
G1 X128.204 Y137.897 E14.45832
G1 X127.514 Y138.557 E14.50596
G1 X126.77 Y139.156 E14.55361
G1 X125.98 Y139.691 E14.60121
G1 X125.147 Y140.158 E14.64886
G1 X124.278 Y140.554 E14.6965
G1 X123.379 Y140.876 E14.74414
G1 X122.456 Y141.121 E14.79179
G1 X121.516 Y141.288 E14.83942
G1 X120.311 Y141.387 E14.89974
G1 X119.99 Y141.396 E14.91576
G1 X119.67 Y141.4 E14.93172
G1 X100.56 Y141.399 E15.88513
G1 X99.862 Y141.39 E15.91995
G1 X98.909 Y141.338 E15.96757
G1 X97.963 Y141.206 E16.01522
G1 X97.032 Y140.995 E16.06285
G1 X96.121 Y140.708 E16.1105
G1 X95.238 Y140.345 E16.15813
G1 X94.389 Y139.909 E16.20575
G1 X93.578 Y139.404 E16.25341
G1 X92.813 Y138.833 E16.30104
G1 X92.099 Y138.2 E16.34864
G1 X91.439 Y137.509 E16.39631
G1 X90.84 Y136.766 E16.44393
G1 X90.306 Y135.975 E16.49154
G1 X89.839 Y135.142 E16.53919
G1 X89.444 Y134.273 E16.58681
G1 X89.122 Y133.374 E16.63445
G1 X88.878 Y132.451 E16.68208
G1 X88.711 Y131.511 E16.72971
G1 X88.613 Y130.299 E16.79038
G1 X88.604 Y129.966 E16.807
G1 X88.6 Y129.658 E16.82236
G1 X88.601 Y90.52 E18.77497
G1 X88.61 Y89.855 E18.80815
G1 X88.663 Y88.901 E18.85581
G1 X88.795 Y87.956 E18.90342
G1 X89.007 Y87.025 E18.95106
G1 X89.295 Y86.115 E18.99867
G1 X89.658 Y85.232 E19.04631
G1 X90.094 Y84.382 E19.09397
G1 X90.6 Y83.572 E19.14161
G1 X91.172 Y82.808 E19.18923
G1 X91.805 Y82.093 E19.23687
G0 F6000 X92.198 Y82.264
G1 F1200 X92.886 Y81.627 E19.28365
G1 X93.626 Y81.051 E19.33043
G1 X94.412 Y80.539 E19.37723
G1 X95.239 Y80.097 E19.42401
G1 X96.101 Y79.727 E19.47081
G1 X96.991 Y79.431 E19.51761
G1 X97.903 Y79.213 E19.56439
G1 X98.83 Y79.072 E19.61117
G1 X99.701 Y79.013 E19.65472
G1 X100.022 Y79.004 E19.67074
G1 X100.33 Y79 E19.68611
G1 X119.293 Y79 E20.63218
G1 X120.149 Y79.011 E20.67489
G1 X121.085 Y79.065 E20.72166
G1 X122.013 Y79.197 E20.76843
G1 X122.927 Y79.409 E20.81524
G1 X123.819 Y79.698 E20.86202
G1 X124.684 Y80.061 E20.90882
G1 X125.514 Y80.497 E20.95559
G1 X126.305 Y81.002 E21.00241
G1 X127.049 Y81.573 E21.0492
G1 X127.742 Y82.205 E21.096
G1 X128.379 Y82.893 E21.14277
G1 X128.954 Y83.634 E21.18957
G1 X129.465 Y84.42 E21.23634
G1 X129.907 Y85.248 E21.28317
G1 X130.276 Y86.11 E21.32995
G1 X130.571 Y87 E21.37672
G1 X130.789 Y87.912 E21.42351
G1 X130.929 Y88.84 E21.47033
G1 X130.987 Y89.701 E21.51338
G1 X130.996 Y90.021 E21.52935
G1 X131 Y90.33 E21.54477
G1 X130.999 Y129.4 E23.49398
G1 X130.99 Y130.127 E23.53025
G1 X130.939 Y131.064 E23.57707
G1 X130.807 Y131.992 E23.62383
G1 X130.598 Y132.906 E23.67061
G1 X130.311 Y133.799 E23.71741
G1 X129.949 Y134.665 E23.76423
G1 X129.515 Y135.496 E23.81101
G1 X129.011 Y136.287 E23.8578
G1 X128.442 Y137.032 E23.90457
G1 X127.811 Y137.727 E23.9514
G1 X127.124 Y138.365 E23.99817
G1 X126.385 Y138.942 E24.04495
G1 X125.599 Y139.454 E24.09175
G1 X124.773 Y139.897 E24.13851
G1 X123.911 Y140.269 E24.18535
G1 X123.022 Y140.565 E24.2321
G1 X122.11 Y140.785 E24.2789
G1 X121.183 Y140.926 E24.32568
G1 X120.299 Y140.987 E24.36989
G1 X119.978 Y140.996 E24.38591
G1 X119.67 Y141 E24.40128
G1 X100.565 Y140.999 E25.35443
G1 X99.867 Y140.99 E25.38926
G1 X98.931 Y140.938 E25.43603
G1 X98.002 Y140.806 E25.48284
G1 X97.088 Y140.596 E25.52963
G1 X96.195 Y140.309 E25.57642
G1 X95.33 Y139.946 E25.62323
G1 X94.499 Y139.512 E25.67
G1 X93.708 Y139.008 E25.71679
G1 X92.963 Y138.438 E25.76359
G1 X92.269 Y137.807 E25.81039
G1 X91.632 Y137.12 E25.85713
G1 X91.055 Y136.38 E25.90394
G1 X90.543 Y135.594 E25.95074
G1 X90.1 Y134.767 E25.99755
G1 X89.729 Y133.906 E26.04432
G1 X89.433 Y133.016 E26.09111
G1 X89.214 Y132.104 E26.13791
G1 X89.073 Y131.177 E26.18469
G1 X89.013 Y130.288 E26.22914
G1 X89.004 Y129.955 E26.24576
G1 X89 Y129.658 E26.26058
G1 X89.001 Y90.525 E28.21293
G1 X89.01 Y89.86 E28.24611
G1 X89.063 Y88.924 E28.29289
G1 X89.195 Y87.995 E28.3397
G1 X89.406 Y87.081 E28.3865
G1 X89.694 Y86.189 E28.43326
G1 X90.057 Y85.324 E28.48006
G1 X90.492 Y84.493 E28.52686
G1 X90.996 Y83.703 E28.57361
G1 X91.566 Y82.958 E28.62041
G1 X92.198 Y82.264 E28.66724
G0 F6000 X92.589 Y82.439
G1 F1200 X93.274 Y81.823 E28.7132
G1 X94.01 Y81.27 E28.75913
G1 X94.791 Y80.782 E28.80507
G1 X95.611 Y80.364 E28.85099
G1 X96.465 Y80.019 E28.89694
G1 X97.345 Y79.749 E28.94287
G1 X98.245 Y79.557 E28.98878
G1 X99.159 Y79.443 E29.03473
G1 X99.712 Y79.413 E29.06236
G1 X100.033 Y79.404 E29.07838
G1 X100.33 Y79.4 E29.0932
G1 X119.293 Y79.4 E30.03927
G1 X120.143 Y79.411 E30.08168
G1 X121.062 Y79.464 E30.1276
G1 X121.973 Y79.597 E30.17354
G1 X122.869 Y79.808 E30.21946
G1 X123.743 Y80.096 E30.26537
G1 X124.59 Y80.459 E30.31134
G1 X125.401 Y80.894 E30.35726
G1 X126.171 Y81.398 E30.40317
G1 X126.895 Y81.967 E30.44911
G1 X127.567 Y82.597 E30.49507
G1 X128.182 Y83.282 E30.54099
G1 X128.735 Y84.018 E30.58692
G1 X129.222 Y84.799 E30.63284
G1 X129.639 Y85.62 E30.67878
G1 X129.984 Y86.474 E30.72473
G1 X130.253 Y87.354 E30.77064
G1 X130.445 Y88.255 E30.8166
G1 X130.558 Y89.168 E30.8625
G1 X130.587 Y89.712 E30.88968
G1 X130.596 Y90.032 E30.90565
G1 X130.6 Y90.33 E30.92052
G1 X130.599 Y129.395 E32.86948
G1 X130.59 Y130.122 E32.90575
G1 X130.539 Y131.041 E32.95167
G1 X130.408 Y131.953 E32.99764
G1 X130.198 Y132.849 E33.04355
G1 X129.912 Y133.724 E33.08948
G1 X129.551 Y134.571 E33.13541
G1 X129.117 Y135.383 E33.18135
G1 X128.615 Y136.155 E33.22729
G1 X128.047 Y136.88 E33.27324
G1 X127.419 Y137.553 E33.31916
G1 X126.735 Y138.169 E33.36509
G1 X126 Y138.723 E33.41101
G1 X125.22 Y139.212 E33.45694
G1 X124.4 Y139.631 E33.50288
G1 X123.547 Y139.977 E33.5488
G1 X122.667 Y140.248 E33.59474
G1 X121.767 Y140.441 E33.64066
G1 X120.853 Y140.556 E33.68662
G1 X120.288 Y140.587 E33.71485
G1 X119.967 Y140.596 E33.73087
G1 X119.67 Y140.6 E33.74569
G1 X100.57 Y140.599 E34.69859
G1 X99.872 Y140.59 E34.73342
G1 X98.953 Y140.538 E34.77934
G1 X98.042 Y140.407 E34.82526
G1 X97.146 Y140.197 E34.87117
G1 X96.271 Y139.91 E34.91711
G1 X95.424 Y139.548 E34.96307
G1 X94.612 Y139.114 E35.009
G1 X93.841 Y138.612 E35.0549
G1 X93.116 Y138.044 E35.10085
G1 X92.443 Y137.415 E35.14681
G1 X91.828 Y136.731 E35.1927
G1 X91.274 Y135.996 E35.23862
G1 X90.786 Y135.215 E35.28457
G1 X90.367 Y134.395 E35.33051
G1 X90.021 Y133.542 E35.37643
G1 X89.751 Y132.662 E35.42235
G1 X89.558 Y131.761 E35.46832
G1 X89.444 Y130.848 E35.51423
G1 X89.413 Y130.277 E35.54276
G1 X89.404 Y129.944 E35.55938
G1 X89.4 Y129.658 E35.57365
G1 X89.401 Y90.531 E37.5257
G1 X89.41 Y89.866 E37.55888
G1 X89.462 Y88.946 E37.60485
G1 X89.594 Y88.035 E37.65078
G1 X89.805 Y87.139 E37.6967
G1 X90.092 Y86.264 E37.74264
G1 X90.455 Y85.418 E37.78857
G1 X90.889 Y84.606 E37.83451
G1 X91.392 Y83.835 E37.88043
G1 X91.961 Y83.111 E37.92637
G1 X92.589 Y82.439 E37.97226
G0 F6000 X92.355 Y83.267
G1 F1200 X92.981 Y82.617 E38.01728
G1 X93.662 Y82.024 E38.06234
G1 X94.394 Y81.494 E38.10742
G1 X95.169 Y81.031 E38.15246
G1 X95.982 Y80.638 E38.19751
G1 X96.827 Y80.318 E38.24259
G1 X97.696 Y80.075 E38.28761
G1 X98.584 Y79.909 E38.33268
G1 X99.723 Y79.813 E38.38971
G1 X100.044 Y79.804 E38.40573
G1 X100.33 Y79.8 E38.42
G1 X119.293 Y79.8 E39.36607
G1 X120.137 Y79.811 E39.40818
G1 X121.039 Y79.864 E39.45325
G1 X121.932 Y79.996 E39.49829
G1 X122.81 Y80.207 E39.54334
G1 X123.666 Y80.495 E39.5884
G1 X124.493 Y80.857 E39.63344
G1 X125.285 Y81.292 E39.67852
G1 X126.036 Y81.794 E39.72359
G1 X126.739 Y82.361 E39.76865
G1 X127.389 Y82.988 E39.8137
G1 X127.981 Y83.67 E39.85876
G1 X128.511 Y84.401 E39.9038
G1 X128.973 Y85.177 E39.94886
G1 X129.366 Y85.99 E39.99391
G1 X129.684 Y86.835 E40.03896
G1 X129.927 Y87.705 E40.08402
G1 X130.092 Y88.593 E40.12908
G1 X130.187 Y89.723 E40.18566
G1 X130.196 Y90.043 E40.20163
G1 X130.2 Y90.33 E40.21595
G1 X130.199 Y129.39 E42.16466
G1 X130.19 Y130.117 E42.20093
G1 X130.139 Y131.019 E42.24601
G1 X130.008 Y131.913 E42.29108
G1 X129.799 Y132.791 E42.33611
G1 X129.513 Y133.648 E42.38119
G1 X129.152 Y134.476 E42.42625
G1 X128.72 Y135.268 E42.47126
G1 X128.219 Y136.02 E42.51634
G1 X127.653 Y136.724 E42.56141
G1 X127.028 Y137.375 E42.60643
G1 X126.347 Y137.969 E42.65151
G1 X125.616 Y138.5 E42.69659
G1 X124.842 Y138.964 E42.74161
G1 X124.029 Y139.358 E42.78668
G1 X123.185 Y139.678 E42.83172
G1 X122.315 Y139.923 E42.87681
G1 X121.428 Y140.089 E42.92183
G1 X120.277 Y140.187 E42.97946
G1 X119.956 Y140.196 E42.99548
G1 X119.67 Y140.2 E43.00975
G1 X100.575 Y140.199 E43.96241
G1 X99.877 Y140.19 E43.99723
G1 X98.976 Y140.139 E44.04226
G1 X98.082 Y140.007 E44.08734
G1 X97.204 Y139.798 E44.13237
G1 X96.347 Y139.511 E44.17746
G1 X95.52 Y139.15 E44.22248
G1 X94.727 Y138.717 E44.26755
G1 X93.976 Y138.216 E44.31259
G1 X93.272 Y137.65 E44.35766
G1 X92.621 Y137.024 E44.40272
G1 X92.028 Y136.343 E44.44777
G1 X91.498 Y135.612 E44.49282
G1 X91.034 Y134.837 E44.53788
G1 X90.64 Y134.024 E44.58295
G1 X90.32 Y133.18 E44.62799
G1 X90.076 Y132.31 E44.67306
G1 X89.91 Y131.422 E44.71813
G1 X89.813 Y130.267 E44.77596
G1 X89.804 Y129.934 E44.79258
G1 X89.8 Y129.658 E44.80635
G1 X89.801 Y90.536 E46.75816
G1 X89.81 Y89.871 E46.79134
G1 X89.862 Y88.969 E46.83641
G1 X89.994 Y88.076 E46.88145
G1 X90.204 Y87.198 E46.92649
G1 X90.491 Y86.341 E46.97158
G1 X90.853 Y85.514 E47.01662
G1 X91.286 Y84.722 E47.06165
G1 X91.788 Y83.971 E47.10672
G1 X92.355 Y83.267 E47.15181
G1 F2400 E40.65181
;MESH:03_RetractionCalibration.stl
G0 F6000 X99.335 Y90.414
G0 X100.414 Y90.414
G0 X101.182 Y128.818
G0 X119 Y129
;TYPE:WALL-INNER
G1 F2400 E47.15181
G1 F1200 X101 Y129 E48.04984
G1 X101 Y91 E49.94566
G1 X119 Y91 E50.84369
G1 X119 Y129 E52.73952
G0 F6000 X119.4 Y129.4
G1 F1200 X100.6 Y129.4 E53.67745
G1 X100.6 Y90.6 E55.61319
G1 X119.4 Y90.6 E56.55113
G1 X119.4 Y129.4 E58.48687
G0 F6000 X119.8 Y129.8
;TYPE:WALL-OUTER
G1 F1200 X100.2 Y129.8 E59.46472
G1 X100.2 Y90.2 E61.44037
G1 X119.8 Y90.2 E62.41822
G1 X119.8 Y129.8 E64.39387
G0 F6000 X119.53 Y129.53
G0 X118.89 Y128.61
G0 X118.61 Y128.61
;TYPE:SKIN
G1 F1200 X101.39 Y128.61 E65.25298
G1 X101.39 Y91.39 E67.10989
G1 X118.61 Y91.39 E67.969
G1 X118.61 Y128.61 E69.82591
G0 F6000 X118.89 Y128.61
G0 X101.862 Y128.89
G0 X101.862 Y128.449
G1 F1200 X101.549 Y128.136 E69.848
G0 F6000 X101.549 Y127.571
G1 F1200 X102.427 Y128.449 E69.90994
G0 F6000 X102.993 Y128.449
G1 F1200 X101.549 Y127.005 E70.01183
G0 F6000 X101.549 Y126.439
G1 F1200 X103.559 Y128.449 E70.15364
G0 F6000 X104.125 Y128.449
G1 F1200 X101.549 Y125.874 E70.33536
G0 F6000 X101.549 Y125.308
G1 F1200 X104.69 Y128.449 E70.55697
G0 F6000 X105.256 Y128.449
G1 F1200 X101.549 Y124.742 E70.81852
G0 F6000 X101.549 Y124.177
G1 F1200 X105.822 Y128.449 E71.11997
G0 F6000 X106.387 Y128.449
G1 F1200 X101.549 Y123.611 E71.46132
G0 F6000 X101.549 Y123.045
G1 F1200 X106.953 Y128.449 E71.8426
G0 F6000 X107.519 Y128.449
G1 F1200 X101.549 Y122.48 E72.26378
G0 F6000 X101.549 Y121.914
G1 F1200 X108.084 Y128.449 E72.72486
G0 F6000 X108.65 Y128.449
G1 F1200 X101.549 Y121.348 E73.22587
G0 F6000 X101.549 Y120.783
G1 F1200 X109.216 Y128.449 E73.76678
G0 F6000 X109.781 Y128.449
G1 F1200 X101.549 Y120.217 E74.3476
G0 F6000 X101.549 Y119.651
G1 F1200 X110.347 Y128.449 E74.96834
G0 F6000 X110.913 Y128.449
G1 F1200 X101.549 Y119.085 E75.62902
G0 F6000 X101.549 Y118.52
G1 F1200 X111.478 Y128.449 E76.32957
G0 F6000 X112.044 Y128.449
G1 F1200 X101.549 Y117.954 E77.07005
G0 F6000 X101.549 Y117.388
G1 F1200 X112.61 Y128.449 E77.85046
