;FLAVOR:Marlin
;TIME:7521
;Filament used: 3.98553m
;Layer height: 0.2
;MINX:90.291
;MINY:72.79
;MINZ:0.3
;MAXX:129.157
;MAXY:139.684
;MAXZ:47.9
;Generated with Cura_SteamEngine 4.11.0
M140 S50
M105
M190 S50
M104 S200
M105
M109 S200
M82 ;absolute extrusion mode
; Ender 3 Custom Start G-code
G92 E0 ; Reset Extruder
G28 ; Home all axes
M420 S1 Z2; enable ABL using saved mesh
G1 Z2.0 F3000 ; Move Z Axis up little to prevent scratching of Heat Bed
G1 X0.1 Y20 Z0.3 F5000.0 ; Move to start position
G1 X0.1 Y200.0 Z0.3 F1500.0 E15 ; Draw the first line
G1 X0.4 Y200.0 Z0.3 F5000.0 ; Move to side a little
G1 X0.4 Y20 Z0.3 F1500.0 E30 ; Draw the second line
G92 E0 ; Reset Extruder
G1 Z2.0 F3000 ; Move Z Axis up little to prevent scratching of Heat Bed
G1 X5 Y20 Z0.3 F5000.0 ; Move over to prevent blob squish
G92 E0
G92 E0
G1 F1500 E-6.5
;LAYER_COUNT:240
;LAYER:0
M107
G0 F6000 X92.972 Y78.522 Z0.3
;TYPE:SKIRT
G1 F1500 E0
G1 F1200 X93.717 Y77.662 E0.05677
G1 X93.965 Y77.404 E0.07462
G1 X94.643 Y76.756 E0.12141
G1 X95.169 Y76.323 E0.1554
G1 X95.257 Y76.255 E0.16095
G1 X96.023 Y75.714 E0.20773
G1 X96.424 Y75.467 E0.23123
G1 X96.675 Y75.32 E0.24574
G1 X97.504 Y74.881 E0.29254
G1 X98.034 Y74.645 E0.32149
G1 X98.247 Y74.557 E0.33299
G1 X99.492 Y74.128 E0.39868
G1 X99.7 Y74.07 E0.40946
G1 X100.614 Y73.857 E0.45628
G1 X101.337 Y73.745 E0.49278
G1 X102.149 Y73.647 E0.53358
G1 X102.53 Y73.608 E0.55269
G1 X110.705 Y72.909 E0.96203
G1 X110.928 Y72.892 E0.97319
G1 X112.173 Y72.811 E1.03543
G1 X113.11 Y72.79 E1.08219
G1 X113.622 Y72.813 E1.10776
G1 X113.816 Y72.826 E1.11746
G1 X114.968 Y72.964 E1.17535
G1 X115.192 Y73.003 E1.18669
G1 X116.108 Y73.203 E1.23347
G1 X117.142 Y73.531 E1.28759
G1 X117.408 Y73.63 E1.30175
G1 X118.525 Y74.118 E1.36256
G1 X118.751 Y74.232 E1.37519
G1 X119.57 Y74.689 E1.42198
G1 X120.02 Y74.982 E1.44877
G1 X120.106 Y75.041 E1.45397
G1 X120.745 Y75.515 E1.49367
G1 X120.958 Y75.685 E1.50726
G1 X121.665 Y76.3 E1.55401
G1 X122.502 Y77.187 E1.61486
G1 X122.659 Y77.373 E1.627
G1 X123.233 Y78.115 E1.6738
G1 X123.643 Y78.738 E1.71101
G1 X123.809 Y79.01 E1.72691
G1 X124.263 Y79.83 E1.77367
G1 X124.636 Y80.664 E1.81925
G1 X124.715 Y80.862 E1.82989
G1 X125.038 Y81.792 E1.879
G1 X125.078 Y81.926 E1.88598
G1 X125.39 Y83.272 E1.95491
G1 X125.57 Y84.357 E2.00978
G1 X125.601 Y84.557 E2.01988
G1 X125.934 Y86.822 E2.1341
G1 X125.976 Y87.135 E2.14985
G1 X126.147 Y88.261 E2.20667
G1 X127.101 Y94.747 E2.53374
G1 X127.797 Y99.455 E2.77118
G1 X128.874 Y106.77 E3.14006
G1 X128.961 Y107.434 E3.17347
G1 X128.992 Y107.692 E3.18643
G1 X129.036 Y108.11 E3.2074
G1 X129.089 Y108.722 E3.23805
G1 X129.109 Y109.005 E3.2522
G1 X129.133 Y109.44 E3.27394
G1 X129.145 Y109.726 E3.28822
G1 X129.155 Y110.134 E3.30858
G1 X129.157 Y110.547 E3.32919
G1 X129.154 Y110.872 E3.3454
G1 X129.132 Y111.723 E3.38787
G1 X129.114 Y112.136 E3.4085
G1 X129.086 Y112.579 E3.43064
G1 X129.065 Y112.862 E3.4448
G1 X129.032 Y113.208 E3.46214
G1 X128.995 Y113.555 E3.47955
G1 X128.948 Y113.933 E3.49855
G1 X128.875 Y114.448 E3.5245
G1 X128.83 Y114.741 E3.53929
G1 X128.735 Y115.302 E3.56768
G1 X128.597 Y115.983 E3.60235
G1 X128.501 Y116.393 E3.62335
G1 X128.379 Y116.929 E3.65078
G1 X128.323 Y117.156 E3.66244
G1 X128.237 Y117.483 E3.67931
G1 X128.133 Y117.855 E3.69858
G1 X128.027 Y118.211 E3.71711
G1 X127.865 Y118.723 E3.74391
G1 X127.778 Y118.986 E3.75773
G1 X127.653 Y119.349 E3.77688
G1 X127.531 Y119.684 E3.79467
G1 X127.361 Y120.126 E3.81829
G1 X127.256 Y120.387 E3.83233
G1 X126.986 Y121.027 E3.86698
G1 X126.83 Y121.377 E3.8861
G1 X126.695 Y121.672 E3.90229
G1 X126.565 Y121.947 E3.91746
G1 X126.343 Y122.393 E3.94232
G1 X126.043 Y122.969 E3.97472
G1 X125.845 Y123.329 E3.99522
G1 X125.659 Y123.654 E4.0139
G1 X125.336 Y124.183 E4.04482
G1 X125.153 Y124.464 E4.06155
G1 X124.876 Y124.902 E4.08741
G1 X124.605 Y125.309 E4.1118
G1 X124.216 Y125.871 E4.1459
G1 X124.092 Y126.043 E4.15648
G1 X123.798 Y126.432 E4.18081
G1 X123.477 Y126.838 E4.20663
G1 X123.298 Y127.058 E4.22078
G1 X122.978 Y127.442 E4.24572
G1 X122.728 Y127.733 E4.26486
G1 X122.322 Y128.187 E4.29524
G1 X121.956 Y128.576 E4.32189
G1 X121.611 Y128.926 E4.34641
G1 X121.294 Y129.235 E4.36849
G1 X120.513 Y129.966 E4.42186
G1 X120.113 Y130.323 E4.44861
G1 X119.981 Y130.435 E4.45725
G1 X119.776 Y130.604 E4.4705
G1 X119.178 Y131.087 E4.50885
G1 X118.736 Y131.426 E4.53664
G1 X118.395 Y131.674 E4.55768
G1 X118.102 Y131.88 E4.57555
G1 X117.488 Y132.275 E4.61197
G1 X117.213 Y132.439 E4.62795
G1 X116.388 Y132.884 E4.67471
G1 X115.576 Y133.239 E4.71892
G1 X115.335 Y133.333 E4.73183
G1 X114.448 Y133.636 E4.77859
G1 X113.538 Y133.863 E4.82538
G1 X113.058 Y133.95 E4.84972
G1 X112.799 Y133.991 E4.8628
G1 X111.867 Y134.098 E4.90961
G1 X110.762 Y134.121 E4.96475
G1 X110.554 Y134.115 E4.97513
G1 X109.618 Y134.048 E5.02195
G1 X108.686 Y133.901 E5.06902
G1 X108.459 Y133.855 E5.08057
G1 X107.549 Y133.63 E5.12734
G1 X106.853 Y133.4 E5.16391
G1 X106.695 Y133.342 E5.17231
G1 X105.882 Y133.006 E5.2162
G1 X105.639 Y132.894 E5.22955
G1 X105.341 Y132.751 E5.24604
G1 X104.891 Y132.527 E5.27111
G1 X104.575 Y132.364 E5.28885
G1 X104.353 Y132.244 E5.30144
G1 X104.094 Y132.1 E5.31623
G1 X103.785 Y131.922 E5.33402
G1 X103.301 Y131.632 E5.36217
G1 X103.068 Y131.488 E5.37583
G1 X102.561 Y131.164 E5.40585
G1 X102.27 Y130.97 E5.4233
G1 X102.037 Y130.81 E5.4374
G1 X101.516 Y130.443 E5.4692
G1 X101.135 Y130.162 E5.49282
G1 X100.866 Y129.951 E5.50987
G1 X100.237 Y129.444 E5.55018
G1 X99.96 Y129.213 E5.56817
G1 X99.777 Y129.057 E5.58017
G1 X99.551 Y128.86 E5.59513
G1 X99.319 Y128.652 E5.61067
G1 X99.099 Y128.449 E5.62561
G1 X98.912 Y128.272 E5.63845
G1 X98.577 Y127.948 E5.6617
G1 X98.327 Y127.699 E5.67931
G1 X98.05 Y127.409 E5.69931
G1 X97.624 Y126.952 E5.73048
G1 X97.423 Y126.732 E5.74535
G1 X97.205 Y126.487 E5.76171
G1 X96.844 Y126.066 E5.78938
G1 X96.596 Y125.761 E5.80899
G1 X96.379 Y125.485 E5.82651
G1 X96.063 Y125.07 E5.85253
G1 X95.888 Y124.834 E5.86719
G1 X95.551 Y124.366 E5.89596
G1 X95.352 Y124.079 E5.91339
G1 X95.134 Y123.755 E5.93287
G1 X94.965 Y123.496 E5.9483
G1 X94.772 Y123.191 E5.9663
G1 X94.596 Y122.903 E5.98314
G1 X94.319 Y122.434 E6.01032
G1 X94.106 Y122.057 E6.03192
G1 X93.89 Y121.656 E6.05465
G1 X93.766 Y121.419 E6.06799
G1 X93.537 Y120.968 E6.09322
G1 X93.402 Y120.693 E6.10851
G1 X93.217 Y120.302 E6.13009
G1 X93.064 Y119.964 E6.1486
G1 X92.884 Y119.54 E6.17158
G1 X92.587 Y118.805 E6.21113
G1 X92.41 Y118.337 E6.23609
G1 X92.297 Y118.016 E6.25307
G1 X92.189 Y117.694 E6.27001
G1 X91.965 Y116.989 E6.30692
G1 X91.832 Y116.535 E6.33052
G1 X91.706 Y116.07 E6.35456
G1 X91.593 Y115.615 E6.37795
G1 X91.414 Y114.822 E6.41851
G1 X91.342 Y114.479 E6.43599
G1 X91.255 Y114.027 E6.45895
G1 X91.192 Y113.664 E6.47734
G1 X91.159 Y113.455 E6.48789
G1 X91.109 Y113.105 E6.50553
G1 X91.003 Y112.258 E6.54812
G1 X90.954 Y111.776 E6.57229
G1 X90.924 Y111.404 E6.59091
G1 X90.904 Y111.117 E6.60526
G1 X90.884 Y110.749 E6.62365
G1 X90.843 Y109.714 E6.67532
G1 X90.713 Y104.264 E6.9473
G1 X90.705 Y104.152 E6.95291
G1 X90.695 Y103.542 E6.98334
G1 X90.662 Y102.286 E7.04603
G1 X90.3 Y87.317 E7.79305
G1 X90.291 Y86.398 E7.8389
G1 X90.343 Y85.242 E7.89663
G1 X90.37 Y84.965 E7.91052
G1 X90.501 Y84.036 E7.95733
G1 X90.71 Y83.12 E8.0042
G1 X90.766 Y82.916 E8.01475
G1 X91.01 Y82.143 E8.05519
G1 X91.042 Y82.053 E8.05996
G1 X91.302 Y81.39 E8.09549
G1 X91.407 Y81.146 E8.10874
G1 X91.814 Y80.301 E8.15553
G1 X92.291 Y79.494 E8.2023
G1 X92.427 Y79.285 E8.21474
G1 X92.972 Y78.522 E8.26152
G0 F6000 X93.298 Y78.755
G1 F1200 X94.005 Y77.939 E8.31539
G1 X94.253 Y77.681 E8.33324
G1 X94.919 Y77.046 E8.37915
G1 X95.414 Y76.639 E8.41112
G1 X95.502 Y76.571 E8.41667
G1 X96.626 Y75.812 E8.48434
G1 X96.877 Y75.665 E8.49885
G1 X97.691 Y75.235 E8.54478
G1 X98.186 Y75.015 E8.5718
G1 X98.399 Y74.927 E8.5833
G1 X99.6 Y74.514 E8.64666
G1 X99.808 Y74.456 E8.65743
G1 X100.705 Y74.247 E8.70338
G1 X101.385 Y74.142 E8.73771
G1 X102.197 Y74.044 E8.77852
G1 X102.564 Y74.007 E8.79692
G1 X110.954 Y73.291 E9.21702
G1 X112.199 Y73.21 E9.27926
G1 X113.119 Y73.191 E9.32517
G1 X113.596 Y73.212 E9.34899
G1 X113.79 Y73.225 E9.35869
G1 X114.899 Y73.358 E9.41442
G1 X115.123 Y73.397 E9.42576
G1 X116.022 Y73.594 E9.47168
G1 X117.002 Y73.906 E9.52299
G1 X117.268 Y74.005 E9.53715
G1 X118.345 Y74.475 E9.59577
G1 X118.571 Y74.589 E9.6084
G1 X119.374 Y75.039 E9.65433
G1 X119.794 Y75.312 E9.67932
G1 X119.88 Y75.371 E9.68452
G1 X120.495 Y75.827 E9.72272
G1 X120.708 Y75.997 E9.73631
G1 X121.402 Y76.602 E9.78225
G1 X122.196 Y77.445 E9.84002
G1 X122.353 Y77.631 E9.85217
G1 X122.916 Y78.359 E9.89808
G1 X123.301 Y78.946 E9.9331
G1 X123.467 Y79.218 E9.949
G1 X123.912 Y80.024 E9.99493
G1 X124.264 Y80.812 E10.03799
G1 X124.343 Y81.01 E10.04863
G1 X124.655 Y81.906 E10.09596
G1 X124.695 Y82.04 E10.10294
G1 X124.995 Y83.337 E10.16935
G1 X125.175 Y84.422 E10.22422
G1 X125.205 Y84.615 E10.23397
G1 X125.538 Y86.88 E10.34818
G1 X125.581 Y87.204 E10.36449
G1 X125.751 Y88.319 E10.42076
G1 X126.705 Y94.806 E10.74788
G1 X127.401 Y99.513 E10.98527
G1 X128.504 Y107.013 E11.36347
G1 X128.565 Y107.485 E11.38721
G1 X128.594 Y107.734 E11.39972
G1 X128.638 Y108.152 E11.42069
G1 X128.659 Y108.375 E11.43186
G1 X128.691 Y108.756 E11.45094
G1 X128.71 Y109.028 E11.46454
G1 X128.734 Y109.457 E11.48598
G1 X128.746 Y109.743 E11.50026
G1 X128.755 Y110.136 E11.51987
G1 X128.757 Y110.549 E11.54047
G1 X128.754 Y110.862 E11.55609
G1 X128.733 Y111.712 E11.59851
G1 X128.715 Y112.111 E11.61844
G1 X128.687 Y112.554 E11.64058
G1 X128.652 Y112.983 E11.66206
G1 X128.597 Y113.513 E11.68864
G1 X128.552 Y113.877 E11.70694
G1 X128.479 Y114.392 E11.73289
G1 X128.435 Y114.674 E11.74713
G1 X128.34 Y115.235 E11.77551
G1 X128.208 Y115.892 E11.80895
G1 X128.109 Y116.315 E11.83062
G1 X128.049 Y116.584 E11.84437
G1 X127.934 Y117.06 E11.8688
G1 X127.852 Y117.375 E11.88504
G1 X127.748 Y117.747 E11.90431
G1 X127.645 Y118.091 E11.92223
G1 X127.483 Y118.603 E11.94902
G1 X127.399 Y118.856 E11.96232
G1 X127.274 Y119.219 E11.98147
G1 X127.158 Y119.542 E11.9986
G1 X127.062 Y119.794 E12.01205
G1 X126.885 Y120.237 E12.03585
G1 X126.62 Y120.866 E12.0699
G1 X126.467 Y121.211 E12.08873
G1 X126.332 Y121.506 E12.10492
G1 X126.206 Y121.77 E12.11951
G1 X125.988 Y122.209 E12.14396
G1 X125.691 Y122.779 E12.17603
G1 X125.498 Y123.13 E12.19601
G1 X125.312 Y123.455 E12.2147
G1 X125.001 Y123.965 E12.2445
G1 X124.785 Y124.297 E12.26426
G1 X124.538 Y124.688 E12.28733
G1 X124.277 Y125.081 E12.31087
G1 X123.891 Y125.637 E12.34464
G1 X123.767 Y125.809 E12.35522
G1 X123.484 Y126.184 E12.37865
G1 X123.163 Y126.59 E12.40448
G1 X122.991 Y126.802 E12.4181
G1 X122.671 Y127.186 E12.44303
G1 X122.429 Y127.466 E12.4615
G1 X122.023 Y127.92 E12.49188
G1 X121.671 Y128.295 E12.51754
G1 X121.326 Y128.645 E12.54206
G1 X121.021 Y128.943 E12.56334
G1 X120.24 Y129.674 E12.6167
G1 X119.854 Y130.018 E12.6425
G1 X119.722 Y130.13 E12.65114
G1 X119.524 Y130.293 E12.66393
G1 X118.926 Y130.776 E12.70228
G1 X118.501 Y131.103 E12.72903
G1 X118.16 Y131.351 E12.75007
G1 X117.875 Y131.551 E12.76744
G1 X117.283 Y131.931 E12.80254
G1 X117.008 Y132.095 E12.81851
G1 X116.198 Y132.532 E12.86443
G1 X115.431 Y132.866 E12.90617
G1 X115.19 Y132.96 E12.91907
G1 X114.318 Y133.257 E12.96503
G1 X112.995 Y133.555 E13.03269
G1 X112.736 Y133.596 E13.04577
G1 X111.822 Y133.7 E13.09166
G1 X110.773 Y133.722 E13.14401
G1 X110.565 Y133.716 E13.15439
G1 X109.647 Y133.649 E13.20031
G1 X108.766 Y133.509 E13.24482
G1 X108.539 Y133.463 E13.25637
G1 X107.645 Y133.241 E13.30233
G1 X106.991 Y133.025 E13.33669
G1 X106.833 Y132.967 E13.34509
G1 X106.049 Y132.643 E13.38741
G1 X105.806 Y132.531 E13.40076
G1 X105.519 Y132.393 E13.41665
G1 X105.069 Y132.169 E13.44173
G1 X104.761 Y132.01 E13.45902
G1 X104.547 Y131.894 E13.47116
G1 X104.288 Y131.75 E13.48595
G1 X103.991 Y131.579 E13.50304
G1 X103.507 Y131.289 E13.53119
G1 X103.282 Y131.15 E13.54439
G1 X102.783 Y130.831 E13.57394
G1 X102.492 Y130.637 E13.59139
G1 X102.268 Y130.483 E13.60495
G1 X101.747 Y130.116 E13.63674
G1 X101.38 Y129.845 E13.6595
G1 X101.116 Y129.64 E13.67618
G1 X100.643 Y129.26 E13.70645
G1 X100.216 Y128.906 E13.73412
G1 X99.814 Y128.558 E13.76065
G1 X99.591 Y128.358 E13.77559
G1 X99.371 Y128.155 E13.79053
G1 X99.19 Y127.984 E13.80295
G1 X98.855 Y127.66 E13.8262
G1 X98.614 Y127.42 E13.84317
G1 X98.342 Y127.137 E13.86275
G1 X97.916 Y126.68 E13.89392
G1 X97.723 Y126.467 E13.90826
G1 X97.502 Y126.219 E13.92483
G1 X97.155 Y125.813 E13.95148
G1 X96.907 Y125.508 E13.97109
G1 X96.698 Y125.243 E13.98793
G1 X96.382 Y124.828 E14.01395
G1 X96.213 Y124.6 E14.02811
G1 X95.876 Y124.132 E14.05688
G1 X95.683 Y123.855 E14.07373
G1 X95.465 Y123.531 E14.09321
G1 X95.303 Y123.282 E14.10803
G1 X95.11 Y122.977 E14.12604
G1 X94.94 Y122.7 E14.14225
G1 X94.663 Y122.231 E14.16943
G1 X94.458 Y121.867 E14.19027
G1 X94.242 Y121.466 E14.21299
G1 X94.123 Y121.238 E14.22582
G1 X93.894 Y120.787 E14.25106
G1 X93.763 Y120.522 E14.26581
G1 X93.578 Y120.131 E14.28739
G1 X93.431 Y119.806 E14.30518
G1 X93.354 Y119.628 E14.31486
G1 X93.255 Y119.39 E14.32772
G1 X92.958 Y118.655 E14.36727
G1 X92.787 Y118.204 E14.39133
G1 X92.674 Y117.883 E14.40831
G1 X92.571 Y117.573 E14.42461
G1 X92.347 Y116.868 E14.46151
G1 X92.218 Y116.43 E14.48429
G1 X92.092 Y115.965 E14.50833
G1 X91.983 Y115.527 E14.53085
G1 X91.804 Y114.734 E14.5714
G1 X91.735 Y114.403 E14.58827
G1 X91.648 Y113.951 E14.61124
G1 X91.587 Y113.601 E14.62896
G1 X91.554 Y113.392 E14.63952
G1 X91.506 Y113.055 E14.6565
G1 X91.4 Y112.208 E14.69909
G1 X91.352 Y111.744 E14.72236
G1 X91.322 Y111.372 E14.74098
G1 X91.304 Y111.095 E14.75483
G1 X91.273 Y110.49 E14.78505
G1 X91.243 Y109.704 E14.82429
G1 X91.114 Y104.304 E15.09378
G1 X91.105 Y104.146 E15.10167
G1 X91.095 Y103.536 E15.13211
G1 X91.062 Y102.277 E15.19494
G1 X90.7 Y87.308 E15.94197
G1 X90.691 Y86.394 E15.98757
G1 X90.741 Y85.281 E16.04315
G1 X90.768 Y85.004 E16.05704
G1 X90.897 Y84.092 E16.10299
G1 X91.096 Y83.226 E16.14732
G1 X91.152 Y83.022 E16.15788
G1 X91.387 Y82.277 E16.19685
G1 X91.419 Y82.187 E16.20162
G1 X91.669 Y81.548 E16.23585
G1 X91.774 Y81.304 E16.2491
G1 X92.175 Y80.475 E16.29504
G1 X92.626 Y79.713 E16.33922
G1 X92.762 Y79.504 E16.35166
G1 X93.298 Y78.755 E16.39761
G0 F6000 X93.623 Y78.987
G1 F1200 X94.293 Y78.216 E16.44857
G1 X94.541 Y77.958 E16.46642
G1 X95.195 Y77.336 E16.51145
G1 X95.658 Y76.956 E16.54134
G1 X95.746 Y76.888 E16.54688
G1 X96.828 Y76.157 E16.61203
G1 X97.079 Y76.01 E16.62654
G1 X97.878 Y75.589 E16.6716
G1 X98.339 Y75.385 E16.69675
G1 X98.552 Y75.297 E16.70825
G1 X99.707 Y74.899 E16.7692
G1 X99.915 Y74.841 E16.77997
G1 X100.795 Y74.637 E16.82504
G1 X101.433 Y74.539 E16.85724
G1 X102.245 Y74.441 E16.89805
G1 X102.598 Y74.405 E16.91575
G1 X110.773 Y73.706 E17.32509
G1 X112.225 Y73.61 E17.39769
G1 X113.569 Y73.611 E17.46474
G1 X113.763 Y73.624 E17.47444
G1 X114.831 Y73.752 E17.5281
G1 X115.055 Y73.791 E17.53945
G1 X115.937 Y73.985 E17.5845
G1 X116.863 Y74.281 E17.633
G1 X117.129 Y74.38 E17.64716
G1 X118.165 Y74.832 E17.70356
G1 X118.391 Y74.946 E17.71618
G1 X119.178 Y75.388 E17.76122
G1 X119.567 Y75.642 E17.78439
G1 X119.653 Y75.701 E17.7896
G1 X120.246 Y76.14 E17.82641
G1 X120.459 Y76.31 E17.84
G1 X121.139 Y76.904 E17.88505
G1 X121.89 Y77.703 E17.93976
G1 X122.047 Y77.889 E17.9519
G1 X122.599 Y78.604 E17.99696
G1 X122.96 Y79.154 E18.02979
G1 X123.126 Y79.426 E18.04568
G1 X123.562 Y80.217 E18.09075
G1 X123.893 Y80.96 E18.13133
G1 X123.972 Y81.158 E18.14196
G1 X124.272 Y82.02 E18.1875
G1 X124.312 Y82.154 E18.19447
G1 X124.6 Y83.403 E18.25842
G1 X124.81 Y84.673 E18.32264
G1 X125.143 Y86.938 E18.43686
G1 X125.184 Y87.247 E18.45241
G1 X125.355 Y88.377 E18.50943
G1 X126.309 Y94.864 E18.83655
G1 X127.005 Y99.571 E19.07393
G1 X128.107 Y107.065 E19.45183
G1 X128.168 Y107.537 E19.47558
G1 X128.196 Y107.776 E19.48758
G1 X128.24 Y108.194 E19.50855
G1 X128.292 Y108.789 E19.53835
G1 X128.311 Y109.051 E19.55145
G1 X128.334 Y109.473 E19.57254
G1 X128.346 Y109.759 E19.58682
G1 X128.355 Y110.138 E19.60573
G1 X128.357 Y110.551 E19.62634
G1 X128.354 Y110.853 E19.64141
G1 X128.333 Y111.702 E19.68378
