;FLAVOR:Marlin
;TIME:18454
;Filament used: 12.7004m
;Layer height: 0.2
;MINX:23.8
;MINY:55.75
;MINZ:0.3
;MAXX:196.2
;MAXY:164.25
;MAXZ:7.9
;Generated with Cura_SteamEngine 4.11.0
M140 S60
M105
M190 S60
M104 S220
M105
M109 S220
M82 ;absolute extrusion mode
; Ender 3 Custom Start G-code
G92 E0 ; Reset Extruder
G28 ; Home all axes
M420 S1 Z2; enable ABL using saved mesh
G1 Z2.0 F3000 ; Move Z Axis up little to prevent scratching of Heat Bed
G1 X0.1 Y20 Z0.3 F5000.0 ; Move to start position
G1 X0.1 Y200.0 Z0.3 F1500.0 E15 ; Draw the first line
G1 X0.4 Y200.0 Z0.3 F5000.0 ; Move to side a little
G1 X0.4 Y20 Z0.3 F1500.0 E30 ; Draw the second line
G92 E0 ; Reset Extruder
G1 Z2.0 F3000 ; Move Z Axis up little to prevent scratching of Heat Bed
G1 X5 Y20 Z0.3 F5000.0 ; Move over to prevent blob squish
G92 E0
G92 E0
G1 F1500 E-6.5
;LAYER_COUNT:40
;LAYER:0
M107
G0 F6000 X30.039 Y56.847 Z0.3
;TYPE:SKIRT
G1 F1500 E0
G1 F1200 X30.901 Y56.477 E0.0468
G1 X31.791 Y56.181 E0.09359
G1 X32.703 Y55.963 E0.14037
G1 X33.63 Y55.822 E0.18716
G1 X34.501 Y55.763 E0.23071
G1 X34.822 Y55.754 E0.24673
G1 X35.13 Y55.75 E0.2621
G1 X184.493 Y55.75 E7.71385
G1 X185.349 Y55.761 E7.75656
G1 X186.285 Y55.815 E7.80333
G1 X187.213 Y55.947 E7.8501
G1 X188.127 Y56.159 E7.89691
G1 X189.019 Y56.448 E7.94369
G1 X189.884 Y56.811 E7.99049
G1 X190.714 Y57.247 E8.03726
G1 X191.505 Y57.752 E8.08408
G1 X192.249 Y58.323 E8.13087
G1 X192.942 Y58.955 E8.17766
G1 X193.579 Y59.643 E8.22444
G1 X194.154 Y60.384 E8.27123
G1 X194.665 Y61.17 E8.31801
G1 X195.107 Y61.998 E8.36483
G1 X195.476 Y62.86 E8.41161
G1 X195.771 Y63.75 E8.45839
G1 X195.989 Y64.662 E8.50517
G1 X196.129 Y65.59 E8.552
G1 X196.187 Y66.451 E8.59505
G1 X196.196 Y66.771 E8.61102
G1 X196.2 Y67.08 E8.62644
G1 X196.199 Y152.65 E12.89554
G1 X196.19 Y153.377 E12.93181
G1 X196.139 Y154.314 E12.97863
G1 X196.007 Y155.242 E13.02539
G1 X195.798 Y156.156 E13.07217
G1 X195.511 Y157.049 E13.11897
G1 X195.149 Y157.915 E13.1658
G1 X194.715 Y158.746 E13.21257
G1 X194.211 Y159.537 E13.25936
G1 X193.642 Y160.282 E13.30613
G1 X193.011 Y160.977 E13.35296
G1 X192.324 Y161.615 E13.39974
G1 X191.585 Y162.192 E13.44651
G1 X190.799 Y162.704 E13.49331
G1 X189.973 Y163.147 E13.54007
G1 X189.111 Y163.519 E13.58691
G1 X188.222 Y163.815 E13.63366
G1 X187.31 Y164.035 E13.68046
G1 X186.383 Y164.176 E13.72724
G1 X185.499 Y164.237 E13.77145
G1 X185.178 Y164.246 E13.78747
G1 X184.87 Y164.25 E13.80284
G1 X35.365 Y164.249 E21.26168
G1 X34.667 Y164.24 E21.2965
G1 X33.731 Y164.188 E21.34327
G1 X32.802 Y164.056 E21.39009
G1 X31.888 Y163.846 E21.43687
G1 X30.995 Y163.559 E21.48367
G1 X30.13 Y163.196 E21.53047
G1 X29.299 Y162.762 E21.57724
G1 X28.508 Y162.258 E21.62404
G1 X27.763 Y161.688 E21.67083
G1 X27.069 Y161.057 E21.71763
G1 X26.432 Y160.37 E21.76437
G1 X25.855 Y159.63 E21.81119
G1 X25.343 Y158.844 E21.85799
G1 X24.9 Y158.017 E21.90479
G1 X24.529 Y157.156 E21.95157
G1 X24.233 Y156.266 E21.99836
G1 X24.014 Y155.354 E22.04515
G1 X23.873 Y154.427 E22.09193
G1 X23.813 Y153.538 E22.13639
G1 X23.804 Y153.205 E22.15301
G1 X23.8 Y152.908 E22.16782
G1 X23.801 Y67.275 E26.44007
G1 X23.81 Y66.61 E26.47325
G1 X23.863 Y65.674 E26.52002
G1 X23.995 Y64.745 E26.56684
G1 X24.206 Y63.831 E26.61364
G1 X24.494 Y62.939 E26.6604
G1 X24.857 Y62.074 E26.7072
G1 X25.292 Y61.243 E26.754
G1 X25.796 Y60.453 E26.80075
G1 X26.366 Y59.708 E26.84755
G1 X26.998 Y59.014 E26.89438
G1 X27.686 Y58.377 E26.94115
G1 X28.426 Y57.801 E26.98794
G1 X29.212 Y57.289 E27.03474
G1 X30.039 Y56.847 E27.08152
G0 F6000 X30.411 Y57.114
G1 F1200 X31.265 Y56.769 E27.12747
G1 X32.145 Y56.499 E27.1734
G1 X33.045 Y56.307 E27.21931
G1 X33.959 Y56.193 E27.26526
G1 X34.512 Y56.163 E27.29289
G1 X34.833 Y56.154 E27.30891
G1 X35.13 Y56.15 E27.32373
G1 X184.493 Y56.15 E34.77548
G1 X185.343 Y56.161 E34.81789
G1 X186.262 Y56.214 E34.86382
G1 X187.173 Y56.347 E34.90975
G1 X188.069 Y56.558 E34.95567
G1 X188.943 Y56.846 E35.00158
G1 X189.79 Y57.209 E35.04756
G1 X190.601 Y57.644 E35.09347
G1 X191.371 Y58.148 E35.13938
G1 X192.095 Y58.717 E35.18532
G1 X192.767 Y59.347 E35.23128
G1 X193.382 Y60.032 E35.27721
G1 X193.935 Y60.768 E35.32314
G1 X194.422 Y61.549 E35.36905
G1 X194.839 Y62.37 E35.41499
G1 X195.184 Y63.224 E35.46095
G1 X195.453 Y64.104 E35.50686
G1 X195.645 Y65.005 E35.55282
G1 X195.758 Y65.918 E35.59871
G1 X195.787 Y66.462 E35.62589
G1 X195.796 Y66.782 E35.64186
G1 X195.8 Y67.08 E35.65673
G1 X195.799 Y152.645 E39.92559
G1 X195.79 Y153.372 E39.96186
G1 X195.739 Y154.291 E40.00778
G1 X195.608 Y155.203 E40.05375
G1 X195.398 Y156.099 E40.09966
G1 X195.112 Y156.974 E40.14559
G1 X194.751 Y157.821 E40.19152
G1 X194.317 Y158.633 E40.23746
G1 X193.815 Y159.405 E40.2834
G1 X193.247 Y160.13 E40.32935
G1 X192.619 Y160.803 E40.37527
G1 X191.935 Y161.419 E40.42119
G1 X191.2 Y161.973 E40.46711
G1 X190.42 Y162.462 E40.51304
G1 X189.6 Y162.881 E40.55898
G1 X188.747 Y163.227 E40.60491
G1 X187.867 Y163.498 E40.65085
G1 X186.967 Y163.691 E40.69677
G1 X186.053 Y163.806 E40.74273
G1 X185.488 Y163.837 E40.77096
G1 X185.167 Y163.846 E40.78698
G1 X184.87 Y163.85 E40.8018
G1 X35.37 Y163.849 E48.26038
G1 X34.672 Y163.84 E48.29521
G1 X33.753 Y163.788 E48.34113
G1 X32.842 Y163.657 E48.38705
G1 X31.946 Y163.447 E48.43296
G1 X31.071 Y163.16 E48.4789
G1 X30.224 Y162.798 E48.52486
G1 X29.412 Y162.364 E48.57079
G1 X28.641 Y161.862 E48.61669
G1 X27.916 Y161.294 E48.66264
G1 X27.243 Y160.665 E48.7086
G1 X26.628 Y159.981 E48.75449
G1 X26.074 Y159.246 E48.80041
G1 X25.586 Y158.465 E48.84635
G1 X25.167 Y157.645 E48.8923
G1 X24.821 Y156.792 E48.93822
G1 X24.551 Y155.912 E48.98414
G1 X24.358 Y155.011 E49.03011
G1 X24.244 Y154.098 E49.07602
G1 X24.213 Y153.527 E49.10455
G1 X24.204 Y153.194 E49.12117
G1 X24.2 Y152.908 E49.13544
G1 X24.201 Y67.281 E53.40738
G1 X24.21 Y66.616 E53.44056
G1 X24.262 Y65.696 E53.48654
G1 X24.394 Y64.785 E53.53246
G1 X24.605 Y63.889 E53.57839
G1 X24.892 Y63.014 E53.62433
G1 X25.255 Y62.168 E53.67026
G1 X25.689 Y61.356 E53.71619
G1 X26.192 Y60.585 E53.76212
G1 X26.761 Y59.861 E53.80806
G1 X27.389 Y59.189 E53.85395
G1 X28.074 Y58.573 E53.89991
G1 X28.81 Y58.02 E53.94584
G1 X29.591 Y57.532 E53.99178
G1 X30.411 Y57.114 E54.0377
G0 F6000 X30.782 Y57.388
G1 F1200 X31.627 Y57.068 E54.08278
G1 X32.496 Y56.825 E54.1278
G1 X33.384 Y56.659 E54.17287
G1 X34.523 Y56.563 E54.22989
G1 X34.844 Y56.554 E54.24591
G1 X35.13 Y56.55 E54.26018
G1 X184.493 Y56.55 E61.71193
G1 X185.337 Y56.561 E61.75404
G1 X186.239 Y56.614 E61.79912
G1 X187.132 Y56.746 E61.84416
G1 X188.01 Y56.957 E61.88921
G1 X188.866 Y57.245 E61.93427
G1 X189.693 Y57.607 E61.97931
G1 X190.485 Y58.042 E62.02439
G1 X191.236 Y58.544 E62.06945
G1 X191.939 Y59.111 E62.11451
G1 X192.589 Y59.738 E62.15957
G1 X193.181 Y60.42 E62.20463
G1 X193.711 Y61.151 E62.24967
G1 X194.173 Y61.927 E62.29473
G1 X194.566 Y62.74 E62.33978
G1 X194.884 Y63.585 E62.38482
G1 X195.127 Y64.455 E62.42989
G1 X195.292 Y65.343 E62.47495
G1 X195.387 Y66.473 E62.53153
G1 X195.396 Y66.793 E62.5475
G1 X195.4 Y67.08 E62.56182
G1 X195.399 Y152.64 E66.83042
G1 X195.39 Y153.367 E66.8667
G1 X195.339 Y154.269 E66.91177
G1 X195.208 Y155.163 E66.95685
G1 X194.999 Y156.041 E67.00187
G1 X194.713 Y156.898 E67.04695
G1 X194.352 Y157.726 E67.09201
G1 X193.92 Y158.518 E67.13702
G1 X193.419 Y159.27 E67.1821
G1 X192.853 Y159.974 E67.22717
G1 X192.228 Y160.625 E67.27219
G1 X191.547 Y161.219 E67.31728
G1 X190.816 Y161.75 E67.36235
G1 X190.042 Y162.214 E67.40737
G1 X189.229 Y162.608 E67.45245
G1 X188.385 Y162.928 E67.49748
G1 X187.515 Y163.173 E67.54257
G1 X186.628 Y163.339 E67.58759
G1 X185.477 Y163.437 E67.64522
G1 X185.156 Y163.446 E67.66125
G1 X184.87 Y163.45 E67.67552
G1 X35.375 Y163.449 E75.13385
G1 X34.677 Y163.44 E75.16868
G1 X33.776 Y163.389 E75.2137
G1 X32.882 Y163.257 E75.25879
G1 X32.004 Y163.048 E75.30381
G1 X31.147 Y162.761 E75.3489
G1 X30.32 Y162.4 E75.39392
G1 X29.527 Y161.967 E75.439
G1 X28.776 Y161.466 E75.48404
G1 X28.072 Y160.9 E75.5291
G1 X27.421 Y160.274 E75.57416
G1 X26.828 Y159.593 E75.61921
G1 X26.298 Y158.862 E75.66426
G1 X25.834 Y158.087 E75.70933
G1 X25.44 Y157.274 E75.7544
G1 X25.12 Y156.43 E75.79943
G1 X24.876 Y155.56 E75.84451
G1 X24.71 Y154.672 E75.88958
G1 X24.613 Y153.517 E75.94741
G1 X24.604 Y153.184 E75.96403
G1 X24.6 Y152.908 E75.9778
G1 X24.601 Y67.286 E80.2495
G1 X24.61 Y66.621 E80.28268
G1 X24.662 Y65.719 E80.32775
G1 X24.794 Y64.826 E80.37279
G1 X25.004 Y63.948 E80.41783
G1 X25.291 Y63.091 E80.46292
G1 X25.653 Y62.264 E80.50796
G1 X26.086 Y61.472 E80.55299
G1 X26.588 Y60.721 E80.59806
G1 X27.155 Y60.017 E80.64315
G1 X27.781 Y59.367 E80.68818
G1 X28.462 Y58.774 E80.73323
G1 X29.194 Y58.244 E80.77831
G1 X29.969 Y57.781 E80.82335
G1 X30.782 Y57.388 E80.8684
G1 F1500 E74.3684
;MESH:ATX_Front_Panel.stl
G0 F6000 X81.738 Y76.774
G0 X82.576 Y76.394
G0 X101.642 Y83.605
G0 X102.04 Y84.497
G0 X119.789 Y91.25
G0 X118.35 Y91.505
G0 X119.567 Y92.947
G0 X120.73 Y93.661
;TYPE:WALL-INNER
G1 F1500 E80.8684
G1 F1200 X121.2 Y93.703 E80.89195
G1 X121.671 Y93.661 E80.91554
G1 X122.135 Y93.534 E80.93954
G1 X122.55 Y93.341 E80.96237
G1 X122.937 Y93.071 E80.98591
G1 X123.271 Y92.737 E81.00948
G1 X123.541 Y92.35 E81.03302
G1 X123.743 Y91.912 E81.05708
G1 X123.861 Y91.47 E81.07991
G1 X123.903 Y91 E81.10345
G1 X123.861 Y90.529 E81.12704
G1 X123.734 Y90.065 E81.15104
G1 X123.541 Y89.65 E81.17388
G1 X123.271 Y89.263 E81.19742
G1 X122.937 Y88.929 E81.22098
G1 X122.55 Y88.659 E81.24453
G1 X122.112 Y88.457 E81.26859
G1 X121.67 Y88.339 E81.29141
G1 X121.2 Y88.297 E81.31496
G1 X120.729 Y88.339 E81.33855
G1 X120.265 Y88.466 E81.36255
G1 X119.85 Y88.659 E81.38538
G1 X119.463 Y88.929 E81.40892
G1 X119.129 Y89.263 E81.43249
G1 X118.859 Y89.65 E81.45603
G1 X118.657 Y90.088 E81.4801
G1 X118.539 Y90.53 E81.50292
G1 X118.497 Y91 E81.52646
G1 X118.539 Y91.471 E81.55005
G1 X118.666 Y91.935 E81.57405
G1 X118.859 Y92.35 E81.59689
G1 X119.129 Y92.737 E81.62043
G1 X119.463 Y93.071 E81.64399
G1 X119.85 Y93.341 E81.66754
G1 X120.288 Y93.543 E81.6916
G1 X120.73 Y93.661 E81.71442
G0 F6000 X120.8 Y93.266
;TYPE:WALL-OUTER
G1 F1200 X121.2 Y93.301 E81.73446
G1 X121.6 Y93.266 E81.75449
G1 X121.997 Y93.157 E81.77503
G1 X122.35 Y92.993 E81.79445
G1 X122.679 Y92.763 E81.81447
G1 X122.963 Y92.479 E81.83451
G1 X123.193 Y92.15 E81.85454
G1 X123.365 Y91.776 E81.87508
G1 X123.466 Y91.4 E81.8945
G1 X123.501 Y91 E81.91453
G1 X123.466 Y90.6 E81.93456
G1 X123.357 Y90.203 E81.9551
G1 X123.193 Y89.85 E81.97452
G1 X122.963 Y89.521 E81.99455
G1 X122.679 Y89.237 E82.01459
G1 X122.35 Y89.007 E82.03462
G1 X121.976 Y88.835 E82.05515
G1 X121.6 Y88.734 E82.07458
G1 X121.2 Y88.699 E82.09461
G1 X120.8 Y88.734 E82.11464
G1 X120.403 Y88.843 E82.13518
G1 X120.05 Y89.007 E82.1546
G1 X119.721 Y89.237 E82.17463
G1 X119.437 Y89.521 E82.19466
G1 X119.207 Y89.85 E82.21469
G1 X119.035 Y90.224 E82.23523
G1 X118.934 Y90.6 E82.25465
G1 X118.899 Y91 E82.27469
G1 X118.934 Y91.4 E82.29472
G1 X119.043 Y91.797 E82.31526
G1 X119.207 Y92.15 E82.33468
G1 X119.437 Y92.479 E82.3547
G1 X119.721 Y92.763 E82.37474
G1 X120.05 Y92.993 E82.39477
G1 X120.424 Y93.165 E82.41531
G1 X120.8 Y93.266 E82.43473
G0 F6000 X120.724 Y93.699
G1 F1500 E75.93473
G0 F6000 X119.754 Y93.507
G0 X120.479 Y92.24
G0 X101.955 Y93.247
G0 X101.655 Y93.864
G0 X76.559 Y95.195
G0 X76.209 Y94.648
G0 X59.745 Y95.545
G0 X60.538 Y96.767
G0 X58.669 Y97.571
;TYPE:WALL-INNER
G1 F1500 E82.43473
G1 F1200 X59.568 Y97.12 E82.48491
G1 X60.434 Y96.606 E82.53515
G1 X61.236 Y96.049 E82.58387
G1 X62.02 Y95.419 E82.63404
G1 X62.757 Y94.734 E82.68424
G1 X63.444 Y93.997 E82.73451
G1 X64.095 Y93.191 E82.7862
G1 X64.668 Y92.363 E82.83643
G1 X65.181 Y91.498 E82.88661
G1 X65.63 Y90.597 E82.93683
G1 X66.016 Y89.668 E82.98702
G1 X66.332 Y88.71 E83.03735
G1 X66.58 Y87.736 E83.08749
G1 X66.758 Y86.745 E83.13772
G1 X66.865 Y85.744 E83.18795
G1 X66.9 Y84.739 E83.23812
G1 X66.867 Y83.764 E83.28679
G1 X66.756 Y82.733 E83.33852
G1 X66.575 Y81.741 E83.38883
G1 X66.326 Y80.768 E83.43894
G1 X66.019 Y79.84 E83.4877
G1 X65.622 Y78.884 E83.53935
G1 X65.171 Y77.983 E83.58962
G1 X64.656 Y77.118 E83.63984
G1 X64.081 Y76.292 E83.69005
G1 X63.45 Y75.509 E83.74022
G1 X62.763 Y74.772 E83.79049
G1 X62.027 Y74.087 E83.84065
G1 X61.242 Y73.456 E83.8909
G1 X60.415 Y72.883 E83.94109
G1 X59.55 Y72.37 E83.99127
G1 X58.696 Y71.942 E84.03892
G1 X58.611 Y71.903 E84.04359
G1 X57.707 Y71.531 E84.09236
G1 X56.777 Y71.223 E84.14124
G1 X55.781 Y70.969 E84.19252
G1 X54.79 Y70.791 E84.24275
G1 X53.789 Y70.684 E84.29297
G1 X52.784 Y70.65 E84.34314
G1 X51.778 Y70.686 E84.39336
G1 X50.776 Y70.795 E84.44365
G1 X49.786 Y70.975 E84.49385
G1 X48.842 Y71.217 E84.54247
G1 X47.886 Y71.533 E84.5927
G1 X46.956 Y71.918 E84.64292
G1 X46.054 Y72.367 E84.69319
G1 X45.163 Y72.897 E84.74491
G1 X44.338 Y73.472 E84.79508
G1 X43.555 Y74.103 E84.84525
G1 X42.839 Y74.769 E84.89404
G1 X42.133 Y75.528 E84.94575
G1 X41.503 Y76.313 E84.99597
G1 X40.93 Y77.14 E85.04616
G1 X40.417 Y78.005 E85.09634
G1 X39.968 Y78.906 E85.14656
G1 X39.583 Y79.837 E85.19682
G1 X39.267 Y80.793 E85.24706
G1 X39.019 Y81.767 E85.2972
G1 X38.841 Y82.758 E85.34743
G1 X38.734 Y83.759 E85.39766
G1 X38.7 Y84.764 E85.44782
G1 X38.736 Y85.769 E85.498
G1 X38.84 Y86.741 E85.54677
G1 X39.018 Y87.732 E85.597
G1 X39.266 Y88.706 E85.64714
G1 X39.582 Y89.662 E85.69738
G1 X39.967 Y90.593 E85.74764
G1 X40.416 Y91.494 E85.79786
G1 X40.946 Y92.385 E85.84958
G1 X41.521 Y93.211 E85.89979
G1 X42.153 Y93.994 E85.95
G1 X42.84 Y94.73 E86.00023
G1 X43.576 Y95.415 E86.05039
G1 X44.361 Y96.046 E86.10064
G1 X45.188 Y96.619 E86.15083
G1 X46.055 Y97.133 E86.20112
G1 X46.955 Y97.581 E86.25127
G1 X47.885 Y97.966 E86.30149
G1 X48.841 Y98.282 E86.35172
G1 X49.815 Y98.53 E86.40186
G1 X50.807 Y98.708 E86.45215
G1 X51.808 Y98.815 E86.50237
G1 X52.812 Y98.85 E86.55249
G1 X53.788 Y98.817 E86.60121
G1 X54.789 Y98.71 E86.65144
G1 X55.78 Y98.532 E86.70167
G1 X56.784 Y98.276 E86.75336
G1 X57.739 Y97.957 E86.80359
G1 X58.669 Y97.571 E86.85383
G0 F6000 X58.502 Y97.207
;TYPE:WALL-OUTER
G1 F1200 X59.376 Y96.769 E86.9026
G1 X60.217 Y96.269 E86.95142
G1 X60.996 Y95.728 E86.99873
G1 X61.758 Y95.116 E87.04749
G1 X62.474 Y94.451 E87.09624
G1 X63.142 Y93.735 E87.1451
G1 X63.774 Y92.951 E87.19534
G1 X64.331 Y92.147 E87.24414
G1 X64.83 Y91.306 E87.29292
G1 X65.266 Y90.431 E87.3417
G1 X65.641 Y89.528 E87.39048
G1 X65.948 Y88.598 E87.43934
G1 X66.189 Y87.651 E87.48809
G1 X66.362 Y86.688 E87.5369
G1 X66.466 Y85.716 E87.58567
G1 X66.5 Y84.739 E87.63445
G1 X66.468 Y83.792 E87.68172
G1 X66.36 Y82.79 E87.732
G1 X66.184 Y81.827 E87.78084
G1 X65.942 Y80.881 E87.82955
G1 X65.644 Y79.98 E87.8769
G1 X65.258 Y79.05 E87.92714
G1 X64.82 Y78.175 E87.97595
G1 X64.32 Y77.335 E88.02472
G1 X63.761 Y76.532 E88.07354
G1 X63.148 Y75.771 E88.12229
G1 X62.48 Y75.055 E88.17114
G1 X61.765 Y74.39 E88.21986
G1 X61.002 Y73.777 E88.26869
G1 X60.199 Y73.22 E88.31744
G1 X59.358 Y72.721 E88.36623
G1 X58.523 Y72.303 E88.41282
G1 X58.451 Y72.27 E88.41677
G1 X57.568 Y71.906 E88.46442
G1 X56.665 Y71.607 E88.51187
G1 X55.696 Y71.36 E88.56176
G1 X54.733 Y71.187 E88.61058
G1 X53.761 Y71.083 E88.65935
G1 X52.784 Y71.05 E88.70812
G1 X51.807 Y71.085 E88.75689
G1 X50.834 Y71.191 E88.80572
G1 X49.872 Y71.366 E88.8545
G1 X48.954 Y71.601 E88.90178
G1 X48.025 Y71.908 E88.95059
G1 X47.122 Y72.282 E88.99936
G1 X46.246 Y72.718 E89.04817
G1 X45.38 Y73.233 E89.09844
G1 X44.578 Y73.792 E89.14721
G1 X43.817 Y74.406 E89.196
G1 X43.122 Y75.052 E89.24334
G1 X42.436 Y75.79 E89.2936
G1 X41.824 Y76.552 E89.34236
G1 X41.267 Y77.356 E89.39116
G1 X40.768 Y78.197 E89.43995
G1 X40.332 Y79.072 E89.48872
G1 X39.958 Y79.976 E89.53753
G1 X39.651 Y80.905 E89.58634
G1 X39.41 Y81.852 E89.63509
G1 X39.237 Y82.815 E89.68391
G1 X39.133 Y83.787 E89.73268
G1 X39.1 Y84.764 E89.78145
G1 X39.135 Y85.741 E89.83022
G1 X39.236 Y86.684 E89.87754
G1 X39.409 Y87.647 E89.92635
G1 X39.65 Y88.594 E89.9751
G1 X39.957 Y89.523 E90.02392
G1 X40.331 Y90.427 E90.07272
G1 X40.767 Y91.302 E90.1215
G1 X41.282 Y92.168 E90.17177
G1 X41.841 Y92.971 E90.22058
G1 X42.455 Y93.732 E90.26936
G1 X43.123 Y94.447 E90.31818
G1 X43.838 Y95.112 E90.36689
