;FLAVOR:Marlin
;TIME:445
;Filament used: 0.283521m
;Layer height: 0.2
;MINX:8.6
;MINY:8.6
;MINZ:0.2
;MAXX:211.4
;MAXY:211.4
;MAXZ:0.2
;Generated with Cura_SteamEngine 4.8.0
M140 S65
M105
M190 S65
M104 S210
M105
M109 S210
M82 ;absolute extrusion mode
; Ender 3 Custom Start G-code
G92 E0 ; Reset Extruder
G28 ; Home all axes
G1 Z2.0 F3000 ; Move Z Axis up little to prevent scratching of Heat Bed
G1 X0.1 Y20 Z0.3 F5000.0 ; Move to start position
G1 X0.1 Y200.0 Z0.3 F1500.0 E15 ; Draw the first line
G1 X0.4 Y200.0 Z0.3 F5000.0 ; Move to side a little
G1 X0.4 Y20 Z0.3 F1500.0 E30 ; Draw the second line
G92 E0 ; Reset Extruder
G1 Z2.0 F3000 ; Move Z Axis up little to prevent scratching of Heat Bed
G1 X5 Y20 Z0.3 F5000.0 ; Move over to prevent blob squish
G92 E0
G92 E0
G1 F2700 E-6.5
;LAYER_COUNT:1
;LAYER:0
M107
M204 S1400
M205 X15 Y15
G0 F3000 X10.533 Y10.435 Z0.2
M204 S500
;TYPE:SKIRT
G1 F2700 E0
G1 F1260 X11.071 Y9.964 E0.02378
G1 X11.659 Y9.556 E0.04759
G1 X12.288 Y9.216 E0.07137
G1 X12.952 Y8.949 E0.09517
G1 X13.641 Y8.757 E0.11896
G1 X14.347 Y8.643 E0.14275
G1 X14.83 Y8.612 E0.15884
G1 X15.33 Y8.6 E0.17548
G1 X34.293 Y8.6 E0.80619
G1 X35.086 Y8.611 E0.83257
G1 X35.8 Y8.661 E0.85637
G1 X36.503 Y8.79 E0.88015
G1 X37.188 Y8.997 E0.90395
G1 X37.845 Y9.28 E0.92774
G1 X38.467 Y9.633 E0.95153
G1 X39.045 Y10.054 E0.97531
G1 X39.738 Y10.714 E1.00714
G1 X40.571 Y11.634 E1.04842
G1 X42.427 Y13.626 E1.13897
G1 X44.3 Y15.525 E1.22769
G1 X46.2 Y17.346 E1.31522
G1 X48.164 Y19.124 E1.40334
G1 X50.194 Y20.86 E1.49218
G1 X52.234 Y22.508 E1.5794
G1 X54.359 Y24.127 E1.66825
G1 X56.487 Y25.655 E1.75539
G1 X58.682 Y27.138 E1.84349
G1 X60.918 Y28.559 E1.93161
G1 X63.191 Y29.915 E2.01964
G1 X65.503 Y31.207 E2.10773
G1 X67.878 Y32.448 E2.19686
G1 X70.221 Y33.588 E2.28352
G1 X72.667 Y34.694 E2.37281
G1 X75.11 Y35.718 E2.46091
G1 X77.556 Y36.659 E2.54808
G1 X80.05 Y37.541 E2.63606
G1 X82.588 Y38.358 E2.72474
G1 X85.101 Y39.09 E2.8118
G1 X87.711 Y39.771 E2.90151
G1 X90.255 Y40.359 E2.98836
G1 X92.858 Y40.88 E3.07665
G1 X95.466 Y41.328 E3.16466
G1 X98.094 Y41.703 E3.25296
G1 X100.708 Y42.001 E3.34046
G1 X103.353 Y42.227 E3.42876
G1 X106.024 Y42.379 E3.51774
G1 X108.63 Y42.454 E3.60445
G1 X111.272 Y42.456 E3.69232
G1 X113.949 Y42.381 E3.7814
G1 X116.596 Y42.232 E3.86957
G1 X119.211 Y42.011 E3.95686
G1 X121.83 Y41.714 E4.04453
G1 X124.487 Y41.337 E4.13378
G1 X127.061 Y40.897 E4.22064
G1 X129.701 Y40.369 E4.31018
G1 X132.224 Y39.791 E4.39627
G1 X134.798 Y39.122 E4.48473
G1 X137.386 Y38.371 E4.57436
G1 X139.881 Y37.569 E4.66152
G1 X142.348 Y36.699 E4.74853
G1 X144.872 Y35.728 E4.83847
G1 X147.285 Y34.72 E4.92545
G1 X149.689 Y33.636 E5.01316
G1 X152.083 Y32.473 E5.10169
G1 X154.451 Y31.239 E5.1905
G1 X156.747 Y29.958 E5.27794
G1 X159.012 Y28.61 E5.36561
G1 X161.243 Y27.194 E5.4535
G1 X163.473 Y25.691 E5.54294
G1 X165.6 Y24.166 E5.62999
G1 X167.7 Y22.569 E5.71774
G1 X169.774 Y20.898 E5.80632
G1 X171.787 Y19.178 E5.89439
G1 X173.734 Y17.418 E5.98168
G1 X175.66 Y15.576 E6.07032
G1 X177.526 Y13.686 E6.15866
G1 X179.359 Y11.723 E6.24799
G1 X180.183 Y10.8 E6.28914
G1 X180.441 Y10.527 E6.30163
G1 X180.969 Y10.045 E6.32541
G1 X181.548 Y9.625 E6.3492
G1 X182.171 Y9.273 E6.373
G1 X182.829 Y8.992 E6.3968
G1 X183.514 Y8.786 E6.42059
G1 X184.217 Y8.658 E6.44436
G1 X184.83 Y8.612 E6.4648
G1 X185.33 Y8.6 E6.48144
G1 X204.376 Y8.601 E7.11491
G1 X205.074 Y8.61 E7.13813
G1 X205.787 Y8.659 E7.1619
G1 X206.491 Y8.787 E7.1857
G1 X207.176 Y8.993 E7.20949
G1 X207.833 Y9.275 E7.23327
G1 X208.455 Y9.628 E7.25706
G1 X209.034 Y10.048 E7.28085
G1 X209.563 Y10.53 E7.30465
G1 X210.034 Y11.068 E7.32843
G1 X210.442 Y11.655 E7.35221
G1 X210.782 Y12.285 E7.37602
G1 X211.05 Y12.948 E7.3998
G1 X211.242 Y13.637 E7.42359
G1 X211.356 Y14.343 E7.44738
G1 X211.388 Y14.83 E7.46361
G1 X211.4 Y15.33 E7.48025
G1 X211.399 Y34.363 E8.11329
G1 X211.389 Y35.084 E8.13727
G1 X211.34 Y35.797 E8.16104
G1 X211.21 Y36.501 E8.18485
G1 X211.003 Y37.185 E8.20862
G1 X210.721 Y37.843 E8.23243
G1 X210.368 Y38.465 E8.25622
G1 X209.947 Y39.043 E8.28
G1 X209.286 Y39.738 E8.3119
G1 X208.366 Y40.571 E8.35318
G1 X206.374 Y42.427 E8.44374
G1 X204.474 Y44.3 E8.53247
G1 X202.649 Y46.205 E8.62022
G1 X200.873 Y48.167 E8.70824
G1 X199.155 Y50.177 E8.79618
G1 X197.473 Y52.258 E8.88518
G1 X195.886 Y54.343 E8.97233
G1 X194.34 Y56.495 E9.06046
G1 X192.846 Y58.707 E9.14924
G1 X191.438 Y60.923 E9.23657
G1 X190.094 Y63.176 E9.32382
G1 X188.773 Y65.538 E9.41383
G1 X187.56 Y67.863 E9.50105
G1 X186.412 Y70.221 E9.58828
G1 X185.306 Y72.667 E9.67757
G1 X184.282 Y75.11 E9.76567
G1 X183.341 Y77.556 E9.85284
G1 X182.464 Y80.035 E9.9403
G1 X181.642 Y82.588 E10.0295
G1 X180.912 Y85.096 E10.11638
G1 X180.229 Y87.711 E10.20627
G1 X179.645 Y90.236 E10.29247
G1 X179.12 Y92.858 E10.38141
G1 X178.672 Y95.466 E10.46943
G1 X178.297 Y98.094 E10.55772
G1 X178.001 Y100.69 E10.64462
G1 X177.773 Y103.353 E10.73352
G1 X177.621 Y106.024 E10.8225
G1 X177.546 Y108.616 E10.90874
G1 X177.544 Y111.267 E10.99692
G1 X177.619 Y113.949 E11.08616
G1 X177.768 Y116.596 E11.17433
G1 X177.987 Y119.194 E11.26105
G1 X178.285 Y121.824 E11.34908
G1 X178.663 Y124.487 E11.43854
G1 X179.103 Y127.061 E11.5254
G1 X179.631 Y129.701 E11.61494
G1 X180.209 Y132.224 E11.70103
G1 X180.878 Y134.795 E11.78939
G1 X181.629 Y137.386 E11.87912
G1 X182.431 Y139.881 E11.96628
G1 X183.301 Y142.348 E12.05329
G1 X184.272 Y144.872 E12.14323
G1 X185.273 Y147.269 E12.22963
G1 X186.36 Y149.681 E12.31762
G1 X187.517 Y152.063 E12.4057
G1 X188.755 Y154.439 E12.49481
G1 X190.048 Y156.758 E12.58312
G1 X191.381 Y158.997 E12.66979
G1 X192.806 Y161.243 E12.75826
G1 X194.294 Y163.45 E12.84679
G1 X195.851 Y165.622 E12.93567
G1 X197.431 Y167.7 E13.0225
G1 X199.082 Y169.749 E13.11002
G1 X200.838 Y171.805 E13.19995
G1 X202.575 Y173.727 E13.28611
G1 X204.424 Y175.66 E13.37508
G1 X206.314 Y177.526 E13.46342
G1 X208.277 Y179.359 E13.55275
G1 X209.2 Y180.183 E13.5939
G1 X209.379 Y180.348 E13.602
G1 X209.871 Y180.867 E13.62578
G1 X210.303 Y181.438 E13.6496
G1 X210.668 Y182.053 E13.67338
G1 X210.962 Y182.705 E13.69717
G1 X211.181 Y183.385 E13.72093
G1 X211.324 Y184.086 E13.74473
G1 X211.387 Y184.809 E13.76887
G1 X211.397 Y185.133 E13.77965
G1 X211.4 Y185.33 E13.7862
G1 X211.4 Y204.343 E14.41857
G1 X211.391 Y205.07 E14.44276
G1 X211.342 Y205.784 E14.46656
G1 X211.214 Y206.488 E14.49036
G1 X211.008 Y207.173 E14.51415
G1 X210.727 Y207.83 E14.53792
G1 X210.374 Y208.453 E14.56173
G1 X209.954 Y209.032 E14.58552
G1 X209.472 Y209.56 E14.6093
G1 X208.935 Y210.032 E14.63308
G1 X208.347 Y210.44 E14.65689
G1 X207.718 Y210.781 E14.68068
G1 X207.055 Y211.049 E14.70447
G1 X206.366 Y211.241 E14.72826
G1 X205.66 Y211.356 E14.75205
G1 X205.17 Y211.388 E14.76838
G1 X204.67 Y211.4 E14.78502
G1 X185.616 Y211.399 E15.41875
G1 X184.914 Y211.389 E15.4421
G1 X184.2 Y211.339 E15.46591
G1 X183.497 Y211.21 E15.48968
G1 X182.812 Y211.003 E15.51348
G1 X182.155 Y210.72 E15.53728
G1 X181.533 Y210.367 E15.56106
G1 X180.955 Y209.946 E15.58485
G1 X180.262 Y209.286 E15.61668
G1 X179.429 Y208.366 E15.65796
G1 X177.573 Y206.374 E15.74851
G1 X175.7 Y204.474 E15.83725
G1 X173.795 Y202.649 E15.92499
G1 X171.833 Y200.873 E16.01301
G1 X169.823 Y199.155 E16.10096
G1 X167.742 Y197.473 E16.18996
G1 X165.657 Y195.886 E16.27711
G1 X163.505 Y194.34 E16.36524
G1 X161.293 Y192.846 E16.45402
G1 X159.077 Y191.438 E16.54134
G1 X156.809 Y190.085 E16.62918
G1 X154.492 Y188.79 E16.71746
G1 X152.122 Y187.552 E16.80639
G1 X149.771 Y186.408 E16.89336
G1 X147.333 Y185.306 E16.98234
G1 X144.89 Y184.282 E17.07045
G1 X142.444 Y183.341 E17.15761
G1 X139.95 Y182.459 E17.2456
G1 X137.412 Y181.642 E17.33428
G1 X134.899 Y180.91 E17.42133
G1 X132.289 Y180.229 E17.51105
G1 X129.745 Y179.641 E17.59789
G1 X127.142 Y179.12 E17.68619
G1 X124.534 Y178.672 E17.7742
G1 X121.906 Y178.297 E17.86249
G1 X119.292 Y177.999 E17.95
G1 X116.647 Y177.773 E18.03829
G1 X113.976 Y177.621 E18.12727
G1 X111.37 Y177.546 E18.21399
G1 X108.728 Y177.544 E18.30186
G1 X106.051 Y177.619 E18.39093
G1 X103.404 Y177.768 E18.47911
G1 X100.789 Y177.989 E18.5664
G1 X98.17 Y178.286 E18.65406
G1 X95.513 Y178.663 E18.74332
G1 X92.939 Y179.103 E18.83017
G1 X90.299 Y179.631 E18.91972
G1 X87.776 Y180.209 E19.00581
G1 X85.202 Y180.878 E19.09426
G1 X82.614 Y181.629 E19.18389
G1 X80.119 Y182.431 E19.27106
G1 X77.652 Y183.301 E19.35806
G1 X75.128 Y184.272 E19.44801
G1 X72.715 Y185.28 E19.53499
G1 X70.318 Y186.361 E19.62244
G1 X67.917 Y187.527 E19.71122
G1 X65.549 Y188.761 E19.80003
G1 X63.253 Y190.042 E19.88748
G1 X60.988 Y191.39 E19.97515
G1 X58.757 Y192.806 E20.06303
G1 X56.527 Y194.309 E20.15248
G1 X54.4 Y195.834 E20.23953
G1 X52.304 Y197.428 E20.32711
G1 X50.226 Y199.102 E20.41586
G1 X48.228 Y200.809 E20.50326
G1 X46.266 Y202.582 E20.59122
G1 X44.351 Y204.413 E20.67934
G1 X42.474 Y206.314 E20.7682
G1 X40.647 Y208.27 E20.85722
G1 X39.827 Y209.19 E20.89821
G1 X39.614 Y209.418 E20.90858
G1 X39.554 Y209.479 E20.91143
G1 X39.024 Y209.96 E20.93524
G1 X38.445 Y210.379 E20.95901
G1 X37.822 Y210.731 E20.98281
G1 X37.164 Y211.011 E21.00659
G1 X36.479 Y211.216 E21.03037
G1 X35.775 Y211.343 E21.05417
G1 X35.17 Y211.388 E21.07434
G1 X34.67 Y211.4 E21.09098
G1 X15.624 Y211.399 E21.72445
G1 X14.926 Y211.39 E21.74767
G1 X14.213 Y211.341 E21.77144
G1 X13.509 Y211.213 E21.79524
G1 X12.824 Y211.007 E21.81903
G1 X12.167 Y210.725 E21.84281
G1 X11.545 Y210.372 E21.8666
G1 X10.966 Y209.952 E21.89039
G1 X10.437 Y209.47 E21.91419
G1 X9.966 Y208.932 E21.93797
G1 X9.558 Y208.345 E21.96175
G1 X9.218 Y207.715 E21.98556
G1 X8.95 Y207.052 E22.00934
G1 X8.758 Y206.363 E22.03313
G1 X8.644 Y205.657 E22.05692
G1 X8.611 Y205.164 E22.07335
G1 X8.602 Y204.831 E22.08443
G1 X8.6 Y204.658 E22.09019
G1 X8.601 Y185.616 E22.72353
G1 X8.611 Y184.914 E22.74688
G1 X8.661 Y184.2 E22.77068
G1 X8.79 Y183.497 E22.79446
G1 X8.997 Y182.812 E22.81826
G1 X9.28 Y182.155 E22.84205
G1 X9.633 Y181.533 E22.86584
G1 X10.054 Y180.955 E22.88962
G1 X10.714 Y180.262 E22.92145
G1 X11.652 Y179.412 E22.96355
G1 X13.626 Y177.573 E23.05328
G1 X15.526 Y175.7 E23.14202
G1 X17.351 Y173.795 E23.22977
G1 X19.127 Y171.833 E23.31779
G1 X20.845 Y169.823 E23.40573
G1 X22.527 Y167.742 E23.49473
G1 X24.114 Y165.657 E23.58188
G1 X25.66 Y163.505 E23.67001
G1 X27.154 Y161.293 E23.75879
G1 X28.562 Y159.077 E23.84611
G1 X29.907 Y156.823 E23.93341
G1 X31.227 Y154.462 E24.02338
G1 X32.44 Y152.137 E24.1106
G1 X33.588 Y149.779 E24.19783
G1 X34.694 Y147.333 E24.28712
G1 X35.718 Y144.89 E24.37522
G1 X36.659 Y142.444 E24.46239
G1 X37.541 Y139.95 E24.55037
G1 X38.358 Y137.412 E24.63905
G1 X39.09 Y134.899 E24.72611
G1 X39.771 Y132.289 E24.81582
G1 X40.359 Y129.745 E24.90267
G1 X40.88 Y127.142 E24.99096
G1 X41.328 Y124.534 E25.07897
G1 X41.703 Y121.906 E25.16727
G1 X42.001 Y119.292 E25.25477
G1 X42.227 Y116.647 E25.34307
G1 X42.379 Y113.976 E25.43205
G1 X42.454 Y111.37 E25.51876
G1 X42.456 Y108.726 E25.6067
G1 X42.381 Y106.051 E25.6957
G1 X42.232 Y103.403 E25.78392
G1 X42.011 Y100.789 E25.87117
G1 X41.714 Y98.169 E25.95887
G1 X41.337 Y95.507 E26.04829
G1 X40.897 Y92.939 E26.13495
G1 X40.367 Y90.292 E26.22473
G1 X39.789 Y87.77 E26.31079
G1 X39.121 Y85.202 E26.39905
G1 X38.374 Y82.623 E26.48835
G1 X37.576 Y80.141 E26.57506
G1 X36.676 Y77.589 E26.66507
G1 X35.741 Y75.158 E26.7517
G1 X34.72 Y72.715 E26.83976
G1 X33.639 Y70.318 E26.92722
G1 X32.473 Y67.917 E27.01599
G1 X31.239 Y65.549 E27.10481
G1 X29.958 Y63.253 E27.19225
G1 X28.61 Y60.988 E27.27992
G1 X27.194 Y58.757 E27.36781
G1 X25.691 Y56.527 E27.45725
G1 X24.166 Y54.4 E27.5443
G1 X22.569 Y52.3 E27.63205
G1 X20.898 Y50.226 E27.72063
G1 X19.178 Y48.213 E27.8087
G1 X17.418 Y46.266 E27.89599
G1 X15.576 Y44.34 E27.98463
G1 X13.686 Y42.474 E28.07297
G1 X11.713 Y40.632 E28.16274
G1 X10.8 Y39.817 E28.20345
G1 X10.527 Y39.559 E28.21594
G1 X10.045 Y39.031 E28.23972
G1 X9.625 Y38.452 E28.26351
G1 X9.273 Y37.829 E28.28731
G1 X8.992 Y37.171 E28.31111
G1 X8.786 Y36.486 E28.3349
G1 X8.658 Y35.783 E28.35867
G1 X8.612 Y35.17 E28.37911
G1 X8.6 Y34.67 E28.39575
G1 X8.601 Y15.587 E29.03045
G1 X8.61 Y14.922 E29.05257
G1 X8.659 Y14.209 E29.07634
G1 X8.788 Y13.505 E29.10015
G1 X8.995 Y12.821 E29.12391
G1 X9.277 Y12.163 E29.14772
G1 X9.63 Y11.541 E29.17151
G1 X10.05 Y10.963 E29.19528
G1 X10.263 Y10.73 E29.20578
G0 F1134 X10.533 Y10.435
M204 S1400
G0 F3000 X10.924 Y10.614
M204 S500
G1 F1260 X11.458 Y10.173 E29.22881
G1 X12.039 Y9.796 E29.25185
G1 X12.659 Y9.488 E29.27487
G1 X13.311 Y9.254 E29.29791
G1 X13.985 Y9.097 E29.32093
G1 X14.841 Y9.011 E29.34954
G1 X15.162 Y9.002 E29.36022
G1 X15.33 Y9 E29.36581
G1 X34.293 Y9 E29.99652
G1 X35.08 Y9.011 E30.0227
G1 X35.771 Y9.06 E30.04574
G1 X36.452 Y9.189 E30.0688
G1 X37.113 Y9.396 E30.09183
G1 X37.745 Y9.678 E30.11485
G1 X38.342 Y10.03 E30.1379
G1 X38.893 Y10.449 E30.16093
G1 X39.442 Y10.982 E30.18637
G1 X40.309 Y11.939 E30.22932
G1 X42.15 Y13.915 E30.31915
G1 X44.003 Y15.794 E30.40692
G1 X45.96 Y17.67 E30.49709
G1 X47.883 Y19.41 E30.58335
G1 X49.923 Y21.155 E30.67263
G1 X51.992 Y22.826 E30.76109
G1 X54.13 Y24.454 E30.85047
G1 X56.264 Y25.987 E30.93786
G1 X58.465 Y27.474 E31.02621
G1 X60.709 Y28.899 E31.11462
G1 X62.996 Y30.264 E31.2032
G1 X65.334 Y31.571 E31.29229
G1 X67.668 Y32.79 E31.37987
G1 X70.076 Y33.962 E31.46894
G1 X72.487 Y35.052 E31.55695
G1 X74.949 Y36.084 E31.64574
G1 X77.428 Y37.038 E31.73409
G1 X79.942 Y37.927 E31.82278
G1 X82.458 Y38.737 E31.91069
G1 X84.993 Y39.475 E31.9985
G1 X87.591 Y40.153 E32.08781
G1 X90.222 Y40.761 E32.17762
G1 X92.777 Y41.272 E32.26428
G1 X95.379 Y41.719 E32.35209
G1 X98.063 Y42.103 E32.44227
G1 X100.668 Y42.399 E32.52947
G1 X103.329 Y42.627 E32.6183
G1 X105.954 Y42.777 E32.70575
G1 X108.655 Y42.854 E32.79562
G1 X111.283 Y42.856 E32.88303
G1 X113.948 Y42.781 E32.97171
G1 X116.613 Y42.631 E33.06048
G1 X119.256 Y42.408 E33.1487
G1 X121.895 Y42.109 E33.23704
G1 X124.545 Y41.733 E33.32606
G1 X127.164 Y41.285 E33.41443
G1 X129.762 Y40.765 E33.50256
G1 X132.308 Y40.182 E33.58943
G1 X134.938 Y39.498 E33.67981
G1 X137.45 Y38.769 E33.76681
G1 X140.031 Y37.94 E33.85697
G1 X142.519 Y37.062 E33.94473
G1 X144.991 Y36.112 E34.03281
G1 X147.442 Y35.088 E34.12116
G1 X149.872 Y33.992 E34.20982
G1 X152.264 Y32.83 E34.29827
G1 X154.624 Y31.6 E34.38678
G1 X156.941 Y30.307 E34.47503
G1 X159.251 Y28.932 E34.56445
G1 X161.469 Y27.525 E34.65181
G1 X163.684 Y26.031 E34.74067
G1 X165.834 Y24.49 E34.82865
G1 X167.97 Y22.866 E34.9179
G1 X170.001 Y21.229 E35.00466
G1 X172.049 Y19.479 E35.09426
G1 X174.033 Y17.687 E35.18318
G1 X175.939 Y15.863 E35.27092
G1 X177.821 Y13.958 E35.35999
G1 X179.623 Y12.027 E35.44784
G1 X180.481 Y11.066 E35.49068
G1 X180.726 Y10.807 E35.50254
G1 X181.239 Y10.341 E35.52559
G1 X181.802 Y9.938 E35.54862
G1 X182.408 Y9.602 E35.57167
G1 X183.048 Y9.339 E35.59468
G1 X183.714 Y9.15 E35.61771
G1 X184.398 Y9.04 E35.64075
G1 X184.841 Y9.011 E35.65552
G1 X185.162 Y9.002 E35.6662
G1 X185.33 Y9 E35.67178
G1 X204.37 Y9 E36.30506
G1 X205.068 Y9.009 E36.32827
G1 X205.759 Y9.058 E36.35132
G1 X206.44 Y9.187 E36.37437
G1 X207.101 Y9.392 E36.39739
G1 X207.734 Y9.673 E36.42042
G1 X208.331 Y10.024 E36.44346
G1 X208.883 Y10.442 E36.46648
G1 X209.383 Y10.921 E36.48951
G1 X209.825 Y11.455 E36.51257
G1 X210.202 Y12.035 E36.53558
G1 X210.51 Y12.656 E36.55863
G1 X210.745 Y13.307 E36.58165
G1 X210.902 Y13.982 E36.6047
G1 X210.989 Y14.841 E36.63342
G1 X210.998 Y15.162 E36.6441
G1 X211 Y15.33 E36.64969
G1 X210.999 Y34.357 E37.28253
G1 X210.989 Y35.078 E37.30651
G1 X210.94 Y35.769 E37.32955
G1 X210.811 Y36.449 E37.35257
G1 X210.605 Y37.11 E37.3756
G1 X210.324 Y37.743 E37.39864
G1 X209.971 Y38.34 E37.4217
G1 X209.553 Y38.891 E37.44471
G1 X209.018 Y39.442 E37.47025
G1 X208.061 Y40.309 E37.5132
G1 X206.085 Y42.15 E37.60303
G1 X204.187 Y44.021 E37.69167
G1 X202.346 Y45.942 E37.78017
G1 X200.589 Y47.884 E37.86727
G1 X198.823 Y49.949 E37.95764
G1 X197.189 Y51.971 E38.04411
G1 X195.546 Y54.13 E38.13435
G1 X194.011 Y56.267 E38.22186
G1 X192.533 Y58.455 E38.30968
G1 X191.107 Y60.698 E38.39808
G1 X189.719 Y63.024 E38.48817
G1 X188.45 Y65.295 E38.5747
G1 X187.204 Y67.682 E38.66426
G1 X186.038 Y70.076 E38.75282
