;FLAVOR:Marlin
;TIME:2464
;Filament used: 0.661794m
;Layer height: 0.1
;MINX:88.2
;MINY:88.2
;MINZ:0.3
;MAXX:131.8
;MAXY:131.8
;MAXZ:20
;Generated with Cura_SteamEngine 4.11.0
M140 S60
M105
M190 S60
M104 S220
M105
M109 S220
M82 ;absolute extrusion mode
; Ender 3 Custom Start G-code
G92 E0 ; Reset Extruder
G28 ; Home all axes
M420 S1 Z2; enable ABL using saved mesh
G1 Z2.0 F3000 ; Move Z Axis up little to prevent scratching of Heat Bed
G1 X0.1 Y20 Z0.3 F5000.0 ; Move to start position
G1 X0.1 Y200.0 Z0.3 F1500.0 E15 ; Draw the first line
G1 X0.4 Y200.0 Z0.3 F5000.0 ; Move to side a little
G1 X0.4 Y20 Z0.3 F1500.0 E30 ; Draw the second line
G92 E0 ; Reset Extruder
G1 Z2.0 F3000 ; Move Z Axis up little to prevent scratching of Heat Bed
G1 X5 Y20 Z0.3 F5000.0 ; Move over to prevent blob squish
G92 E0
G92 E0
G1 F2400 E-6
;LAYER_COUNT:198
;LAYER:0
M107
G0 F6000 X91.412 Y91.926 Z0.3
;TYPE:SKIRT
G1 F2400 E0
G1 F1200 X92.106 Y91.246 E0.04847
G1 X92.854 Y90.626 E0.09694
G1 X93.65 Y90.069 E0.14541
G1 X94.489 Y89.58 E0.19386
G1 X95.366 Y89.161 E0.24235
G1 X96.274 Y88.816 E0.29081
G1 X97.207 Y88.547 E0.33926
G1 X98.159 Y88.355 E0.38771
G1 X99.124 Y88.242 E0.43618
G1 X99.678 Y88.214 E0.46386
G1 X99.999 Y88.205 E0.47988
G1 X100.33 Y88.2 E0.49639
G1 X119.293 Y88.2 E1.44246
G1 X120.16 Y88.211 E1.48572
G1 X121.13 Y88.265 E1.53419
G1 X122.092 Y88.399 E1.58265
G1 X123.04 Y88.611 E1.63111
G1 X123.967 Y88.9 E1.67955
G1 X124.868 Y89.265 E1.72805
G1 X125.735 Y89.702 E1.77649
G1 X126.563 Y90.21 E1.82496
G1 X127.347 Y90.784 E1.87343
G1 X128.081 Y91.42 E1.92189
G1 X128.76 Y92.114 E1.97033
G1 X129.38 Y92.862 E2.0188
G1 X129.936 Y93.659 E2.06728
G1 X130.425 Y94.498 E2.11573
G1 X130.843 Y95.375 E2.1642
G1 X131.187 Y96.284 E2.21269
G1 X131.456 Y97.217 E2.26113
G1 X131.647 Y98.17 E2.30962
G1 X131.758 Y99.134 E2.35803
G1 X131.786 Y99.678 E2.38521
G1 X131.795 Y99.998 E2.40118
G1 X131.8 Y100.33 E2.41774
G1 X131.799 Y119.41 E3.36965
G1 X131.79 Y120.137 E3.40592
G1 X131.738 Y121.107 E3.45439
G1 X131.606 Y122.07 E3.50288
G1 X131.396 Y123.018 E3.55132
G1 X131.109 Y123.946 E3.59978
G1 X130.746 Y124.847 E3.64824
G1 X130.31 Y125.715 E3.69671
G1 X129.804 Y126.544 E3.74516
G1 X129.232 Y127.329 E3.79362
G1 X128.597 Y128.064 E3.84208
G1 X127.904 Y128.745 E3.89055
G1 X127.157 Y129.366 E3.93901
G1 X126.361 Y129.924 E3.98751
G1 X125.523 Y130.414 E4.03594
G1 X124.647 Y130.834 E4.08441
G1 X123.739 Y131.18 E4.13289
G1 X122.806 Y131.45 E4.18135
G1 X121.854 Y131.643 E4.22981
G1 X120.889 Y131.757 E4.27829
G1 X120.322 Y131.786 E4.30661
G1 X120.001 Y131.795 E4.32263
G1 X119.67 Y131.8 E4.33915
G1 X100.555 Y131.799 E5.2928
G1 X99.857 Y131.79 E5.32763
G1 X98.887 Y131.738 E5.37609
G1 X97.925 Y131.605 E5.42454
G1 X96.976 Y131.395 E5.47303
G1 X96.049 Y131.107 E5.52146
G1 X95.148 Y130.743 E5.56994
G1 X94.28 Y130.307 E5.6184
G1 X93.451 Y129.801 E5.66686
G1 X92.666 Y129.228 E5.71534
G1 X91.931 Y128.593 E5.7638
G1 X91.251 Y127.899 E5.81228
G1 X90.63 Y127.152 E5.86074
G1 X90.073 Y126.356 E5.90921
G1 X89.583 Y125.518 E5.95764
G1 X89.164 Y124.641 E6.00613
G1 X88.818 Y123.734 E6.05456
G1 X88.548 Y122.8 E6.10307
G1 X88.356 Y121.848 E6.15152
G1 X88.243 Y120.883 E6.19999
G1 X88.213 Y120.31 E6.22862
G1 X88.204 Y119.977 E6.24524
G1 X88.2 Y119.658 E6.26115
G1 X88.201 Y100.514 E7.21625
G1 X88.21 Y99.849 E7.24943
G1 X88.263 Y98.879 E7.2979
G1 X88.396 Y97.917 E7.34635
G1 X88.607 Y96.969 E7.3948
G1 X88.896 Y96.041 E7.44329
G1 X89.26 Y95.141 E7.49173
G1 X89.697 Y94.273 E7.54021
G1 X90.204 Y93.444 E7.58869
G1 X90.777 Y92.66 E7.63714
G1 X91.412 Y91.926 E7.68556
G0 F6000 X91.805 Y92.093
G1 F1200 X92.496 Y91.435 E7.73316
G1 X93.24 Y90.836 E7.78082
G1 X94.032 Y90.302 E7.82847
G1 X94.865 Y89.836 E7.87609
G1 X95.734 Y89.441 E7.92372
G1 X96.633 Y89.12 E7.97134
G1 X97.556 Y88.876 E8.01897
G1 X98.497 Y88.71 E8.06664
G1 X99.689 Y88.613 E8.12631
G1 X100.01 Y88.604 E8.14233
G1 X100.33 Y88.6 E8.1583
G1 X119.293 Y88.6 E9.10436
G1 X120.154 Y88.611 E9.14732
G1 X121.108 Y88.665 E9.19499
G1 X122.053 Y88.798 E9.2426
G1 X122.984 Y89.01 E9.29024
G1 X123.894 Y89.299 E9.33788
G1 X124.777 Y89.663 E9.38553
G1 X125.626 Y90.1 E9.43316
G1 X126.435 Y90.606 E9.48077
G1 X127.199 Y91.178 E9.52839
G1 X127.913 Y91.812 E9.57602
G1 X128.571 Y92.504 E9.62366
G1 X129.169 Y93.248 E9.67129
G1 X129.703 Y94.04 E9.71894
G1 X130.168 Y94.874 E9.76658
G1 X130.563 Y95.743 E9.8142
G1 X130.882 Y96.643 E9.86184
G1 X131.126 Y97.566 E9.90947
G1 X131.291 Y98.507 E9.95713
G1 X131.386 Y99.69 E10.01634
G1 X131.395 Y100.01 E10.03232
G1 X131.4 Y100.33 E10.04828
G1 X131.399 Y119.405 E10.99994
G1 X131.39 Y120.132 E11.03621
G1 X131.338 Y121.085 E11.08383
G1 X131.207 Y122.031 E11.13147
G1 X130.997 Y122.963 E11.17914
G1 X130.71 Y123.873 E11.22674
G1 X130.347 Y124.756 E11.27437
G1 X129.912 Y125.606 E11.32201
G1 X129.407 Y126.417 E11.36967
G1 X128.837 Y127.182 E11.41727
G1 X128.204 Y127.897 E11.46491
G1 X127.514 Y128.557 E11.51255
G1 X126.77 Y129.156 E11.5602
G1 X125.98 Y129.691 E11.6078
G1 X125.147 Y130.158 E11.65545
G1 X124.278 Y130.554 E11.70309
G1 X123.379 Y130.876 E11.75073
G1 X122.456 Y131.121 E11.79837
G1 X121.516 Y131.288 E11.84601
G1 X120.311 Y131.387 E11.90633
G1 X119.99 Y131.396 E11.92235
G1 X119.67 Y131.4 E11.93831
G1 X100.56 Y131.399 E12.89171
G1 X99.862 Y131.39 E12.92654
G1 X98.909 Y131.338 E12.97416
G1 X97.963 Y131.206 E13.02181
G1 X97.032 Y130.995 E13.06944
G1 X96.121 Y130.708 E13.11709
G1 X95.238 Y130.345 E13.16472
G1 X94.389 Y129.909 E13.21233
G1 X93.578 Y129.404 E13.26
G1 X92.813 Y128.833 E13.30762
G1 X92.099 Y128.2 E13.35523
G1 X91.439 Y127.509 E13.4029
G1 X90.84 Y126.766 E13.45052
G1 X90.306 Y125.975 E13.49813
G1 X89.839 Y125.142 E13.54577
G1 X89.444 Y124.273 E13.5934
G1 X89.122 Y123.374 E13.64104
G1 X88.878 Y122.451 E13.68867
G1 X88.711 Y121.511 E13.7363
G1 X88.613 Y120.299 E13.79696
G1 X88.604 Y119.966 E13.81358
G1 X88.6 Y119.658 E13.82895
G1 X88.601 Y100.52 E14.78375
G1 X88.61 Y99.855 E14.81693
G1 X88.663 Y98.901 E14.8646
G1 X88.795 Y97.956 E14.9122
G1 X89.007 Y97.025 E14.95984
G1 X89.295 Y96.115 E15.00746
G1 X89.658 Y95.232 E15.05509
G1 X90.094 Y94.382 E15.10275
G1 X90.6 Y93.572 E15.1504
G1 X91.172 Y92.808 E15.19801
G1 X91.805 Y92.093 E15.24565
G0 F6000 X92.198 Y92.264
G1 F1200 X92.886 Y91.627 E15.29243
G1 X93.626 Y91.051 E15.33922
G1 X94.412 Y90.539 E15.38602
G1 X95.239 Y90.097 E15.4328
G1 X96.101 Y89.727 E15.4796
G1 X96.991 Y89.431 E15.52639
G1 X97.903 Y89.213 E15.57317
G1 X98.83 Y89.072 E15.61995
G1 X99.701 Y89.013 E15.66351
G1 X100.022 Y89.004 E15.67953
G1 X100.33 Y89 E15.6949
G1 X119.293 Y89 E16.64096
G1 X120.149 Y89.011 E16.68367
G1 X121.085 Y89.065 E16.73045
G1 X122.013 Y89.197 E16.77721
G1 X122.927 Y89.409 E16.82402
G1 X123.819 Y89.698 E16.8708
G1 X124.684 Y90.061 E16.9176
G1 X125.514 Y90.497 E16.96438
G1 X126.305 Y91.002 E17.0112
G1 X127.049 Y91.573 E17.05799
G1 X127.742 Y92.205 E17.10478
G1 X128.379 Y92.893 E17.15156
G1 X128.954 Y93.634 E17.19835
G1 X129.465 Y94.42 E17.24512
G1 X129.907 Y95.248 E17.29195
G1 X130.276 Y96.11 E17.33873
G1 X130.571 Y97 E17.38551
G1 X130.789 Y97.912 E17.43229
G1 X130.929 Y98.84 E17.47911
G1 X130.987 Y99.701 E17.52216
G1 X130.996 Y100.021 E17.53814
G1 X131 Y100.33 E17.55355
G1 X130.999 Y119.4 E18.50496
G1 X130.99 Y120.127 E18.54123
G1 X130.939 Y121.064 E18.58805
G1 X130.807 Y121.992 E18.63481
G1 X130.598 Y122.906 E18.68159
G1 X130.311 Y123.799 E18.72838
G1 X129.949 Y124.665 E18.77521
G1 X129.515 Y125.496 E18.82199
G1 X129.011 Y126.287 E18.86878
G1 X128.442 Y127.032 E18.91555
G1 X127.811 Y127.727 E18.96238
G1 X127.124 Y128.365 E19.00915
G1 X126.385 Y128.942 E19.05593
G1 X125.599 Y129.454 E19.10273
G1 X124.773 Y129.897 E19.14949
G1 X123.911 Y130.269 E19.19633
G1 X123.022 Y130.565 E19.24308
G1 X122.11 Y130.785 E19.28988
G1 X121.183 Y130.926 E19.33666
G1 X120.299 Y130.987 E19.38087
G1 X119.978 Y130.996 E19.39689
G1 X119.67 Y131 E19.41226
G1 X100.565 Y130.999 E20.36541
G1 X99.867 Y130.99 E20.40024
G1 X98.931 Y130.938 E20.44701
G1 X98.002 Y130.806 E20.49382
G1 X97.088 Y130.596 E20.54061
G1 X96.195 Y130.309 E20.5874
G1 X95.33 Y129.946 E20.63421
G1 X94.499 Y129.512 E20.68098
G1 X93.708 Y129.008 E20.72777
G1 X92.963 Y128.438 E20.77457
G1 X92.269 Y127.807 E20.82137
G1 X91.632 Y127.12 E20.86811
G1 X91.055 Y126.38 E20.91492
G1 X90.543 Y125.594 E20.96172
G1 X90.1 Y124.767 E21.00853
G1 X89.729 Y123.906 E21.0553
G1 X89.433 Y123.016 E21.10209
G1 X89.214 Y122.104 E21.14889
G1 X89.073 Y121.177 E21.19567
G1 X89.013 Y120.288 E21.24012
G1 X89.004 Y119.955 E21.25674
G1 X89 Y119.658 E21.27156
G1 X89.001 Y100.525 E22.22611
G1 X89.01 Y99.86 E22.25929
G1 X89.063 Y98.924 E22.30606
G1 X89.195 Y97.995 E22.35287
G1 X89.406 Y97.081 E22.39967
G1 X89.694 Y96.189 E22.44644
G1 X90.057 Y95.324 E22.49324
G1 X90.492 Y94.493 E22.54003
G1 X90.996 Y93.703 E22.58678
G1 X91.566 Y92.958 E22.63358
G1 X92.198 Y92.264 E22.68041
G0 F6000 X92.589 Y92.439
G1 F1200 X93.274 Y91.823 E22.72637
G1 X94.01 Y91.27 E22.7723
G1 X94.791 Y90.782 E22.81825
G1 X95.611 Y90.364 E22.86417
G1 X96.465 Y90.019 E22.91012
G1 X97.345 Y89.749 E22.95604
G1 X98.245 Y89.557 E23.00195
G1 X99.159 Y89.443 E23.04791
G1 X99.712 Y89.413 E23.07554
G1 X100.033 Y89.404 E23.09156
G1 X100.33 Y89.4 E23.10638
G1 X119.293 Y89.4 E24.05244
G1 X120.143 Y89.411 E24.09485
G1 X121.062 Y89.464 E24.14078
G1 X121.973 Y89.597 E24.18671
G1 X122.869 Y89.808 E24.23264
G1 X123.743 Y90.096 E24.27855
G1 X124.59 Y90.459 E24.32452
G1 X125.401 Y90.894 E24.37043
G1 X126.171 Y91.398 E24.41635
G1 X126.895 Y91.967 E24.46229
G1 X127.567 Y92.597 E24.50824
G1 X128.182 Y93.282 E24.55417
G1 X128.735 Y94.018 E24.6001
G1 X129.222 Y94.799 E24.64602
G1 X129.639 Y95.62 E24.69196
G1 X129.984 Y96.474 E24.73791
G1 X130.253 Y97.354 E24.78382
G1 X130.445 Y98.255 E24.82978
G1 X130.558 Y99.168 E24.87568
G1 X130.587 Y99.712 E24.90286
G1 X130.596 Y100.032 E24.91883
G1 X130.6 Y100.33 E24.9337
G1 X130.599 Y119.395 E25.88485
G1 X130.59 Y120.122 E25.92112
G1 X130.539 Y121.041 E25.96704
G1 X130.408 Y121.953 E26.01301
G1 X130.198 Y122.849 E26.05892
G1 X129.912 Y123.724 E26.10485
G1 X129.551 Y124.571 E26.15079
G1 X129.117 Y125.383 E26.19672
G1 X128.615 Y126.155 E26.24266
G1 X128.047 Y126.88 E26.28861
G1 X127.419 Y127.553 E26.33454
G1 X126.735 Y128.169 E26.38046
G1 X126 Y128.723 E26.42638
G1 X125.22 Y129.212 E26.47231
G1 X124.4 Y129.631 E26.51825
G1 X123.547 Y129.977 E26.56417
G1 X122.667 Y130.248 E26.61011
G1 X121.767 Y130.441 E26.65603
G1 X120.853 Y130.556 E26.70199
G1 X120.288 Y130.587 E26.73022
G1 X119.967 Y130.596 E26.74624
G1 X119.67 Y130.6 E26.76106
G1 X100.57 Y130.599 E27.71396
G1 X99.872 Y130.59 E27.74879
G1 X98.953 Y130.538 E27.79471
G1 X98.042 Y130.407 E27.84063
G1 X97.146 Y130.197 E27.88654
G1 X96.271 Y129.91 E27.93249
G1 X95.424 Y129.548 E27.97844
G1 X94.612 Y129.114 E28.02438
G1 X93.841 Y128.612 E28.07028
G1 X93.116 Y128.044 E28.11622
G1 X92.443 Y127.415 E28.16218
G1 X91.828 Y126.731 E28.20807
G1 X91.274 Y125.996 E28.25399
G1 X90.786 Y125.215 E28.29994
G1 X90.367 Y124.395 E28.34588
G1 X90.021 Y123.542 E28.3918
G1 X89.751 Y122.662 E28.43773
G1 X89.558 Y121.761 E28.4837
G1 X89.444 Y120.848 E28.5296
G1 X89.413 Y120.277 E28.55813
G1 X89.404 Y119.944 E28.57475
G1 X89.4 Y119.658 E28.58902
G1 X89.401 Y100.531 E29.54327
G1 X89.41 Y99.866 E29.57645
G1 X89.462 Y98.946 E29.62242
G1 X89.594 Y98.035 E29.66835
G1 X89.805 Y97.139 E29.71427
G1 X90.092 Y96.264 E29.76021
G1 X90.455 Y95.418 E29.80614
G1 X90.889 Y94.606 E29.85207
G1 X91.392 Y93.835 E29.898
G1 X91.961 Y93.111 E29.94394
G1 X92.589 Y92.439 E29.98983
G0 F6000 X92.355 Y93.267
G1 F1200 X92.981 Y92.617 E30.03485
G1 X93.662 Y92.024 E30.0799
G1 X94.394 Y91.494 E30.12499
G1 X95.169 Y91.031 E30.17003
G1 X95.982 Y90.638 E30.21508
G1 X96.827 Y90.318 E30.26016
G1 X97.696 Y90.075 E30.30518
G1 X98.584 Y89.909 E30.35025
G1 X99.723 Y89.813 E30.40727
G1 X100.044 Y89.804 E30.42329
G1 X100.33 Y89.8 E30.43756
G1 X119.293 Y89.8 E31.38363
G1 X120.137 Y89.811 E31.42574
G1 X121.039 Y89.864 E31.47082
G1 X121.932 Y89.996 E31.51586
G1 X122.81 Y90.207 E31.56091
G1 X123.666 Y90.495 E31.60597
G1 X124.493 Y90.857 E31.65101
G1 X125.285 Y91.292 E31.69609
G1 X126.036 Y91.794 E31.74115
G1 X126.739 Y92.361 E31.78621
G1 X127.389 Y92.988 E31.83127
G1 X127.981 Y93.67 E31.87633
G1 X128.511 Y94.401 E31.92137
G1 X128.973 Y95.177 E31.96643
G1 X129.366 Y95.99 E32.01148
G1 X129.684 Y96.835 E32.05652
G1 X129.927 Y97.705 E32.10159
G1 X130.092 Y98.593 E32.14665
G1 X130.187 Y99.723 E32.20323
G1 X130.196 Y100.043 E32.2192
G1 X130.2 Y100.33 E32.23352
G1 X130.199 Y119.39 E33.18442
G1 X130.19 Y120.117 E33.2207
G1 X130.139 Y121.019 E33.26577
G1 X130.008 Y121.913 E33.31085
G1 X129.799 Y122.791 E33.35587
G1 X129.513 Y123.648 E33.40095
G1 X129.152 Y124.476 E33.44601
G1 X128.72 Y125.268 E33.49102
G1 X128.219 Y126.02 E33.5361
G1 X127.653 Y126.724 E33.58117
G1 X127.028 Y127.375 E33.62619
G1 X126.347 Y127.969 E33.67128
G1 X125.616 Y128.5 E33.71635
G1 X124.842 Y128.964 E33.76138
G1 X124.029 Y129.358 E33.80645
G1 X123.185 Y129.678 E33.85148
G1 X122.315 Y129.923 E33.89657
G1 X121.428 Y130.089 E33.94159
G1 X120.277 Y130.187 E33.99923
G1 X119.956 Y130.196 E34.01525
G1 X119.67 Y130.2 E34.02952
G1 X100.575 Y130.199 E34.98217
G1 X99.877 Y130.19 E35.017
G1 X98.976 Y130.139 E35.06202
G1 X98.082 Y130.007 E35.1071
G1 X97.204 Y129.798 E35.15213
G1 X96.347 Y129.511 E35.19722
G1 X95.52 Y129.15 E35.24224
G1 X94.727 Y128.717 E35.28732
G1 X93.976 Y128.216 E35.33236
G1 X93.272 Y127.65 E35.37742
G1 X92.621 Y127.024 E35.42248
G1 X92.028 Y126.343 E35.46753
G1 X91.498 Y125.612 E35.51258
G1 X91.034 Y124.837 E35.55764
G1 X90.64 Y124.024 E35.60272
G1 X90.32 Y123.18 E35.64775
G1 X90.076 Y122.31 E35.69283
G1 X89.91 Y121.422 E35.7379
G1 X89.813 Y120.267 E35.79572
G1 X89.804 Y119.934 E35.81234
G1 X89.8 Y119.658 E35.82612
G1 X89.801 Y100.536 E36.78012
G1 X89.81 Y99.871 E36.8133
G1 X89.862 Y98.969 E36.85837
G1 X89.994 Y98.076 E36.90341
G1 X90.204 Y97.198 E36.94845
G1 X90.491 Y96.341 E36.99354
G1 X90.853 Y95.514 E37.03857
G1 X91.286 Y94.722 E37.08361
G1 X91.788 Y93.971 E37.12868
G1 X92.355 Y93.267 E37.17377
G1 F2400 E31.17377
;MESH:Extruder Calibration cube 4mm_nozzle.stl
G0 F6000 X99.335 Y100.414
G0 X100.414 Y100.414
G0 X118.818 Y101.182
G0 X119 Y119
;TYPE:WALL-INNER
G1 F2400 E37.17377
G1 F1200 X101 Y119 E38.0718
G1 X101 Y101 E38.96982
G1 X119 Y101 E39.86784
G1 X119 Y119 E40.76587
G0 F6000 X119.4 Y119.4
G1 F1200 X100.6 Y119.4 E41.7038
G1 X100.6 Y100.6 E42.64174
G1 X119.4 Y100.6 E43.57967
G1 X119.4 Y119.4 E44.51761
G0 F6000 X119.8 Y119.8
;TYPE:WALL-OUTER
G1 F1200 X100.2 Y119.8 E45.49546
G1 X100.2 Y100.2 E46.47331
G1 X119.8 Y100.2 E47.45115
G1 X119.8 Y119.8 E48.429
G0 F6000 X119.53 Y119.53
G0 X118.89 Y118.61
G0 X118.61 Y118.61
;TYPE:SKIN
G1 F1200 X101.39 Y118.61 E49.28811
G1 X101.39 Y101.39 E50.14722
G1 X118.61 Y101.39 E51.00633
G1 X118.61 Y118.61 E51.86544
G0 F6000 X118.89 Y118.61
G0 X118.89 Y102.044
G0 X118.449 Y102.044
G1 F1200 X117.954 Y101.549 E51.90036
G0 F6000 X117.388 Y101.549
G1 F1200 X118.449 Y102.61 E51.97522
G0 F6000 X118.449 Y103.176
G1 F1200 X116.823 Y101.549 E52.08998
G0 F6000 X116.257 Y101.549
G1 F1200 X118.449 Y103.741 E52.24464
G0 F6000 X118.449 Y104.307
G1 F1200 X115.691 Y101.549 E52.43923
G0 F6000 X115.126 Y101.549
G1 F1200 X118.449 Y104.873 E52.67372
G0 F6000 X118.449 Y105.438
G1 F1200 X114.56 Y101.549 E52.94811
G0 F6000 X113.994 Y101.549
G1 F1200 X118.449 Y106.004 E53.26244
G0 F6000 X118.449 Y106.57
G1 F1200 X113.429 Y101.549 E53.61666
G0 F6000 X112.863 Y101.549
G1 F1200 X118.449 Y107.135 E54.01078
G0 F6000 X118.449 Y107.701
G1 F1200 X112.297 Y101.549 E54.44484
G0 F6000 X111.732 Y101.549
G1 F1200 X118.449 Y108.267 E54.9188
G0 F6000 X118.449 Y108.832
G1 F1200 X111.166 Y101.549 E55.43265
G0 F6000 X110.6 Y101.549
G1 F1200 X118.449 Y109.398 E55.98644
G0 F6000 X118.449 Y109.964
G1 F1200 X110.035 Y101.549 E56.58013
G0 F6000 X109.469 Y101.549
G1 F1200 X118.449 Y110.529 E57.21372
G0 F6000 X118.449 Y111.095
G1 F1200 X108.903 Y101.549 E57.88724
G0 F6000 X108.337 Y101.549
G1 F1200 X118.449 Y111.661 E58.60069
G0 F6000 X118.449 Y112.227
G1 F1200 X107.772 Y101.549 E59.35405
G0 F6000 X107.206 Y101.549
G1 F1200 X118.449 Y112.792 E60.1473
