;FLAVOR:Marlin
;TIME:1967
;Filament used: 0.989129m
;Layer height: 0.2
;MINX:88.014
;MINY:88.012
;MINZ:0.3
;MAXX:131.987
;MAXY:131.99
;MAXZ:6.9
;Generated with Cura_SteamEngine 4.11.0
M140 S60
M105
M190 S60
M104 S220
M105
M109 S220
M82 ;absolute extrusion mode
; Ender 3 Custom Start G-code
G92 E0 ; Reset Extruder
G28 ; Home all axes
M420 S1 Z2; enable ABL using saved mesh
G1 Z2.0 F3000 ; Move Z Axis up little to prevent scratching of Heat Bed
G1 X0.1 Y20 Z0.3 F5000.0 ; Move to start position
G1 X0.1 Y200.0 Z0.3 F1500.0 E15 ; Draw the first line
G1 X0.4 Y200.0 Z0.3 F5000.0 ; Move to side a little
G1 X0.4 Y20 Z0.3 F1500.0 E30 ; Draw the second line
G92 E0 ; Reset Extruder
G1 Z2.0 F3000 ; Move Z Axis up little to prevent scratching of Heat Bed
G1 X5 Y20 Z0.3 F5000.0 ; Move over to prevent blob squish
G92 E0
G92 E0
G1 F1500 E-6.5
;LAYER_COUNT:35
;LAYER:0
M107
G0 F6000 X94.218 Y94.69 Z0.3
;TYPE:SKIRT
G1 F1500 E0
G1 F1200 X94.678 Y94.231 E0.03242
G1 X95.173 Y93.767 E0.06627
G1 X95.714 Y93.29 E0.10225
G1 X96.161 Y92.917 E0.1313
G1 X96.55 Y92.609 E0.15605
G1 X96.896 Y92.346 E0.17773
G1 X97.236 Y92.098 E0.19873
G1 X97.737 Y91.753 E0.22908
G1 X98.376 Y91.339 E0.26706
G1 X98.698 Y91.139 E0.28598
G1 X98.808 Y91.073 E0.29238
G1 X99.172 Y90.863 E0.31334
G1 X99.64 Y90.606 E0.33998
G1 X99.965 Y90.435 E0.3583
G1 X100.344 Y90.246 E0.37943
G1 X100.645 Y90.102 E0.39608
G1 X100.978 Y89.949 E0.41436
G1 X101.293 Y89.811 E0.43152
G1 X101.555 Y89.701 E0.44569
G1 X101.95 Y89.54 E0.46697
G1 X102.283 Y89.41 E0.48481
G1 X102.518 Y89.323 E0.49731
G1 X102.871 Y89.199 E0.51598
G1 X103.112 Y89.119 E0.52865
G1 X103.375 Y89.036 E0.5424
G1 X103.889 Y88.881 E0.56919
G1 X104.265 Y88.774 E0.58869
G1 X104.631 Y88.676 E0.6076
G1 X105.07 Y88.572 E0.6301
G1 X105.585 Y88.461 E0.65639
G1 X105.98 Y88.383 E0.67647
G1 X106.194 Y88.345 E0.68732
G1 X106.666 Y88.272 E0.71115
G1 X107.538 Y88.156 E0.75503
G1 X108.107 Y88.095 E0.78358
G1 X108.505 Y88.063 E0.8035
G1 X108.798 Y88.044 E0.81815
G1 X109.059 Y88.03 E0.83119
G1 X109.61 Y88.014 E0.85869
G1 X110.183 Y88.012 E0.88728
G1 X110.892 Y88.033 E0.92267
G1 X111.726 Y88.084 E0.96435
G1 X112.098 Y88.113 E0.98297
G1 X112.287 Y88.131 E0.99244
G1 X112.636 Y88.169 E1.00996
G1 X113.075 Y88.225 E1.03204
G1 X113.512 Y88.289 E1.05407
G1 X114.007 Y88.377 E1.07915
G1 X114.574 Y88.491 E1.10801
G1 X115.216 Y88.64 E1.14089
G1 X115.973 Y88.84 E1.17995
G1 X116.319 Y88.938 E1.19789
G1 X116.536 Y89.003 E1.20919
G1 X116.917 Y89.124 E1.22914
G1 X117.132 Y89.197 E1.24046
G1 X117.407 Y89.295 E1.25503
G1 X117.721 Y89.411 E1.27173
G1 X118.145 Y89.576 E1.29443
G1 X118.611 Y89.773 E1.31967
G1 X119.507 Y90.178 E1.36873
G1 X120.146 Y90.492 E1.40425
G1 X120.516 Y90.689 E1.42516
G1 X121.037 Y90.986 E1.45508
G1 X121.497 Y91.266 E1.48195
G1 X122.174 Y91.695 E1.52193
G1 X122.715 Y92.061 E1.55452
G1 X123.001 Y92.267 E1.5721
G1 X123.218 Y92.428 E1.58558
G1 X123.491 Y92.635 E1.60268
G1 X123.912 Y92.97 E1.62952
G1 X124.283 Y93.281 E1.65367
G1 X124.501 Y93.47 E1.66806
G1 X124.751 Y93.691 E1.68471
G1 X125.142 Y94.052 E1.71126
G1 X125.451 Y94.353 E1.73278
G1 X125.7 Y94.604 E1.75042
G1 X125.932 Y94.845 E1.76711
G1 X126.276 Y95.219 E1.79246
G1 X126.734 Y95.741 E1.82711
G1 X127.097 Y96.178 E1.85545
G1 X127.394 Y96.554 E1.87936
G1 X127.638 Y96.875 E1.89947
G1 X127.881 Y97.207 E1.92
G1 X128.23 Y97.712 E1.95062
G1 X128.671 Y98.391 E1.99102
G1 X128.888 Y98.739 E2.01148
G1 X129.173 Y99.231 E2.03985
G1 X129.376 Y99.604 E2.06103
G1 X129.518 Y99.874 E2.07625
G1 X129.634 Y100.102 E2.08901
G1 X129.77 Y100.378 E2.10436
G1 X129.925 Y100.705 E2.12242
G1 X130.048 Y100.975 E2.13722
G1 X130.176 Y101.265 E2.15304
G1 X130.299 Y101.555 E2.16875
G1 X130.46 Y101.95 E2.19003
G1 X130.59 Y102.283 E2.20787
G1 X130.677 Y102.518 E2.22037
G1 X130.797 Y102.858 E2.23836
G1 X130.873 Y103.086 E2.25035
G1 X130.962 Y103.366 E2.26501
G1 X131.118 Y103.886 E2.29209
G1 X131.234 Y104.294 E2.31325
G1 X131.332 Y104.662 E2.33225
G1 X131.426 Y105.062 E2.35275
G1 X131.537 Y105.575 E2.37894
G1 X131.632 Y106.064 E2.40379
G1 X131.728 Y106.641 E2.43297
G1 X131.807 Y107.222 E2.46223
G1 X131.902 Y108.092 E2.50589
G1 X131.953 Y108.737 E2.53817
G1 X131.964 Y108.957 E2.54916
G1 X131.976 Y109.283 E2.56543
G1 X131.985 Y109.726 E2.58754
G1 X131.987 Y110.074 E2.6049
G1 X131.983 Y110.376 E2.61997
G1 X131.967 Y110.958 E2.64902
G1 X131.938 Y111.512 E2.67669
G1 X131.916 Y111.794 E2.6908
G1 X131.86 Y112.331 E2.71774
G1 X131.759 Y113.122 E2.75752
G1 X131.724 Y113.377 E2.77037
G1 X131.694 Y113.575 E2.78036
G1 X131.6 Y114.106 E2.80726
G1 X131.543 Y114.388 E2.82161
G1 X131.45 Y114.805 E2.84293
G1 X131.298 Y115.431 E2.87507
G1 X131.129 Y116.049 E2.90703
G1 X130.917 Y116.743 E2.94323
G1 X130.78 Y117.16 E2.96513
G1 X130.595 Y117.689 E2.99309
G1 X130.464 Y118.046 E3.01206
G1 X130.326 Y118.393 E3.03069
G1 X130.205 Y118.682 E3.04633
G1 X130.084 Y118.959 E3.06141
G1 X129.968 Y119.216 E3.07547
G1 X129.825 Y119.521 E3.09228
G1 X129.738 Y119.699 E3.10216
G1 X129.583 Y120.003 E3.11919
G1 X129.345 Y120.454 E3.14463
G1 X129.019 Y121.03 E3.17765
G1 X128.727 Y121.507 E3.20555
G1 X128.303 Y122.176 E3.24507
G1 X127.942 Y122.71 E3.27723
G1 X127.737 Y122.995 E3.29474
G1 X127.565 Y123.227 E3.30915
G1 X127.353 Y123.506 E3.32663
G1 X127.025 Y123.918 E3.3529
G1 X126.719 Y124.283 E3.37667
G1 X126.53 Y124.501 E3.39106
G1 X126.309 Y124.751 E3.40771
G1 X125.947 Y125.142 E3.43429
G1 X125.645 Y125.452 E3.45588
G1 X125.435 Y125.662 E3.4707
G1 X125.253 Y125.839 E3.48337
G1 X124.798 Y126.257 E3.51419
G1 X124.223 Y126.756 E3.55217
G1 X123.817 Y127.1 E3.57872
G1 X123.335 Y127.485 E3.6095
G1 X123.143 Y127.63 E3.6215
G1 X122.746 Y127.916 E3.64591
G1 X122.282 Y128.235 E3.67401
G1 X122.046 Y128.393 E3.68818
G1 X121.823 Y128.538 E3.70145
G1 X121.563 Y128.702 E3.71678
G1 X121.275 Y128.878 E3.73362
G1 X120.839 Y129.131 E3.75877
G1 X120.377 Y129.385 E3.78507
G1 X120.043 Y129.561 E3.80391
G1 X119.875 Y129.646 E3.8133
G1 X119.64 Y129.761 E3.82636
G1 X119.279 Y129.933 E3.84631
G1 X118.929 Y130.093 E3.8655
G1 X118.496 Y130.281 E3.88906
G1 X117.93 Y130.508 E3.91948
G1 X117.381 Y130.711 E3.94868
G1 X116.983 Y130.85 E3.96971
G1 X116.83 Y130.9 E3.97774
G1 X116.348 Y131.045 E4.00286
G1 X115.445 Y131.295 E4.0496
G1 X114.857 Y131.441 E4.07983
G1 X114.358 Y131.55 E4.10531
G1 X114.044 Y131.613 E4.12129
G1 X113.826 Y131.654 E4.13235
G1 X113.323 Y131.737 E4.15779
G1 X112.967 Y131.787 E4.17572
G1 X112.635 Y131.829 E4.19242
G1 X112.197 Y131.877 E4.2144
G1 X111.888 Y131.906 E4.22989
G1 X111.518 Y131.936 E4.24841
G1 X111.181 Y131.958 E4.26526
G1 X110.823 Y131.976 E4.28314
G1 X110.247 Y131.99 E4.31188
G1 X109.789 Y131.989 E4.33473
G1 X109.471 Y131.984 E4.3506
G1 X109.085 Y131.972 E4.36987
G1 X108.561 Y131.943 E4.39605
G1 X108.143 Y131.91 E4.41697
G1 X107.594 Y131.853 E4.44451
G1 X106.9 Y131.763 E4.47942
G1 X106.454 Y131.698 E4.50191
G1 X105.894 Y131.6 E4.53027
G1 X105.612 Y131.543 E4.54462
G1 X105.205 Y131.453 E4.56542
G1 X104.469 Y131.275 E4.6032
G1 X103.914 Y131.125 E4.63188
G1 X103.528 Y131.01 E4.65197
G1 X103.204 Y130.908 E4.66892
G1 X102.728 Y130.75 E4.69394
G1 X102.203 Y130.561 E4.72178
G1 X101.905 Y130.445 E4.73773
G1 X101.653 Y130.343 E4.7513
G1 X101.342 Y130.213 E4.76811
G1 X101.093 Y130.105 E4.78165
G1 X100.78 Y129.965 E4.79876
G1 X100.408 Y129.791 E4.81925
G1 X100.268 Y129.722 E4.82704
G1 X99.989 Y129.579 E4.84268
G1 X99.537 Y129.34 E4.86819
G1 X99.156 Y129.129 E4.88991
G1 X98.863 Y128.956 E4.90689
G1 X98.231 Y128.571 E4.94381
G1 X97.932 Y128.382 E4.96146
G1 X97.744 Y128.259 E4.97267
G1 X97.237 Y127.907 E5.00346
G1 X96.776 Y127.567 E5.03204
G1 X96.457 Y127.323 E5.05207
G1 X96.186 Y127.104 E5.06946
G1 X95.653 Y126.659 E5.1041
G1 X95.332 Y126.38 E5.12532
G1 X95.106 Y126.176 E5.14051
G1 X94.682 Y125.772 E5.16972
G1 X94.222 Y125.31 E5.20225
G1 X93.807 Y124.87 E5.23243
G1 X93.538 Y124.564 E5.25275
G1 X92.921 Y123.84 E5.30021
G1 X92.526 Y123.348 E5.33169
G1 X92.379 Y123.154 E5.34383
G1 X92.085 Y122.748 E5.36884
G1 X91.756 Y122.27 E5.39779
G1 X91.485 Y121.856 E5.42248
G1 X91.329 Y121.606 E5.43718
G1 X91.185 Y121.369 E5.45101
G1 X90.892 Y120.872 E5.4798
G1 X90.731 Y120.589 E5.49604
G1 X90.616 Y120.38 E5.50794
G1 X90.404 Y119.976 E5.5307
G1 X90.309 Y119.785 E5.54135
G1 X90.095 Y119.328 E5.56652
G1 X89.711 Y118.458 E5.61397
G1 X89.548 Y118.07 E5.63496
G1 X89.435 Y117.785 E5.65026
G1 X89.235 Y117.237 E5.67936
G1 X89.084 Y116.788 E5.703
G1 X88.925 Y116.277 E5.7297
G1 X88.809 Y115.855 E5.75153
G1 X88.637 Y115.196 E5.78551
G1 X88.496 Y114.589 E5.8166
G1 X88.405 Y114.137 E5.8396
G1 X88.307 Y113.573 E5.86816
G1 X88.233 Y113.072 E5.89343
G1 X88.18 Y112.657 E5.9143
G1 X88.098 Y111.905 E5.95204
G1 X88.045 Y111.234 E5.98562
G1 X88.034 Y111.002 E5.99721
G1 X88.025 Y110.717 E6.01143
G1 X88.016 Y110.298 E6.03234
G1 X88.014 Y109.903 E6.05205
G1 X88.022 Y109.351 E6.07959
G1 X88.032 Y109.028 E6.09571
G1 X88.043 Y108.777 E6.10825
G1 X88.071 Y108.333 E6.13044
G1 X88.089 Y108.12 E6.14111
G1 X88.121 Y107.799 E6.1572
G1 X88.159 Y107.474 E6.17353
G1 X88.213 Y107.06 E6.19436
G1 X88.283 Y106.581 E6.21851
G1 X88.334 Y106.269 E6.23428
G1 X88.415 Y105.817 E6.25719
G1 X88.541 Y105.215 E6.28787
G1 X88.67 Y104.672 E6.31572
G1 X88.752 Y104.346 E6.33249
G1 X88.869 Y103.929 E6.3541
G1 X88.981 Y103.554 E6.37362
G1 X89.083 Y103.23 E6.39057
G1 X89.252 Y102.722 E6.41728
G1 X89.431 Y102.226 E6.44359
G1 X89.554 Y101.908 E6.4606
G1 X89.786 Y101.353 E6.49061
G1 X90.118 Y100.617 E6.53089
G1 X90.316 Y100.198 E6.55401
G1 X90.662 Y99.537 E6.59123
G1 X91.056 Y98.844 E6.631
G1 X91.399 Y98.281 E6.66389
G1 X91.768 Y97.714 E6.69765
G1 X91.929 Y97.474 E6.71206
G1 X92.053 Y97.294 E6.72297
G1 X92.368 Y96.859 E6.74976
G1 X92.668 Y96.466 E6.77443
G1 X92.986 Y96.07 E6.79977
G1 X93.247 Y95.759 E6.82002
G1 X93.466 Y95.506 E6.83672
G1 X93.781 Y95.153 E6.86032
G1 X94.218 Y94.69 E6.89208
G0 F6000 X94.501 Y94.974
G1 F1200 X94.961 Y94.515 E6.92451
G1 X95.438 Y94.067 E6.95715
G1 X95.979 Y93.59 E6.99314
G1 X96.409 Y93.231 E7.02108
G1 X96.798 Y92.923 E7.04584
G1 X97.131 Y92.669 E7.06673
G1 X97.471 Y92.421 E7.08773
G1 X97.954 Y92.089 E7.11697
G1 X98.593 Y91.675 E7.15495
G1 X98.903 Y91.482 E7.17317
G1 X99.013 Y91.416 E7.17957
G1 X99.365 Y91.214 E7.19982
G1 X99.833 Y90.957 E7.22646
G1 X100.146 Y90.791 E7.24413
G1 X100.516 Y90.607 E7.26475
G1 X100.817 Y90.463 E7.2814
G1 X101.138 Y90.316 E7.29901
G1 X101.453 Y90.178 E7.31617
G1 X101.706 Y90.071 E7.32987
G1 X102.101 Y89.91 E7.35115
G1 X102.422 Y89.785 E7.36834
G1 X102.657 Y89.698 E7.38084
G1 X102.998 Y89.579 E7.39886
G1 X103.492 Y89.418 E7.42478
G1 X103.999 Y89.266 E7.45119
G1 X104.375 Y89.159 E7.47069
G1 X104.731 Y89.063 E7.48909
G1 X105.155 Y88.963 E7.51082
G1 X105.67 Y88.852 E7.5371
G1 X106.05 Y88.777 E7.55643
G1 X106.264 Y88.739 E7.56727
G1 X106.719 Y88.669 E7.59024
G1 X107.591 Y88.553 E7.63413
G1 X108.139 Y88.494 E7.66162
G1 X108.537 Y88.462 E7.68154
G1 X108.819 Y88.443 E7.69565
G1 X109.08 Y88.429 E7.70869
G1 X109.611 Y88.414 E7.73519
G1 X110.184 Y88.412 E7.76378
G1 X110.868 Y88.432 E7.79791
G1 X111.702 Y88.483 E7.8396
G1 X112.06 Y88.511 E7.85752
G1 X112.249 Y88.529 E7.86699
G1 X112.585 Y88.566 E7.88385
G1 X113.024 Y88.622 E7.90593
G1 X113.451 Y88.684 E7.92746
G1 X113.928 Y88.769 E7.95163
G1 X114.495 Y88.883 E7.98048
G1 X115.114 Y89.027 E8.01219
G1 X115.871 Y89.227 E8.05125
G1 X116.205 Y89.321 E8.06856
G1 X116.422 Y89.386 E8.07987
G1 X116.788 Y89.503 E8.09904
G1 X117.003 Y89.576 E8.11036
G1 X117.268 Y89.67 E8.12439
G1 X117.582 Y89.786 E8.14109
G1 X117.826 Y89.879 E8.15412
G1 X117.997 Y89.947 E8.1633
G1 X118.446 Y90.138 E8.18764
G1 X119.342 Y90.543 E8.2367
G1 X119.958 Y90.846 E8.27095
G1 X120.328 Y91.043 E8.29186
G1 X120.83 Y91.328 E8.32066
G1 X121.283 Y91.604 E8.34713
G1 X121.96 Y92.033 E8.38711
G1 X122.481 Y92.386 E8.41851
G1 X122.767 Y92.592 E8.43609
G1 X122.976 Y92.747 E8.44908
G1 X123.249 Y92.954 E8.46617
G1 X123.655 Y93.277 E8.49205
G1 X124.026 Y93.588 E8.5162
G1 X124.237 Y93.769 E8.53007
G1 X124.487 Y93.99 E8.54672
G1 X124.862 Y94.339 E8.57228
G1 X125.171 Y94.64 E8.5938
G1 X125.412 Y94.882 E8.61084
G1 X125.644 Y95.123 E8.62753
G1 X125.975 Y95.483 E8.65193
G1 X126.433 Y96.005 E8.68657
G1 X126.783 Y96.426 E8.71389
G1 X127.08 Y96.802 E8.73779
G1 X127.316 Y97.111 E8.75719
G1 X127.559 Y97.443 E8.77772
G1 X127.895 Y97.93 E8.80723
G1 X128.336 Y98.609 E8.84763
G1 X128.547 Y98.948 E8.86755
G1 X128.821 Y99.422 E8.89486
G1 X129.024 Y99.795 E8.91605
G1 X129.162 Y100.055 E8.93073
G1 X129.278 Y100.283 E8.9435
G1 X129.408 Y100.55 E8.95831
G1 X129.563 Y100.877 E8.97637
G1 X129.682 Y101.137 E8.99063
G1 X129.81 Y101.427 E9.00645
G1 X129.929 Y101.706 E9.02158
G1 X130.09 Y102.101 E9.04286
G1 X130.215 Y102.422 E9.06005
G1 X130.302 Y102.657 E9.07255
G1 X130.417 Y102.985 E9.08989
G1 X130.493 Y103.213 E9.10188
G1 X130.579 Y103.482 E9.11597
G1 X130.733 Y103.995 E9.14269
G1 X130.849 Y104.403 E9.16385
G1 X130.944 Y104.761 E9.18233
G1 X131.035 Y105.146 E9.20207
G1 X131.146 Y105.659 E9.22825
G1 X131.237 Y106.131 E9.25224
G1 X131.333 Y106.706 E9.28132
G1 X131.409 Y107.265 E9.30947
G1 X131.504 Y108.135 E9.35313
G1 X131.554 Y108.757 E9.38426
G1 X131.565 Y108.977 E9.39525
G1 X131.576 Y109.291 E9.41092
G1 X131.585 Y109.734 E9.43303
G1 X131.587 Y110.074 E9.44999
G1 X131.583 Y110.365 E9.46451
G1 X131.567 Y110.947 E9.49356
G1 X131.539 Y111.48 E9.52019
G1 X131.517 Y111.762 E9.5343
G1 X131.464 Y112.281 E9.56033
G1 X131.363 Y113.072 E9.60011
G1 X131.298 Y113.515 E9.62245
G1 X131.208 Y114.027 E9.64838
G1 X131.151 Y114.309 E9.66274
G1 X131.062 Y114.71 E9.68323
G1 X130.91 Y115.336 E9.71537
G1 X130.747 Y115.932 E9.7462
G1 X130.535 Y116.626 E9.7824
G1 X130.403 Y117.028 E9.80351
G1 X130.218 Y117.557 E9.83147
G1 X130.09 Y117.904 E9.84992
G1 X129.957 Y118.239 E9.8679
G1 X129.836 Y118.528 E9.88353
G1 X129.719 Y118.795 E9.89808
G1 X129.603 Y119.052 E9.91214
G1 X129.465 Y119.346 E9.92835
G1 X129.378 Y119.524 E9.93823
G1 X129.23 Y119.816 E9.95456
G1 X128.992 Y120.267 E9.98001
G1 X128.677 Y120.823 E10.01189
G1 X128.496 Y121.121 E10.02928
G1 X127.965 Y121.961 E10.07886
G1 X127.617 Y122.477 E10.10991
G1 X127.412 Y122.762 E10.12743
G1 X127.247 Y122.985 E10.14127
G1 X127.035 Y123.264 E10.15875
G1 X126.718 Y123.661 E10.18409
G1 X126.412 Y124.026 E10.20786
G1 X126.231 Y124.237 E10.22173
G1 X126.01 Y124.487 E10.23837
G1 X125.661 Y124.863 E10.26397
G1 X125.359 Y125.173 E10.28556
G1 X125.156 Y125.375 E10.29985
G1 X124.974 Y125.552 E10.31251
G1 X124.535 Y125.955 E10.34224
G1 X123.964 Y126.45 E10.37995
G1 X123.558 Y126.794 E10.40649
G1 X123.094 Y127.166 E10.43616
G1 X122.902 Y127.311 E10.44817
G1 X122.519 Y127.587 E10.47172
G1 X122.055 Y127.906 E10.49981
G1 X121.828 Y128.058 E10.51344
G1 X121.605 Y128.203 E10.52671
G1 X121.354 Y128.361 E10.54151
G1 X121.066 Y128.537 E10.55835
G1 X120.646 Y128.781 E10.58258
G1 X120.184 Y129.035 E10.60888
G1 X119.862 Y129.204 E10.62703
G1 X119.468 Y129.4 E10.64898
G1 X119.107 Y129.572 E10.66893
G1 X118.77 Y129.726 E10.68742
G1 X118.337 Y129.914 E10.71097
G1 X117.791 Y130.133 E10.74032
G1 X117.242 Y130.336 E10.76952
G1 X116.859 Y130.47 E10.78976
G1 X116.706 Y130.52 E10.79779
G1 X116.241 Y130.66 E10.82202
G1 X115.338 Y130.91 E10.86877
G1 X114.772 Y131.05 E10.89786
G1 X114.273 Y131.159 E10.92334
G1 X113.97 Y131.22 E10.93876
G1 X113.752 Y131.261 E10.94983
G1 X113.267 Y131.341 E10.97435
G1 X112.911 Y131.391 E10.99228
G1 X112.592 Y131.431 E11.00832
G1 X112.154 Y131.479 E11.03031
G1 X111.856 Y131.507 E11.04524
G1 X111.486 Y131.537 E11.06376
G1 X111.161 Y131.559 E11.08001
G1 X110.803 Y131.577 E11.09789
G1 X110.248 Y131.59 E11.12559
G1 X109.79 Y131.589 E11.14844
G1 X109.484 Y131.584 E11.16371
G1 X109.098 Y131.572 E11.18298
G1 X108.593 Y131.544 E11.20821
G1 X108.175 Y131.511 E11.22913
G1 X107.646 Y131.456 E11.25566
G1 X106.755 Y131.339 E11.3005
G1 X106.513 Y131.303 E11.3127
G1 X105.973 Y131.208 E11.34006
G1 X105.691 Y131.151 E11.35441
G1 X105.299 Y131.064 E11.37444
G1 X104.563 Y130.886 E11.41222
G1 X104.028 Y130.742 E11.43986
G1 X103.642 Y130.627 E11.45996
G1 X103.33 Y130.528 E11.47629
G1 X102.854 Y130.37 E11.50131
G1 X102.348 Y130.188 E11.52814
G1 X102.05 Y130.072 E11.54409
G1 X101.807 Y129.974 E11.55716
