;FLAVOR:Marlin
;TIME:23726
;Filament used: 18.9935m
;Layer height: 0.2
;MINX:72.806
;MINY:72.806
;MINZ:0.3
;MAXX:147.194
;MAXY:147.194
;MAXZ:149.9
;Generated with Cura_SteamEngine 4.11.0
M140 S65
M105
M190 S65
M104 S205
M105
M109 S205
M82 ;absolute extrusion mode
; Ender 3 Custom Start G-code
G92 E0 ; Reset Extruder
G28 ; Home all axes
M420 S1 Z2; enable ABL using saved mesh
G1 Z2.0 F3000 ; Move Z Axis up little to prevent scratching of Heat Bed
G1 X0.1 Y20 Z0.3 F5000.0 ; Move to start position
G1 X0.1 Y200.0 Z0.3 F1500.0 E15 ; Draw the first line
G1 X0.4 Y200.0 Z0.3 F5000.0 ; Move to side a little
G1 X0.4 Y20 Z0.3 F1500.0 E30 ; Draw the second line
G92 E0 ; Reset Extruder
G1 Z2.0 F3000 ; Move Z Axis up little to prevent scratching of Heat Bed
G1 X5 Y20 Z0.3 F5000.0 ; Move over to prevent blob squish
G92 E0
G92 E0
G1 F1500 E-6.5
;LAYER_COUNT:750
;LAYER:0
M107
G0 F6000 X88.619 Y88.603 Z0.3
;TYPE:SKIRT
G1 F1500 E0
G1 F1200 X89.197 Y88.065 E0.0394
G1 X89.826 Y87.588 E0.07878
G1 X90.5 Y87.177 E0.11816
G1 X91.235 Y86.827 E0.15878
G1 X106.583 Y80.471 E0.98756
G1 X107.327 Y80.206 E1.02696
G1 X107.879 Y80.062 E1.05542
G1 X108.443 Y79.937 E1.08424
G1 X109.222 Y79.805 E1.12366
G1 X110.01 Y79.753 E1.16306
G1 X110.799 Y79.781 E1.20245
G1 X111.581 Y79.888 E1.24182
G1 X112.349 Y80.074 E1.28125
G1 X113.115 Y80.346 E1.3218
G1 X128.463 Y86.702 E2.15058
G1 X129.177 Y87.04 E2.18999
G1 X129.671 Y87.33 E2.21857
G1 X130.159 Y87.641 E2.24744
G1 X130.803 Y88.099 E2.28687
G1 X131.397 Y88.619 E2.32625
G1 X131.935 Y89.197 E2.36565
G1 X132.412 Y89.826 E2.40503
G1 X132.823 Y90.5 E2.44442
G1 X133.173 Y91.235 E2.48503
G1 X139.529 Y106.583 E3.31381
G1 X139.794 Y107.327 E3.35321
G1 X139.938 Y107.879 E3.38167
G1 X140.063 Y108.443 E3.41049
G1 X140.195 Y109.222 E3.44991
G1 X140.247 Y110.01 E3.48931
G1 X140.219 Y110.799 E3.5287
G1 X140.112 Y111.581 E3.56808
G1 X139.926 Y112.349 E3.6075
G1 X139.654 Y113.115 E3.64805
G1 X133.298 Y128.463 E4.47683
G1 X132.96 Y129.177 E4.51624
G1 X132.67 Y129.671 E4.54482
G1 X132.359 Y130.159 E4.57369
G1 X131.901 Y130.803 E4.61312
G1 X131.381 Y131.397 E4.6525
G1 X130.803 Y131.935 E4.6919
G1 X130.174 Y132.412 E4.73128
G1 X129.5 Y132.823 E4.77067
G1 X128.765 Y133.173 E4.81128
G1 X113.417 Y139.529 E5.64006
G1 X112.673 Y139.794 E5.67946
G1 X112.121 Y139.938 E5.70792
G1 X111.557 Y140.063 E5.73674
G1 X110.778 Y140.195 E5.77616
G1 X109.99 Y140.247 E5.81556
G1 X109.201 Y140.219 E5.85495
G1 X108.419 Y140.112 E5.89433
G1 X107.651 Y139.926 E5.93375
G1 X106.885 Y139.654 E5.9743
G1 X91.537 Y133.298 E6.80308
G1 X90.823 Y132.96 E6.84249
G1 X90.329 Y132.67 E6.87107
G1 X89.841 Y132.359 E6.89994
G1 X89.197 Y131.901 E6.93937
G1 X88.603 Y131.381 E6.97875
G1 X88.065 Y130.803 E7.01815
G1 X87.588 Y130.174 E7.05753
G1 X87.177 Y129.5 E7.09692
G1 X86.827 Y128.765 E7.13753
G1 X80.471 Y113.417 E7.96631
G1 X80.206 Y112.673 E8.00571
G1 X80.061 Y112.118 E8.03433
G1 X79.936 Y111.553 E8.0632
G1 X79.805 Y110.774 E8.10261
G1 X79.753 Y109.986 E8.14201
G1 X79.781 Y109.197 E8.1814
G1 X79.889 Y108.415 E8.22078
G1 X80.075 Y107.647 E8.26021
G1 X80.346 Y106.883 E8.30065
G1 X86.702 Y91.536 E9.12938
G1 X87.04 Y90.823 E9.16875
G1 X87.33 Y90.329 E9.19733
G1 X87.641 Y89.841 E9.2262
G1 X88.099 Y89.197 E9.26562
G1 X88.619 Y88.603 E9.30501
G0 F6000 X88.934 Y88.853
G1 F1200 X89.5 Y88.333 E9.34335
G1 X90.118 Y87.874 E9.38176
G1 X90.779 Y87.481 E9.42013
G1 X91.388 Y87.196 E9.45367
G1 X106.736 Y80.84 E10.28245
G1 X107.461 Y80.583 E10.32082
G1 X107.966 Y80.452 E10.34685
G1 X108.53 Y80.327 E10.37567
G1 X109.288 Y80.2 E10.41402
G1 X110.056 Y80.152 E10.45241
G1 X110.825 Y80.185 E10.49081
G1 X111.585 Y80.296 E10.52913
G1 X112.331 Y80.487 E10.56755
G1 X112.962 Y80.715 E10.60102
G1 X128.31 Y87.071 E11.4298
G1 X129.005 Y87.402 E11.4682
G1 X129.456 Y87.668 E11.49433
G1 X129.944 Y87.979 E11.5232
G1 X130.57 Y88.425 E11.56154
G1 X131.147 Y88.934 E11.59993
G1 X131.667 Y89.5 E11.63828
G1 X132.126 Y90.118 E11.67668
G1 X132.519 Y90.779 E11.71505
G1 X132.804 Y91.388 E11.74859
G1 X139.16 Y106.736 E12.57737
G1 X139.417 Y107.461 E12.61575
G1 X139.548 Y107.966 E12.64177
G1 X139.673 Y108.53 E12.6706
G1 X139.8 Y109.288 E12.70894
G1 X139.848 Y110.056 E12.74733
G1 X139.815 Y110.825 E12.78573
G1 X139.704 Y111.585 E12.82405
G1 X139.513 Y112.331 E12.86247
G1 X139.285 Y112.962 E12.89594
G1 X132.929 Y128.31 E13.72472
G1 X132.598 Y129.005 E13.76312
G1 X132.332 Y129.456 E13.78925
G1 X132.021 Y129.944 E13.81812
G1 X131.575 Y130.57 E13.85646
G1 X131.066 Y131.147 E13.89485
G1 X130.5 Y131.667 E13.9332
G1 X129.882 Y132.126 E13.9716
G1 X129.221 Y132.519 E14.00997
G1 X128.612 Y132.804 E14.04351
G1 X113.264 Y139.16 E14.87229
G1 X112.539 Y139.417 E14.91067
G1 X112.034 Y139.548 E14.9367
G1 X111.47 Y139.673 E14.96552
G1 X110.712 Y139.8 E15.00386
G1 X109.944 Y139.848 E15.04225
G1 X109.175 Y139.815 E15.08065
G1 X108.415 Y139.704 E15.11897
G1 X107.669 Y139.513 E15.15739
G1 X107.038 Y139.285 E15.19086
G1 X91.69 Y132.929 E16.01964
G1 X90.995 Y132.598 E16.05805
G1 X90.544 Y132.332 E16.08417
G1 X90.056 Y132.021 E16.11304
G1 X89.43 Y131.575 E16.15139
G1 X88.853 Y131.066 E16.18977
G1 X88.333 Y130.5 E16.22812
G1 X87.874 Y129.882 E16.26652
G1 X87.481 Y129.221 E16.30489
G1 X87.196 Y128.612 E16.33844
G1 X80.84 Y113.264 E17.16721
G1 X80.583 Y112.539 E17.20559
G1 X80.452 Y112.032 E17.23171
G1 X80.327 Y111.467 E17.26058
G1 X80.2 Y110.708 E17.29898
G1 X80.152 Y109.94 E17.33737
G1 X80.185 Y109.172 E17.37572
G1 X80.297 Y108.411 E17.41409
G1 X80.487 Y107.666 E17.45245
G1 X80.715 Y107.036 E17.48588
G1 X87.071 Y91.689 E18.31461
G1 X87.402 Y90.995 E18.35297
G1 X87.668 Y90.544 E18.37909
G1 X87.979 Y90.056 E18.40796
G1 X88.425 Y89.43 E18.44631
G1 X88.934 Y88.853 E18.4847
G0 F6000 X89.249 Y89.104
G1 F1200 X89.803 Y88.602 E18.52199
G1 X90.408 Y88.161 E18.55935
G1 X91.056 Y87.788 E18.59665
G1 X91.541 Y87.566 E18.62326
G1 X106.889 Y81.21 E19.45204
G1 X107.594 Y80.961 E19.48934
G1 X108.052 Y80.843 E19.51293
G1 X108.616 Y80.718 E19.54176
G1 X109.354 Y80.595 E19.57908
G1 X110.101 Y80.552 E19.61641
G1 X110.848 Y80.589 E19.65373
G1 X111.587 Y80.705 E19.69105
G1 X112.31 Y80.9 E19.72841
G1 X112.809 Y81.085 E19.75496
G1 X128.157 Y87.441 E20.58373
G1 X128.832 Y87.763 E20.62105
G1 X129.241 Y88.005 E20.64476
G1 X129.729 Y88.316 E20.67363
G1 X130.338 Y88.751 E20.71096
G1 X130.896 Y89.249 E20.74828
G1 X131.398 Y89.803 E20.78558
G1 X131.839 Y90.408 E20.82293
G1 X132.212 Y91.056 E20.86023
G1 X132.434 Y91.541 E20.88684
G1 X138.79 Y106.889 E21.71562
G1 X139.039 Y107.594 E21.75292
G1 X139.157 Y108.052 E21.77652
G1 X139.282 Y108.616 E21.80534
G1 X139.405 Y109.354 E21.84266
G1 X139.448 Y110.101 E21.87999
G1 X139.411 Y110.848 E21.91731
G1 X139.295 Y111.587 E21.95463
G1 X139.1 Y112.31 E21.99199
G1 X138.915 Y112.809 E22.01854
G1 X132.559 Y128.157 E22.84732
G1 X132.237 Y128.832 E22.88463
G1 X131.995 Y129.241 E22.90834
G1 X131.684 Y129.729 E22.93721
G1 X131.249 Y130.338 E22.97454
G1 X130.751 Y130.896 E23.01186
G1 X130.197 Y131.398 E23.04916
G1 X129.592 Y131.839 E23.08651
G1 X128.944 Y132.212 E23.12381
G1 X128.459 Y132.434 E23.15042
G1 X113.111 Y138.79 E23.9792
G1 X112.406 Y139.039 E24.0165
G1 X111.948 Y139.157 E24.0401
G1 X111.384 Y139.282 E24.06892
G1 X110.646 Y139.405 E24.10624
G1 X109.899 Y139.448 E24.14357
G1 X109.152 Y139.411 E24.18089
G1 X108.413 Y139.295 E24.21821
G1 X107.69 Y139.1 E24.25557
G1 X107.191 Y138.915 E24.28212
G1 X91.843 Y132.559 E25.1109
G1 X91.168 Y132.237 E25.14821
G1 X90.759 Y131.995 E25.17192
G1 X90.271 Y131.684 E25.20079
G1 X89.662 Y131.249 E25.23813
G1 X89.104 Y130.751 E25.27544
G1 X88.602 Y130.197 E25.31274
G1 X88.161 Y129.592 E25.35009
G1 X87.788 Y128.944 E25.38739
G1 X87.566 Y128.459 E25.414
G1 X81.21 Y113.111 E26.24278
G1 X80.961 Y112.406 E26.28008
G1 X80.842 Y111.945 E26.30384
G1 X80.717 Y111.38 E26.3327
G1 X80.595 Y110.642 E26.37002
G1 X80.552 Y109.895 E26.40735
G1 X80.589 Y109.148 E26.44467
G1 X80.706 Y108.409 E26.48199
G1 X80.9 Y107.687 E26.51929
G1 X81.085 Y107.19 E26.54575
G1 X87.441 Y91.843 E27.37448
G1 X87.763 Y91.168 E27.41179
G1 X88.005 Y90.759 E27.4355
G1 X88.316 Y90.271 E27.46437
G1 X88.751 Y89.662 E27.50171
G1 X89.249 Y89.104 E27.53902
G0 F6000 X89.562 Y89.356
G1 F1200 X90.105 Y88.872 E27.57531
G1 X90.697 Y88.452 E27.61153
G1 X91.331 Y88.098 E27.64775
G1 X91.694 Y87.935 E27.66761
G1 X107.042 Y81.579 E28.49639
G1 X107.727 Y81.339 E28.5326
G1 X108.139 Y81.233 E28.55382
G1 X108.703 Y81.108 E28.58264
G1 X109.42 Y80.99 E28.61889
G1 X110.145 Y80.952 E28.65511
G1 X110.87 Y80.994 E28.69135
G1 X111.586 Y81.114 E28.72756
G1 X112.285 Y81.313 E28.76382
G1 X112.656 Y81.454 E28.78362
G1 X128.004 Y87.81 E29.6124
G1 X128.659 Y88.125 E29.64866
G1 X129.026 Y88.342 E29.66993
G1 X129.514 Y88.653 E29.6988
G1 X130.104 Y89.077 E29.73505
G1 X130.644 Y89.562 E29.77126
G1 X131.128 Y90.105 E29.80755
G1 X131.548 Y90.697 E29.84377
G1 X131.902 Y91.331 E29.87999
G1 X132.065 Y91.694 E29.89985
G1 X138.421 Y107.042 E30.72862
G1 X138.661 Y107.727 E30.76484
G1 X138.767 Y108.139 E30.78606
G1 X138.892 Y108.703 E30.81488
G1 X139.01 Y109.42 E30.85113
G1 X139.048 Y110.145 E30.88735
G1 X139.006 Y110.87 E30.92358
G1 X138.886 Y111.586 E30.9598
G1 X138.687 Y112.285 E30.99606
G1 X138.546 Y112.656 E31.01586
G1 X132.19 Y128.004 E31.84464
G1 X131.875 Y128.659 E31.8809
G1 X131.658 Y129.026 E31.90217
G1 X131.347 Y129.514 E31.93104
G1 X130.923 Y130.104 E31.96729
G1 X130.438 Y130.644 E32.0035
G1 X129.895 Y131.128 E32.03979
G1 X129.303 Y131.548 E32.07601
G1 X128.669 Y131.902 E32.11223
G1 X128.306 Y132.065 E32.13209
G1 X112.958 Y138.421 E32.96086
G1 X112.273 Y138.661 E32.99707
G1 X111.861 Y138.767 E33.0183
G1 X111.297 Y138.892 E33.04712
G1 X110.58 Y139.01 E33.08337
G1 X109.855 Y139.048 E33.11959
G1 X109.13 Y139.006 E33.15582
G1 X108.414 Y138.886 E33.19204
G1 X107.715 Y138.687 E33.2283
G1 X107.344 Y138.546 E33.2481
G1 X91.996 Y132.19 E34.07688
G1 X91.341 Y131.875 E34.11314
G1 X90.974 Y131.658 E34.13441
G1 X90.486 Y131.347 E34.16328
G1 X89.896 Y130.923 E34.19953
G1 X89.356 Y130.438 E34.23574
G1 X88.872 Y129.895 E34.27203
G1 X88.452 Y129.303 E34.30824
G1 X88.098 Y128.669 E34.34447
G1 X87.935 Y128.306 E34.36432
G1 X81.579 Y112.958 E35.1931
G1 X81.339 Y112.273 E35.22931
G1 X81.233 Y111.859 E35.25063
G1 X81.108 Y111.294 E35.2795
G1 X80.99 Y110.577 E35.31576
G1 X80.952 Y109.852 E35.35198
G1 X80.994 Y109.126 E35.38826
G1 X81.115 Y108.41 E35.42449
G1 X81.314 Y107.712 E35.4607
G1 X81.454 Y107.343 E35.48039
G1 X87.81 Y91.996 E36.30912
G1 X88.125 Y91.341 E36.34538
G1 X88.342 Y90.974 E36.36665
G1 X88.653 Y90.486 E36.39552
G1 X89.077 Y89.896 E36.43177
G1 X89.562 Y89.356 E36.46798
G0 F6000 X89.875 Y89.609
G1 F1200 X90.405 Y89.145 E36.50312
G1 X90.984 Y88.744 E36.53826
G1 X91.847 Y88.305 E36.58657
G1 X107.195 Y81.949 E37.41534
G1 X107.859 Y81.717 E37.45043
G1 X108.225 Y81.624 E37.46928
G1 X108.789 Y81.499 E37.4981
G1 X109.484 Y81.386 E37.53322
G1 X110.187 Y81.352 E37.56834
G1 X110.89 Y81.399 E37.60349
G1 X111.583 Y81.524 E37.63862
G1 X112.503 Y81.824 E37.6869
G1 X127.851 Y88.18 E38.51568
G1 X128.485 Y88.486 E38.5508
G1 X128.811 Y88.68 E38.56973
G1 X129.299 Y88.991 E38.5986
G1 X129.87 Y89.402 E38.6337
G1 X130.391 Y89.875 E38.6688
G1 X130.855 Y90.405 E38.70395
G1 X131.256 Y90.984 E38.73908
G1 X131.695 Y91.847 E38.78739
G1 X138.051 Y107.195 E39.61617
G1 X138.283 Y107.859 E39.65126
G1 X138.376 Y108.225 E39.6701
G1 X138.501 Y108.789 E39.69892
G1 X138.614 Y109.484 E39.73405
G1 X138.648 Y110.187 E39.76916
G1 X138.601 Y110.89 E39.80431
G1 X138.476 Y111.583 E39.83944
G1 X138.176 Y112.503 E39.88772
G1 X131.82 Y127.851 E40.7165
G1 X131.514 Y128.485 E40.75162
G1 X131.32 Y128.811 E40.77055
G1 X131.009 Y129.299 E40.79942
G1 X130.598 Y129.87 E40.83452
G1 X130.125 Y130.391 E40.86962
G1 X129.595 Y130.855 E40.90477
G1 X129.016 Y131.256 E40.93991
G1 X128.153 Y131.695 E40.98821
G1 X112.805 Y138.051 E41.81699
G1 X112.141 Y138.283 E41.85208
G1 X111.775 Y138.376 E41.87092
G1 X111.211 Y138.501 E41.89974
G1 X110.516 Y138.614 E41.93487
G1 X109.813 Y138.648 E41.96998
G1 X109.11 Y138.601 E42.00514
G1 X108.417 Y138.476 E42.04027
G1 X107.497 Y138.176 E42.08854
G1 X92.149 Y131.82 E42.91732
G1 X91.515 Y131.514 E42.95244
G1 X91.189 Y131.32 E42.97137
G1 X90.701 Y131.009 E43.00024
G1 X90.13 Y130.598 E43.03534
G1 X89.609 Y130.125 E43.07045
G1 X89.145 Y129.595 E43.10559
G1 X88.744 Y129.016 E43.14073
G1 X88.305 Y128.153 E43.18903
G1 X81.949 Y112.805 E44.01781
G1 X81.717 Y112.141 E44.0529
G1 X81.623 Y111.772 E44.0719
G1 X81.498 Y111.207 E44.10077
G1 X81.386 Y110.512 E44.13589
G1 X81.352 Y109.809 E44.17101
G1 X81.399 Y109.107 E44.20611
G1 X81.525 Y108.414 E44.24125
G1 X81.824 Y107.496 E44.28941
G1 X88.18 Y92.149 E45.11815
G1 X88.486 Y91.515 E45.15327
G1 X88.68 Y91.189 E45.17219
G1 X88.991 Y90.701 E45.20106
G1 X89.402 Y90.13 E45.23616
G1 X89.875 Y89.609 E45.27127
G0 F6000 X90.188 Y89.863
G1 F1200 X90.704 Y89.419 E45.30523
G1 X91.269 Y89.039 E45.3392
G1 X92 Y88.674 E45.37997
G1 X107.348 Y82.318 E46.20874
G1 X108.312 Y82.014 E46.25917
G1 X108.876 Y81.889 E46.28799
G1 X109.548 Y81.781 E46.32195
G1 X110.229 Y81.753 E46.35595
G1 X110.907 Y81.804 E46.38988
G1 X111.576 Y81.935 E46.42389
G1 X112.35 Y82.193 E46.46459
G1 X127.698 Y88.549 E47.29337
G1 X128.596 Y89.017 E47.34389
G1 X129.084 Y89.328 E47.37276
G1 X129.636 Y89.727 E47.40674
G1 X130.137 Y90.188 E47.44071
G1 X130.581 Y90.704 E47.47467
G1 X130.961 Y91.269 E47.50864
G1 X131.326 Y92 E47.5494
G1 X137.682 Y107.348 E48.37818
G1 X137.986 Y108.312 E48.42861
G1 X138.111 Y108.876 E48.45743
G1 X138.219 Y109.548 E48.49138
G1 X138.247 Y110.229 E48.52539
G1 X138.196 Y110.907 E48.55931
G1 X138.065 Y111.576 E48.59332
G1 X137.807 Y112.35 E48.63402
G1 X131.451 Y127.698 E49.4628
G1 X130.983 Y128.596 E49.51332
G1 X130.672 Y129.084 E49.54219
G1 X130.273 Y129.636 E49.57617
G1 X129.812 Y130.137 E49.61014
G1 X129.296 Y130.581 E49.6441
G1 X128.731 Y130.961 E49.67807
G1 X128 Y131.326 E49.71884
G1 X112.652 Y137.682 E50.54761
G1 X111.688 Y137.986 E50.59804
G1 X111.124 Y138.111 E50.62686
G1 X110.452 Y138.219 E50.66082
G1 X109.771 Y138.247 E50.69482
G1 X109.093 Y138.196 E50.72874
G1 X108.424 Y138.065 E50.76275
G1 X107.65 Y137.807 E50.80346
G1 X92.302 Y131.451 E51.63224
G1 X91.404 Y130.983 E51.68276
G1 X90.916 Y130.672 E51.71163
G1 X90.364 Y130.273 E51.74561
G1 X89.863 Y129.812 E51.77957
G1 X89.419 Y129.296 E51.81354
G1 X89.039 Y128.731 E51.84751
G1 X88.674 Y128 E51.88827
G1 X82.318 Y112.652 E52.71705
G1 X82.014 Y111.686 E52.76757
G1 X81.889 Y111.121 E52.79644
G1 X81.781 Y110.449 E52.8304
G1 X81.753 Y109.768 E52.8644
G1 X81.805 Y109.089 E52.89838
G1 X81.935 Y108.421 E52.93233
G1 X82.193 Y107.649 E52.97294
G1 X88.549 Y92.302 E53.80167
G1 X89.017 Y91.404 E53.85219
G1 X89.328 Y90.916 E53.88106
G1 X89.727 Y90.364 E53.91504
G1 X90.188 Y89.863 E53.94901
G0 F6000 X90.499 Y90.119
G1 F1200 X91.002 Y89.696 E53.9818
G1 X91.552 Y89.337 E54.01456
G1 X92.153 Y89.044 E54.04792
G1 X107.501 Y82.688 E54.8767
G1 X108.399 Y82.405 E54.92367
G1 X108.963 Y82.28 E54.95249
G1 X109.611 Y82.177 E54.98523
G1 X110.268 Y82.154 E55.01803
G1 X110.922 Y82.21 E55.05077
G1 X111.565 Y82.346 E55.08356
G1 X112.197 Y82.563 E55.1169
G1 X127.545 Y88.919 E55.94568
G1 X128.381 Y89.354 E55.99269
G1 X128.869 Y89.665 E56.02156
G1 X129.401 Y90.051 E56.05436
G1 X129.881 Y90.499 E56.08711
G1 X130.304 Y91.002 E56.1199
G1 X130.663 Y91.552 E56.15267
G1 X130.956 Y92.153 E56.18603
G1 X137.312 Y107.501 E57.01481
G1 X137.595 Y108.399 E57.06178
G1 X137.72 Y108.963 E57.0906
G1 X137.823 Y109.611 E57.12333
G1 X137.846 Y110.268 E57.15613
G1 X137.79 Y110.922 E57.18888
G1 X137.654 Y111.565 E57.22167
G1 X137.437 Y112.197 E57.25501
G1 X131.081 Y127.545 E58.08378
G1 X130.646 Y128.381 E58.1308
G1 X130.335 Y128.869 E58.15967
G1 X129.949 Y129.401 E58.19246
G1 X129.501 Y129.881 E58.22522
G1 X128.998 Y130.304 E58.25801
G1 X128.448 Y130.663 E58.29078
G1 X127.847 Y130.956 E58.32413
G1 X112.499 Y137.312 E59.15291
G1 X111.601 Y137.595 E59.19989
G1 X111.037 Y137.72 E59.22871
G1 X110.389 Y137.823 E59.26144
G1 X109.732 Y137.846 E59.29424
G1 X109.078 Y137.79 E59.32699
G1 X108.435 Y137.654 E59.35978
G1 X107.803 Y137.437 E59.39311
G1 X92.455 Y131.081 E60.22189
