;FLAVOR:Marlin
;TIME:38592
;Filament used: 30.9555m
;Layer height: 0.2
;MINX:66.325
;MINY:66.325
;MINZ:0.3
;MAXX:153.675
;MAXY:153.675
;MAXZ:175.9
;Generated with Cura_SteamEngine 4.11.0
M140 S65
M105
M190 S65
M104 S205
M105
M109 S205
M82 ;absolute extrusion mode
; Ender 3 Custom Start G-code
G92 E0 ; Reset Extruder
G28 ; Home all axes
M420 S1 Z2; enable ABL using saved mesh
G1 Z2.0 F3000 ; Move Z Axis up little to prevent scratching of Heat Bed
G1 X0.1 Y20 Z0.3 F5000.0 ; Move to start position
G1 X0.1 Y200.0 Z0.3 F1500.0 E15 ; Draw the first line
G1 X0.4 Y200.0 Z0.3 F5000.0 ; Move to side a little
G1 X0.4 Y20 Z0.3 F1500.0 E30 ; Draw the second line
G92 E0 ; Reset Extruder
G1 Z2.0 F3000 ; Move Z Axis up little to prevent scratching of Heat Bed
G1 X5 Y20 Z0.3 F5000.0 ; Move over to prevent blob squish
G92 E0
G92 E0
G1 F1500 E-6.5
;LAYER_COUNT:880
;LAYER:0
M107
G0 F6000 X83.563 Y83.667 Z0.3
;TYPE:SKIRT
G1 F1500 E0
G1 F1200 X84.241 Y83.019 E0.04679
G1 X84.973 Y82.432 E0.0936
G1 X85.752 Y81.91 E0.14039
G1 X86.967 Y81.268 E0.20894
G1 X87.231 Y81.149 E0.22339
G1 X87.541 Y81.014 E0.24026
G1 X104.856 Y73.843 E1.17526
G1 X105.462 Y73.601 E1.20782
G1 X106.347 Y73.291 E1.2546
G1 X107.012 Y73.112 E1.28896
G1 X107.431 Y73.013 E1.31044
G1 X107.857 Y72.92 E1.33219
G1 X108.782 Y72.765 E1.37898
G1 X109.717 Y72.691 E1.42578
G1 X110.654 Y72.696 E1.47252
G1 X111.588 Y72.781 E1.51931
G1 X112.512 Y72.945 E1.56613
G1 X113.418 Y73.187 E1.61292
G1 X113.984 Y73.382 E1.64278
G1 X114.259 Y73.485 E1.65744
G1 X114.609 Y73.623 E1.67621
G1 X131.882 Y80.776 E2.60893
G1 X132.556 Y81.067 E2.64555
G1 X133.401 Y81.475 E2.69237
G1 X133.947 Y81.789 E2.72379
G1 X134.309 Y82.011 E2.74498
G1 X134.731 Y82.284 E2.77005
G1 X134.877 Y82.383 E2.77885
G1 X135.631 Y82.942 E2.82568
G1 X136.333 Y83.563 E2.87244
G1 X136.981 Y84.241 E2.91923
G1 X137.568 Y84.973 E2.96604
G1 X138.09 Y85.752 E3.01283
G1 X138.545 Y86.572 E3.05961
G1 X138.757 Y87.022 E3.08443
G1 X138.9 Y87.344 E3.10201
G1 X139.01 Y87.599 E3.11586
G1 X146.157 Y104.856 E4.04773
G1 X146.399 Y105.462 E4.08029
G1 X146.709 Y106.347 E4.12707
G1 X146.888 Y107.012 E4.16143
G1 X146.987 Y107.431 E4.18291
G1 X147.08 Y107.857 E4.20466
G1 X147.235 Y108.782 E4.25145
G1 X147.309 Y109.717 E4.29825
G1 X147.304 Y110.654 E4.34499
G1 X147.219 Y111.588 E4.39178
G1 X147.055 Y112.512 E4.4386
G1 X146.813 Y113.418 E4.48539
G1 X146.618 Y113.984 E4.51526
G1 X146.515 Y114.259 E4.52991
G1 X146.377 Y114.609 E4.54868
G1 X139.224 Y131.882 E5.4814
G1 X138.932 Y132.558 E5.51814
G1 X138.524 Y133.402 E5.56491
G1 X138.211 Y133.947 E5.59626
G1 X137.989 Y134.309 E5.61745
G1 X137.813 Y134.586 E5.63382
G1 X137.718 Y134.731 E5.64247
G1 X137.171 Y135.493 E5.68927
G1 X136.561 Y136.206 E5.73608
G1 X135.893 Y136.864 E5.78286
G1 X135.171 Y137.462 E5.82963
G1 X134.401 Y137.997 E5.87641
G1 X133.588 Y138.465 E5.92321
G1 X132.965 Y138.764 E5.95769
G1 X132.628 Y138.913 E5.97607
G1 X132.389 Y139.015 E5.98903
G1 X115.144 Y146.157 E6.92025
G1 X114.538 Y146.399 E6.95281
G1 X113.653 Y146.709 E6.99959
G1 X112.988 Y146.888 E7.03395
G1 X112.569 Y146.987 E7.05543
G1 X112.143 Y147.08 E7.07718
G1 X111.218 Y147.235 E7.12398
G1 X110.283 Y147.309 E7.17077
G1 X109.346 Y147.304 E7.21752
G1 X108.412 Y147.219 E7.26431
G1 X107.488 Y147.055 E7.31113
G1 X106.582 Y146.813 E7.35791
G1 X106.016 Y146.618 E7.38778
G1 X105.741 Y146.515 E7.40243
G1 X105.466 Y146.408 E7.41715
G1 X105.168 Y146.287 E7.4332
G1 X88.118 Y139.224 E8.35392
G1 X87.444 Y138.933 E8.39055
G1 X86.599 Y138.525 E8.43736
G1 X86.053 Y138.211 E8.46879
G1 X85.691 Y137.989 E8.48997
G1 X85.326 Y137.755 E8.5116
G1 X85.181 Y137.658 E8.52031
G1 X84.424 Y137.104 E8.56711
G1 X83.718 Y136.487 E8.61388
G1 X83.066 Y135.812 E8.6607
G1 X82.474 Y135.085 E8.70748
G1 X81.947 Y134.309 E8.75428
G1 X81.487 Y133.492 E8.80105
G1 X81.27 Y133.038 E8.82616
G1 X81.15 Y132.772 E8.84072
G1 X81.014 Y132.459 E8.85774
G1 X73.842 Y115.142 E9.79286
G1 X73.599 Y114.533 E9.82557
G1 X73.289 Y113.648 E9.87235
G1 X73.109 Y112.978 E9.90696
G1 X73.011 Y112.562 E9.92829
G1 X72.944 Y112.258 E9.94382
G1 X72.909 Y112.088 E9.95248
G1 X72.759 Y111.162 E9.99928
G1 X72.689 Y110.227 E10.04605
G1 X72.698 Y109.289 E10.09285
G1 X72.788 Y108.356 E10.13962
G1 X72.956 Y107.433 E10.18642
G1 X73.203 Y106.528 E10.23323
G1 X73.401 Y105.962 E10.26314
G1 X73.504 Y105.691 E10.2776
G1 X73.623 Y105.391 E10.29371
G1 X80.791 Y88.081 E11.22842
G1 X81.068 Y87.44 E11.26326
G1 X81.477 Y86.596 E11.31005
G1 X81.789 Y86.053 E11.34129
G1 X82.011 Y85.691 E11.36248
G1 X82.284 Y85.269 E11.38755
G1 X82.383 Y85.123 E11.39636
G1 X82.942 Y84.369 E11.44318
G1 X83.563 Y83.667 E11.48994
G0 F6000 X83.874 Y83.92
G1 F1200 X84.543 Y83.287 E11.53589
G1 X85.264 Y82.715 E11.58181
G1 X86.032 Y82.207 E11.62775
G1 X87.131 Y81.632 E11.68963
G1 X87.395 Y81.513 E11.70407
G1 X87.694 Y81.384 E11.72032
G1 X105.004 Y74.215 E12.65505
G1 X105.61 Y73.973 E12.68761
G1 X106.479 Y73.669 E12.73354
G1 X107.104 Y73.501 E12.76583
G1 X107.523 Y73.402 E12.78731
G1 X107.939 Y73.311 E12.80855
G1 X108.847 Y73.16 E12.85448
G1 X109.765 Y73.089 E12.90041
G1 X110.686 Y73.098 E12.94636
G1 X111.602 Y73.186 E12.99227
G1 X112.508 Y73.354 E13.03824
G1 X113.395 Y73.6 E13.08417
G1 X113.844 Y73.756 E13.10788
G1 X114.119 Y73.859 E13.12253
G1 X114.456 Y73.992 E13.14061
G1 X131.724 Y81.143 E14.07306
G1 X132.398 Y81.434 E14.10969
G1 X133.226 Y81.836 E14.15561
G1 X133.737 Y82.13 E14.18502
G1 X134.099 Y82.352 E14.2062
G1 X134.507 Y82.615 E14.23042
G1 X134.653 Y82.714 E14.23922
G1 X135.392 Y83.263 E14.28515
G1 X136.08 Y83.874 E14.33106
G1 X136.713 Y84.543 E14.37701
G1 X137.285 Y85.264 E14.42292
G1 X137.793 Y86.032 E14.46886
G1 X138.392 Y87.185 E14.53369
G1 X138.535 Y87.507 E14.55126
G1 X138.64 Y87.752 E14.56456
G1 X145.785 Y105.004 E15.49616
G1 X146.027 Y105.61 E15.52872
G1 X146.331 Y106.479 E15.57465
G1 X146.499 Y107.104 E15.60694
G1 X146.598 Y107.523 E15.62842
G1 X146.689 Y107.939 E15.64966
G1 X146.84 Y108.847 E15.69559
G1 X146.911 Y109.765 E15.74152
G1 X146.902 Y110.686 E15.78747
G1 X146.814 Y111.602 E15.83338
G1 X146.646 Y112.508 E15.87935
G1 X146.4 Y113.395 E15.92528
G1 X146.244 Y113.844 E15.94899
G1 X146.141 Y114.119 E15.96364
G1 X146.008 Y114.456 E15.98172
G1 X138.92 Y131.575 E16.9061
G1 X138.565 Y132.399 E16.95086
G1 X138.164 Y133.228 E16.99681
G1 X137.87 Y133.737 E17.02613
G1 X137.648 Y134.099 E17.04732
G1 X137.478 Y134.367 E17.06315
G1 X137.383 Y134.512 E17.0718
G1 X136.846 Y135.26 E17.11774
G1 X136.246 Y135.958 E17.16366
G1 X135.587 Y136.601 E17.20959
G1 X134.875 Y137.184 E17.2555
G1 X134.115 Y137.704 E17.30145
G1 X133.313 Y138.156 E17.34738
G1 X132.803 Y138.398 E17.37554
G1 X132.466 Y138.547 E17.39392
G1 X132.236 Y138.645 E17.40639
G1 X114.996 Y145.785 E18.33735
G1 X114.39 Y146.027 E18.3699
G1 X113.521 Y146.331 E18.41583
G1 X112.896 Y146.499 E18.44812
G1 X112.477 Y146.598 E18.4696
G1 X112.061 Y146.689 E18.49085
G1 X111.153 Y146.84 E18.53677
G1 X110.235 Y146.911 E18.58271
G1 X109.314 Y146.902 E18.62866
G1 X108.398 Y146.814 E18.67457
G1 X107.492 Y146.646 E18.72054
G1 X106.605 Y146.4 E18.76646
G1 X106.156 Y146.244 E18.79017
G1 X105.881 Y146.141 E18.80483
G1 X105.617 Y146.037 E18.81898
G1 X105.321 Y145.917 E18.83492
G1 X88.276 Y138.857 E19.75535
G1 X87.602 Y138.566 E19.79198
G1 X86.774 Y138.164 E19.8379
G1 X86.263 Y137.87 E19.86731
G1 X85.901 Y137.648 E19.8885
G1 X85.548 Y137.422 E19.90941
G1 X85.403 Y137.325 E19.91811
G1 X84.661 Y136.781 E19.96402
G1 X83.969 Y136.174 E20.00994
G1 X83.332 Y135.509 E20.05588
G1 X82.755 Y134.791 E20.10184
G1 X82.243 Y134.027 E20.14772
G1 X81.635 Y132.874 E20.21275
G1 X81.515 Y132.608 E20.22731
G1 X81.384 Y132.306 E20.24373
G1 X74.214 Y114.993 E21.17862
G1 X73.971 Y114.384 E21.21134
G1 X73.667 Y113.515 E21.25727
G1 X73.498 Y112.887 E21.28971
G1 X73.4 Y112.471 E21.31104
G1 X73.301 Y112.008 E21.33466
G1 X73.154 Y111.099 E21.3806
G1 X73.088 Y110.18 E21.42656
G1 X73.101 Y109.26 E21.47247
G1 X73.193 Y108.344 E21.5184
G1 X73.365 Y107.439 E21.56435
G1 X73.615 Y106.553 E21.61028
G1 X73.775 Y106.104 E21.63406
G1 X73.878 Y105.833 E21.64853
G1 X73.992 Y105.544 E21.66403
G1 X81.095 Y88.39 E22.59031
G1 X81.436 Y87.599 E22.63328
G1 X81.837 Y86.771 E22.67918
G1 X82.13 Y86.263 E22.70844
G1 X82.352 Y85.901 E22.72963
G1 X82.615 Y85.493 E22.75384
G1 X82.714 Y85.347 E22.76264
G1 X83.263 Y84.608 E22.80857
G1 X83.874 Y83.92 E22.85448
G0 F6000 X84.186 Y84.173
G1 F1200 X84.844 Y83.556 E22.89948
G1 X85.555 Y82.998 E22.94457
G1 X86.312 Y82.506 E22.98962
G1 X87.295 Y81.997 E23.04484
G1 X87.559 Y81.878 E23.05929
G1 X87.848 Y81.753 E23.075
G1 X105.152 Y74.586 E24.00942
G1 X105.758 Y74.344 E24.04197
G1 X106.611 Y74.047 E24.08704
G1 X107.196 Y73.89 E24.11725
G1 X107.615 Y73.791 E24.13873
G1 X108.022 Y73.702 E24.15952
G1 X108.913 Y73.555 E24.20457
G1 X109.813 Y73.488 E24.2496
G1 X110.716 Y73.5 E24.29465
G1 X111.615 Y73.592 E24.33974
G1 X112.501 Y73.763 E24.38476
G1 X113.704 Y74.131 E24.44752
G1 X113.979 Y74.234 E24.46217
G1 X114.303 Y74.362 E24.47955
G1 X131.424 Y81.451 E25.40405
G1 X132.239 Y81.802 E25.44832
G1 X133.052 Y82.196 E25.49339
G1 X133.528 Y82.471 E25.52082
G1 X133.89 Y82.693 E25.542
G1 X134.282 Y82.946 E25.56528
G1 X134.428 Y83.045 E25.57408
G1 X135.153 Y83.584 E25.61915
G1 X135.827 Y84.186 E25.66424
G1 X136.444 Y84.844 E25.70924
G1 X137.002 Y85.555 E25.75433
G1 X137.494 Y86.312 E25.79937
G1 X138.026 Y87.347 E25.85743
G1 X138.169 Y87.669 E25.87501
G1 X138.271 Y87.906 E25.88788
G1 X145.414 Y105.152 E26.81917
G1 X145.656 Y105.758 E26.85172
G1 X145.953 Y106.611 E26.89678
G1 X146.11 Y107.196 E26.927
G1 X146.209 Y107.615 E26.94848
G1 X146.298 Y108.022 E26.96927
G1 X146.445 Y108.913 E27.01432
G1 X146.512 Y109.813 E27.05935
G1 X146.5 Y110.716 E27.1044
G1 X146.408 Y111.615 E27.14949
G1 X146.237 Y112.501 E27.19451
G1 X145.869 Y113.704 E27.25727
G1 X145.766 Y113.979 E27.27192
G1 X145.638 Y114.303 E27.2893
G1 X138.49 Y131.565 E28.22142
G1 X138.198 Y132.241 E28.25816
G1 X137.803 Y133.053 E28.30321
G1 X137.529 Y133.528 E28.33056
G1 X137.307 Y133.89 E28.35175
G1 X137.144 Y134.148 E28.36698
G1 X137.049 Y134.293 E28.37562
G1 X136.521 Y135.026 E28.42069
G1 X135.93 Y135.709 E28.46575
G1 X135.282 Y136.337 E28.51077
G1 X134.58 Y136.906 E28.55586
G1 X133.831 Y137.41 E28.6009
G1 X132.642 Y138.032 E28.66784
G1 X132.305 Y138.181 E28.68623
G1 X132.083 Y138.276 E28.69827
G1 X114.848 Y145.414 E29.62896
G1 X114.242 Y145.656 E29.66151
G1 X113.389 Y145.953 E29.70657
G1 X112.804 Y146.11 E29.73679
G1 X112.385 Y146.209 E29.75827
G1 X111.978 Y146.298 E29.77906
G1 X111.087 Y146.445 E29.82411
G1 X110.187 Y146.512 E29.86914
G1 X109.284 Y146.5 E29.91419
G1 X108.385 Y146.408 E29.95928
G1 X107.499 Y146.237 E30.0043
G1 X106.296 Y145.869 E30.06706
G1 X106.021 Y145.766 E30.08171
G1 X105.767 Y145.667 E30.09531
G1 X105.474 Y145.548 E30.11109
G1 X88.575 Y138.549 E31.02363
G1 X87.761 Y138.198 E31.06786
G1 X86.948 Y137.804 E31.11293
G1 X86.472 Y137.529 E31.14036
G1 X86.11 Y137.307 E31.16154
G1 X85.771 Y137.09 E31.18162
G1 X85.626 Y136.993 E31.19033
G1 X84.898 Y136.458 E31.2354
G1 X84.22 Y135.861 E31.28047
G1 X83.598 Y135.206 E31.32553
G1 X83.037 Y134.499 E31.37056
G1 X82.54 Y133.745 E31.41561
G1 X81.999 Y132.709 E31.47392
G1 X81.879 Y132.443 E31.48848
G1 X81.753 Y132.152 E31.5043
G1 X74.585 Y114.845 E32.43888
G1 X74.342 Y114.236 E32.47159
G1 X74.045 Y113.383 E32.51665
G1 X73.888 Y112.795 E32.54702
G1 X73.79 Y112.379 E32.56834
G1 X73.728 Y112.097 E32.58274
G1 X73.693 Y111.927 E32.5914
G1 X73.55 Y111.035 E32.63647
G1 X73.486 Y110.134 E32.68154
G1 X73.503 Y109.231 E32.7266
G1 X73.599 Y108.333 E32.77165
G1 X73.775 Y107.447 E32.81672
G1 X74.148 Y106.246 E32.87946
G1 X74.251 Y105.975 E32.89393
G1 X74.362 Y105.697 E32.90886
G1 X81.526 Y88.399 E33.84294
G1 X81.803 Y87.758 E33.87778
G1 X82.197 Y86.945 E33.92286
G1 X82.471 Y86.472 E33.95013
G1 X82.693 Y86.11 E33.97131
G1 X82.946 Y85.718 E33.99459
G1 X83.045 Y85.572 E34.00339
G1 X83.584 Y84.847 E34.04846
G1 X84.186 Y84.173 E34.09355
G1 F1500 E27.59355
;MESH:Low-poly_Rose_Vase.stl
G0 F6000 X90.627 Y91.384
G0 X91.541 Y91.967
G0 X86.188 Y110.002
G0 X93.162 Y126.838
G0 X110.002 Y133.999
;TYPE:WALL-INNER
G1 F1500 E34.09355
G1 F1200 X93.029 Y126.971 E35.01006
G1 X86.001 Y110.002 E35.92638
G1 X93.029 Y93.029 E36.84289
G1 X109.998 Y86.001 E37.75921
G1 X126.971 Y93.029 E38.67572
G1 X133.999 Y109.998 E39.59204
G1 X126.971 Y126.971 E40.50855
G1 X110.002 Y133.999 E41.42488
G0 F6000 X110.002 Y134.432
G1 F1200 X92.723 Y127.277 E42.35791
G1 X85.568 Y110.002 E43.29077
G1 X92.723 Y92.723 E44.2238
G1 X109.998 Y85.568 E45.15666
G1 X127.277 Y92.723 E46.08969
G1 X134.432 Y109.998 E47.02255
G1 X127.277 Y127.277 E47.95558
G1 X110.002 Y134.432 E48.88844
G0 F6000 X110.002 Y134.865
G1 F1200 X92.417 Y127.583 E49.838
G1 X85.135 Y110.002 E50.78739
G1 X92.417 Y92.417 E51.73695
G1 X109.998 Y85.135 E52.68633
G1 X127.583 Y92.417 E53.6359
G1 X134.865 Y109.998 E54.58528
G1 X127.583 Y127.583 E55.53485
G1 X110.002 Y134.865 E56.48423
G0 F6000 X109.964 Y135.283
G1 F1200 X92.231 Y127.939 E57.4418
G1 X92.096 Y127.853 E57.44979
G1 X84.752 Y110.125 E58.40713
G1 X84.717 Y109.964 E58.41535
G1 X92.061 Y92.231 E59.37292
G1 X92.147 Y92.096 E59.38091
G1 X109.875 Y84.752 E60.33825
G1 X110.036 Y84.717 E60.34647
G1 X127.769 Y92.061 E61.30404
G1 X127.904 Y92.147 E61.31203
G1 X135.248 Y109.875 E62.26937
G1 X135.283 Y110.036 E62.27759
G1 X127.939 Y127.769 E63.23516
G1 X127.853 Y127.904 E63.24314
G1 X110.125 Y135.248 E64.20048
G1 X109.964 Y135.283 E64.2087
G0 F6000 X109.927 Y135.701
G1 F1200 X92.049 Y128.297 E65.17411
G1 X91.774 Y128.122 E65.19037
G1 X84.369 Y110.246 E66.1557
G1 X84.299 Y109.927 E66.17199
G1 X91.703 Y92.049 E67.13739
G1 X91.878 Y91.774 E67.15365
G1 X109.754 Y84.369 E68.11898
G1 X110.073 Y84.299 E68.13527
G1 X127.951 Y91.703 E69.10067
G1 X128.226 Y91.878 E69.11694
G1 X135.631 Y109.754 E70.08226
G1 X135.701 Y110.073 E70.09856
G1 X128.297 Y127.951 E71.06396
G1 X128.122 Y128.226 E71.08022
G1 X110.246 Y135.631 E72.04555
G1 X109.927 Y135.701 E72.06184
G0 F6000 X109.89 Y136.119
;TYPE:WALL-OUTER
G1 F1200 X91.867 Y128.655 E73.03507
G1 X91.452 Y128.391 E73.05961
G1 X83.986 Y110.367 E74.03292
G1 X83.881 Y109.89 E74.05729
G1 X91.345 Y91.867 E75.03052
G1 X91.609 Y91.452 E75.05506
G1 X109.633 Y83.986 E76.02837
G1 X110.11 Y83.881 E76.05274
G1 X128.133 Y91.345 E77.02597
G1 X128.548 Y91.609 E77.05051
G1 X136.014 Y109.633 E78.02382
G1 X136.119 Y110.11 E78.04819
G1 X128.655 Y128.133 E79.02142
G1 X128.391 Y128.548 E79.04596
G1 X110.367 Y136.014 E80.01927
G1 X109.89 Y136.119 E80.04364
G0 F6000 X109.928 Y135.681
G0 X109.894 Y133.835
G0 X110.002 Y133.576
;TYPE:SKIN
G1 F1200 X93.328 Y126.672 E80.944
G1 X86.424 Y110.002 E81.84417
G1 X93.328 Y93.328 E82.74453
G1 X109.998 Y86.424 E83.64471
G1 X126.672 Y93.328 E84.54507
G1 X133.576 Y109.998 E85.44524
G1 X126.672 Y126.672 E86.3456
G1 X110.002 Y133.576 E87.24578
G0 F6000 X109.894 Y133.835
G0 X93.775 Y127.16
G0 X93.944 Y126.753
G1 F1200 X93.244 Y126.054 E87.29513
G0 F6000 X92.838 Y126.221
G0 X92.438 Y125.255
G0 X92.844 Y125.088
G1 F1200 X94.909 Y127.153 E87.44083
G0 F6000 X94.74 Y127.559
G0 X95.705 Y127.959
G0 X95.874 Y127.552
G1 F1200 X92.445 Y124.123 E87.68276
G0 F6000 X92.038 Y124.291
G0 X91.639 Y123.325
G0 X92.045 Y123.158
G1 F1200 X96.839 Y127.952 E88.021
G0 F6000 X96.67 Y128.359
G0 X97.636 Y128.759
G0 X97.805 Y128.352
G1 F1200 X91.645 Y122.192 E88.45562
G0 F6000 X91.239 Y122.36
G0 X90.839 Y121.394
G0 X91.245 Y121.227
G1 F1200 X98.77 Y128.752 E88.98655
G0 F6000 X98.601 Y129.158
G0 X99.566 Y129.558
G0 X99.735 Y129.151
G1 F1200 X90.846 Y120.261 E89.61376
G0 F6000 X90.439 Y120.429
G0 X90.039 Y119.463
G0 X90.446 Y119.295
G1 F1200 X100.701 Y129.551 E90.33734
G0 F6000 X100.532 Y129.958
G0 X101.497 Y130.357
G0 X101.666 Y129.95
G1 F1200 X90.046 Y118.33 E91.15719
G0 F6000 X89.639 Y118.498
G0 X89.239 Y117.533
G0 X89.646 Y117.365
G1 F1200 X102.631 Y130.35 E92.07335
G0 F6000 X102.462 Y130.757
G0 X103.427 Y131.157
G0 X103.596 Y130.749
G1 F1200 X89.246 Y116.399 E93.08582
G0 F6000 X88.839 Y116.567
G0 X88.44 Y115.602
G0 X88.847 Y115.434
G1 F1200 X104.562 Y131.149 E94.1946
G0 F6000 X104.393 Y131.557
G0 X105.357 Y131.956
G0 X105.527 Y131.548
