;FLAVOR:Marlin
;TIME:15592
;Filament used: 7.7315m
;Layer height: 0.15
;MINX:60.334
;MINY:60.334
;MINZ:0.3
;MAXX:159.666
;MAXY:159.666
;MAXZ:200.03
;Generated with Cura_SteamEngine 4.11.0
M140 S60
M105
M190 S60
M104 S200
M105
M109 S200
M82 ;absolute extrusion mode
; Ender 3 Custom Start G-code
G92 E0 ; Reset Extruder
G28 ; Home all axes
M420 S1 Z2; enable ABL using saved mesh
G1 Z2.0 F3000 ; Move Z Axis up little to prevent scratching of Heat Bed
G1 X0.1 Y20 Z0.3 F5000.0 ; Move to start position
G1 X0.1 Y200.0 Z0.3 F1500.0 E15 ; Draw the first line
G1 X0.4 Y200.0 Z0.3 F5000.0 ; Move to side a little
G1 X0.4 Y20 Z0.3 F1500.0 E30 ; Draw the second line
G92 E0 ; Reset Extruder
G1 Z2.0 F3000 ; Move Z Axis up little to prevent scratching of Heat Bed
G1 X5 Y20 Z0.3 F5000.0 ; Move over to prevent blob squish
G92 E0
G92 E0
G1 F1500 E-6.5
;LAYER_COUNT:1332
;LAYER:0
M107
G0 F6000 X80.892 Y81.279 Z0.3
;TYPE:SKIRT
G1 F1500 E0
G1 F1200 X81.559 Y80.62 E0.04678
G1 X82.561 Y79.813 E0.11097
G1 X83.347 Y79.301 E0.15777
G1 X84.441 Y78.733 E0.21926
G1 X84.701 Y78.616 E0.23349
G1 X85.005 Y78.484 E0.25002
G1 X104.684 Y70.332 E1.31272
G1 X105.46 Y70.022 E1.35441
G1 X106.345 Y69.711 E1.40121
G1 X106.977 Y69.54 E1.43387
G1 X107.411 Y69.436 E1.45614
G1 X107.776 Y69.355 E1.47479
G1 X107.928 Y69.324 E1.48253
G1 X108.854 Y69.176 E1.52931
G1 X109.789 Y69.107 E1.57609
G1 X110.727 Y69.118 E1.62289
G1 X111.661 Y69.21 E1.66971
G1 X112.583 Y69.38 E1.71648
G1 X113.487 Y69.628 E1.76325
G1 X113.985 Y69.801 E1.78955
G1 X114.308 Y69.922 E1.80676
G1 X114.658 Y70.06 E1.82553
G1 X134.331 Y78.208 E2.88787
G1 X135.088 Y78.534 E2.92899
G1 X135.933 Y78.942 E2.97581
G1 X136.488 Y79.261 E3.00774
G1 X136.82 Y79.465 E3.02718
G1 X137.138 Y79.668 E3.04601
G1 X137.31 Y79.782 E3.0563
G1 X138.069 Y80.333 E3.10309
G1 X138.778 Y80.947 E3.14989
G1 X139.433 Y81.619 E3.1967
G1 X140.027 Y82.344 E3.24346
G1 X140.558 Y83.117 E3.29025
G1 X141.021 Y83.932 E3.33702
G1 X141.252 Y84.411 E3.36355
G1 X141.368 Y84.667 E3.37757
G1 X141.511 Y84.997 E3.39551
G1 X149.72 Y104.814 E4.46566
G1 X149.978 Y105.46 E4.50036
G1 X150.289 Y106.345 E4.54716
G1 X150.46 Y106.977 E4.57982
G1 X150.564 Y107.411 E4.60209
G1 X150.645 Y107.776 E4.62074
G1 X150.676 Y107.928 E4.62848
G1 X150.824 Y108.854 E4.67527
G1 X150.893 Y109.789 E4.72204
G1 X150.882 Y110.727 E4.76884
G1 X150.79 Y111.661 E4.81566
G1 X150.62 Y112.583 E4.86244
G1 X150.372 Y113.487 E4.9092
G1 X150.202 Y113.977 E4.93508
G1 X150.088 Y114.282 E4.95132
G1 X149.947 Y114.64 E4.97052
G1 X141.804 Y134.302 E6.03226
G1 X141.469 Y135.081 E6.07457
G1 X141.062 Y135.926 E6.12136
G1 X140.733 Y136.497 E6.15424
G1 X140.531 Y136.825 E6.17345
G1 X140.35 Y137.11 E6.1903
G1 X140.234 Y137.286 E6.20081
G1 X139.685 Y138.047 E6.24763
G1 X139.073 Y138.758 E6.29443
G1 X138.403 Y139.414 E6.34121
G1 X137.679 Y140.01 E6.388
G1 X136.907 Y140.543 E6.4348
G1 X136.093 Y141.008 E6.48157
G1 X135.601 Y141.247 E6.50886
G1 X135.337 Y141.367 E6.52333
G1 X134.995 Y141.516 E6.54194
G1 X115.316 Y149.668 E7.60463
G1 X114.54 Y149.978 E7.64632
G1 X113.655 Y150.289 E7.69312
G1 X113.011 Y150.463 E7.7264
G1 X112.579 Y150.566 E7.74856
G1 X112.266 Y150.636 E7.76456
G1 X112.112 Y150.668 E7.77241
G1 X111.186 Y150.819 E7.81922
G1 X110.251 Y150.892 E7.86601
G1 X109.313 Y150.884 E7.91281
G1 X108.38 Y150.796 E7.95956
G1 X107.457 Y150.629 E8.00636
G1 X106.551 Y150.384 E8.05318
G1 X105.992 Y150.19 E8.0827
G1 X105.65 Y150.061 E8.10094
G1 X105.323 Y149.932 E8.11847
G1 X85.669 Y141.792 E9.17979
G1 X84.912 Y141.466 E9.22091
G1 X84.067 Y141.058 E9.26772
G1 X83.512 Y140.739 E9.29966
G1 X83.18 Y140.535 E9.3191
G1 X82.862 Y140.332 E9.33792
G1 X82.69 Y140.218 E9.34822
G1 X81.931 Y139.667 E9.39501
G1 X81.222 Y139.053 E9.4418
G1 X80.567 Y138.381 E9.48862
G1 X79.973 Y137.656 E9.53538
G1 X79.442 Y136.883 E9.58217
G1 X78.979 Y136.068 E9.62893
G1 X78.753 Y135.601 E9.65481
G1 X78.633 Y135.337 E9.66928
G1 X78.484 Y134.995 E9.68789
G1 X70.332 Y115.316 E10.75059
G1 X70.02 Y114.534 E10.79259
G1 X69.709 Y113.649 E10.83939
G1 X69.537 Y113.014 E10.87221
G1 X69.434 Y112.583 E10.89432
G1 X69.344 Y112.17 E10.91541
G1 X69.313 Y112.014 E10.92334
G1 X69.17 Y111.087 E10.97014
G1 X69.106 Y110.151 E11.01695
G1 X69.122 Y109.214 E11.0637
G1 X69.217 Y108.281 E11.11049
G1 X69.392 Y107.359 E11.15731
G1 X69.645 Y106.456 E11.20409
G1 X69.825 Y105.949 E11.23094
G1 X69.949 Y105.624 E11.24829
G1 X70.063 Y105.336 E11.26374
G1 X78.212 Y85.662 E12.32615
G1 X78.528 Y84.926 E12.36611
G1 X78.935 Y84.081 E12.4129
G1 X79.261 Y83.512 E12.44562
G1 X79.465 Y83.18 E12.46506
G1 X79.627 Y82.925 E12.48013
G1 X79.738 Y82.755 E12.49026
G1 X80.283 Y81.992 E12.53704
G1 X80.892 Y81.279 E12.58382
G0 F6000 X81.208 Y81.527
G1 F1200 X81.866 Y80.882 E12.62979
G1 X82.794 Y80.138 E12.68913
G1 X83.566 Y79.636 E12.73507
G1 X84.605 Y79.098 E12.79345
G1 X84.865 Y78.981 E12.80767
G1 X85.158 Y78.854 E12.8236
G1 X104.963 Y70.651 E13.89308
G1 X105.609 Y70.393 E13.92778
G1 X106.478 Y70.089 E13.97371
G1 X107.07 Y69.929 E14.00431
G1 X107.504 Y69.825 E14.02657
G1 X107.856 Y69.747 E14.04456
G1 X108.008 Y69.716 E14.0523
G1 X108.917 Y69.571 E14.09822
G1 X109.835 Y69.506 E14.14414
G1 X110.756 Y69.521 E14.19009
G1 X111.672 Y69.615 E14.23603
G1 X112.576 Y69.789 E14.28196
G1 X113.845 Y70.176 E14.34815
G1 X114.168 Y70.297 E14.36536
G1 X114.505 Y70.43 E14.38343
G1 X134.323 Y78.639 E15.45362
G1 X134.93 Y78.901 E15.48661
G1 X135.758 Y79.302 E15.5325
G1 X136.278 Y79.602 E15.56246
G1 X136.61 Y79.806 E15.5819
G1 X136.917 Y80.001 E15.60004
G1 X137.089 Y80.115 E15.61034
G1 X137.834 Y80.657 E15.6563
G1 X138.528 Y81.261 E15.7022
G1 X139.168 Y81.923 E15.74814
G1 X139.748 Y82.638 E15.79407
G1 X140.264 Y83.401 E15.84002
G1 X140.888 Y84.576 E15.9064
G1 X141.004 Y84.832 E15.92042
G1 X141.142 Y85.15 E15.93772
G1 X149.349 Y104.963 E17.00764
G1 X149.607 Y105.609 E17.04234
G1 X149.911 Y106.478 E17.08827
G1 X150.071 Y107.07 E17.11887
G1 X150.175 Y107.504 E17.14113
G1 X150.253 Y107.856 E17.15912
G1 X150.284 Y108.008 E17.16686
G1 X150.429 Y108.917 E17.21278
G1 X150.494 Y109.835 E17.2587
G1 X150.479 Y110.756 E17.30465
G1 X150.385 Y111.672 E17.35059
G1 X150.211 Y112.576 E17.39652
G1 X149.827 Y113.837 E17.46228
G1 X149.713 Y114.142 E17.47853
G1 X149.577 Y114.487 E17.49703
G1 X141.376 Y134.287 E18.56624
G1 X141.102 Y134.923 E18.60078
G1 X140.701 Y135.752 E18.64673
G1 X140.393 Y136.288 E18.67757
G1 X140.191 Y136.616 E18.69679
G1 X140.016 Y136.89 E18.71301
G1 X139.9 Y137.066 E18.72352
G1 X139.36 Y137.812 E18.76947
G1 X138.758 Y138.509 E18.81542
G1 X138.097 Y139.15 E18.86136
G1 X137.384 Y139.732 E18.90727
G1 X136.622 Y140.249 E18.95321
G1 X135.435 Y140.883 E19.02035
G1 X135.171 Y141.003 E19.03482
G1 X134.842 Y141.146 E19.05272
G1 X115.037 Y149.349 E20.12219
G1 X114.391 Y149.607 E20.1569
G1 X113.522 Y149.911 E20.20283
G1 X112.918 Y150.074 E20.23404
G1 X112.486 Y150.177 E20.2562
G1 X112.185 Y150.244 E20.27158
G1 X112.031 Y150.276 E20.27943
G1 X111.122 Y150.424 E20.32537
G1 X110.204 Y150.493 E20.3713
G1 X109.283 Y150.482 E20.41726
G1 X108.367 Y150.39 E20.46318
G1 X107.462 Y150.22 E20.50912
G1 X106.576 Y149.972 E20.55503
G1 X106.133 Y149.816 E20.57846
G1 X105.791 Y149.687 E20.59669
G1 X105.476 Y149.562 E20.6136
G1 X85.677 Y141.361 E21.68276
G1 X85.07 Y141.099 E21.71575
G1 X84.242 Y140.698 E21.76164
G1 X83.722 Y140.398 E21.7916
G1 X83.39 Y140.194 E21.81104
G1 X83.083 Y139.999 E21.82918
G1 X82.911 Y139.885 E21.83948
G1 X82.166 Y139.343 E21.88544
G1 X81.472 Y138.739 E21.93134
G1 X80.832 Y138.077 E21.97728
G1 X80.252 Y137.362 E22.02321
G1 X79.736 Y136.599 E22.06916
G1 X79.117 Y135.435 E22.13494
G1 X78.997 Y135.171 E22.1494
G1 X78.854 Y134.842 E22.1673
G1 X70.65 Y115.035 E23.23689
G1 X70.391 Y114.386 E23.27175
G1 X70.087 Y113.517 E23.31768
G1 X69.926 Y112.921 E23.34848
G1 X69.823 Y112.49 E23.37059
G1 X69.736 Y112.092 E23.39092
G1 X69.705 Y111.936 E23.39885
G1 X69.565 Y111.026 E23.44478
G1 X69.505 Y110.107 E23.49073
G1 X69.524 Y109.187 E23.53664
G1 X69.623 Y108.272 E23.58256
G1 X69.801 Y107.368 E23.62852
G1 X70.198 Y106.091 E23.69524
G1 X70.322 Y105.766 E23.71259
G1 X70.433 Y105.489 E23.72748
G1 X78.637 Y85.684 E24.79698
G1 X78.895 Y85.084 E24.82956
G1 X79.295 Y84.255 E24.87548
G1 X79.602 Y83.722 E24.90617
G1 X79.806 Y83.39 E24.92561
G1 X79.961 Y83.144 E24.94012
G1 X80.072 Y82.974 E24.95025
G1 X80.609 Y82.225 E24.99623
G1 X81.208 Y81.527 E25.04211
G0 F6000 X81.524 Y81.775
G1 F1200 X82.171 Y81.145 E25.08717
G1 X83.026 Y80.464 E25.1417
G1 X83.784 Y79.972 E25.18679
G1 X84.769 Y79.462 E25.24212
G1 X85.029 Y79.345 E25.25635
G1 X85.311 Y79.224 E25.27166
G1 X105.111 Y71.023 E26.34086
G1 X105.757 Y70.765 E26.37557
G1 X106.61 Y70.467 E26.42065
G1 X107.163 Y70.318 E26.44922
G1 X107.597 Y70.214 E26.47149
G1 X107.936 Y70.139 E26.48881
G1 X108.088 Y70.108 E26.49655
G1 X108.98 Y69.967 E26.5416
G1 X109.881 Y69.905 E26.58666
G1 X110.784 Y69.923 E26.63172
G1 X111.681 Y70.021 E26.67674
G1 X112.567 Y70.198 E26.72181
G1 X113.704 Y70.55 E26.78119
G1 X114.027 Y70.671 E26.7984
G1 X114.352 Y70.799 E26.81583
G1 X134.164 Y79.006 E27.8857
G1 X134.771 Y79.268 E27.91869
G1 X135.584 Y79.662 E27.96376
G1 X136.069 Y79.942 E27.9917
G1 X136.401 Y80.146 E28.01114
G1 X136.696 Y80.335 E28.02862
G1 X136.868 Y80.449 E28.03891
G1 X137.598 Y80.981 E28.08398
G1 X138.278 Y81.575 E28.12903
G1 X138.903 Y82.227 E28.17408
G1 X139.468 Y82.932 E28.21916
G1 X139.968 Y83.684 E28.26421
G1 X140.524 Y84.741 E28.3238
G1 X140.64 Y84.997 E28.33782
G1 X140.772 Y85.303 E28.35445
G1 X148.977 Y105.111 E29.4241
G1 X149.235 Y105.757 E29.4588
G1 X149.533 Y106.61 E29.50388
G1 X149.682 Y107.163 E29.53245
G1 X149.786 Y107.597 E29.55472
G1 X149.861 Y107.936 E29.57204
G1 X149.892 Y108.088 E29.57978
G1 X150.033 Y108.98 E29.62483
G1 X150.095 Y109.881 E29.66989
G1 X150.077 Y110.784 E29.71495
G1 X149.979 Y111.681 E29.75997
G1 X149.802 Y112.567 E29.80505
G1 X149.452 Y113.697 E29.86406
G1 X149.338 Y114.002 E29.88031
G1 X149.208 Y114.334 E29.8981
G1 X141.009 Y134.129 E30.96704
G1 X140.735 Y134.765 E31.00158
G1 X140.341 Y135.578 E31.04666
G1 X140.052 Y136.078 E31.07547
G1 X139.85 Y136.406 E31.09469
G1 X139.682 Y136.67 E31.1103
G1 X139.566 Y136.846 E31.12082
G1 X139.036 Y137.578 E31.1659
G1 X138.443 Y138.259 E31.21095
G1 X137.793 Y138.886 E31.25601
G1 X137.089 Y139.452 E31.30108
G1 X136.339 Y139.954 E31.3461
G1 X135.27 Y140.519 E31.40643
G1 X135.006 Y140.639 E31.42089
G1 X134.689 Y140.776 E31.43812
G1 X114.889 Y148.977 E32.50733
G1 X114.243 Y149.235 E32.54203
G1 X113.39 Y149.533 E32.58711
G1 X112.826 Y149.685 E32.61626
G1 X112.394 Y149.788 E32.63841
G1 X112.103 Y149.853 E32.65329
G1 X111.949 Y149.885 E32.66114
G1 X111.058 Y150.029 E32.70616
G1 X110.157 Y150.094 E32.75123
G1 X109.254 Y150.079 E32.79629
G1 X108.356 Y149.984 E32.84134
G1 X107.47 Y149.811 E32.88638
G1 X106.274 Y149.442 E32.94882
G1 X105.932 Y149.313 E32.96706
G1 X105.629 Y149.193 E32.98332
G1 X85.836 Y140.994 E34.05216
G1 X85.229 Y140.732 E34.08515
G1 X84.416 Y140.338 E34.13022
G1 X83.931 Y140.058 E34.15816
G1 X83.599 Y139.854 E34.1776
G1 X83.304 Y139.665 E34.19508
G1 X83.132 Y139.551 E34.20537
G1 X82.402 Y139.019 E34.25044
G1 X81.722 Y138.425 E34.29549
G1 X81.097 Y137.773 E34.34054
G1 X80.532 Y137.068 E34.38562
G1 X80.032 Y136.316 E34.43067
G1 X79.481 Y135.27 E34.48966
G1 X79.361 Y135.006 E34.50412
G1 X79.224 Y134.689 E34.52135
G1 X71.022 Y114.887 E35.59067
G1 X70.763 Y114.238 E35.62553
G1 X70.465 Y113.385 E35.67061
G1 X70.315 Y112.828 E35.69939
G1 X70.212 Y112.397 E35.7215
G1 X70.129 Y112.014 E35.74105
G1 X70.098 Y111.858 E35.74898
G1 X69.961 Y110.965 E35.79406
G1 X69.904 Y110.064 E35.8391
G1 X69.927 Y109.161 E35.88416
G1 X70.029 Y108.264 E35.9292
G1 X70.211 Y107.379 E35.97428
G1 X70.572 Y106.234 E36.03418
G1 X70.696 Y105.909 E36.05153
G1 X70.802 Y105.642 E36.06586
G1 X78.951 Y85.968 E37.12827
G1 X79.263 Y85.242 E37.16769
G1 X79.656 Y84.429 E37.21274
G1 X79.942 Y83.931 E37.2414
G1 X80.146 Y83.599 E37.26084
G1 X80.296 Y83.362 E37.27483
G1 X80.407 Y83.192 E37.28496
G1 X80.934 Y82.459 E37.33
G1 X81.524 Y81.775 E37.37506
G1 F1500 E30.87506
;MESH:Low-poly_Rose_Vase.stl
G0 F6000 X88.088 Y88.866
G0 X88.918 Y89.394
G0 X80.48 Y109.906
G0 X80.568 Y110.315
G0 X89.058 Y130.806
G0 X109.901 Y139.58
G1 F1500 E37.37506
G0 F6000 X109.89 Y139.7
;TYPE:WALL-OUTER
G1 F1200 X89.335 Y131.187 E38.48503
G1 X88.92 Y130.923 E38.50957
G1 X80.405 Y110.367 E39.61961
G1 X80.3 Y109.89 E39.64398
G1 X88.813 Y89.335 E40.75395
G1 X89.077 Y88.92 E40.77848
G1 X109.633 Y80.405 E41.88853
G1 X110.11 Y80.3 E41.9129
G1 X130.665 Y88.813 E43.02286
G1 X131.08 Y89.077 E43.0474
G1 X139.595 Y109.633 E44.15745
G1 X139.7 Y110.11 E44.18182
G1 X131.187 Y130.665 E45.29178
G1 X130.923 Y131.08 E45.31632
G1 X110.367 Y139.595 E46.42637
G1 X109.89 Y139.7 E46.45073
G0 F6000 X109.928 Y139.292
;TYPE:SKIN
G1 F1200 X89.51 Y130.837 E47.55328
G1 X89.235 Y130.661 E47.56957
G1 X80.777 Y110.245 E48.67207
G1 X80.708 Y109.928 E48.68826
G1 X89.163 Y89.51 E49.7908
G1 X89.339 Y89.235 E49.80709
G1 X109.755 Y80.777 E50.90959
G1 X110.072 Y80.708 E50.92578
G1 X130.49 Y89.163 E52.02832
G1 X130.765 Y89.339 E52.04461
G1 X139.223 Y109.755 E53.14712
G1 X139.292 Y110.072 E53.1633
G1 X130.837 Y130.49 E54.26584
G1 X130.661 Y130.765 E54.28213
G1 X110.245 Y139.223 E55.38464
G1 X109.928 Y139.292 E55.40083
G0 F6000 X109.987 Y139.566
G0 X89.415 Y131.035
G0 X89.094 Y130.829
G0 X88.63 Y129.936
G0 X89.038 Y129.768
G1 F1200 X90.232 Y130.961 E55.48503
G0 F6000 X90.063 Y131.368
G0 X91.029 Y131.769
G0 X91.198 Y131.362
G1 F1200 X88.638 Y128.802 E55.66566
G0 F6000 X88.23 Y128.97
G0 X87.83 Y128.004
G0 X88.238 Y127.836
G1 F1200 X92.163 Y131.761 E55.94259
G0 F6000 X91.994 Y132.168
G0 X92.959 Y132.568
G0 X93.128 Y132.161
G1 F1200 X87.838 Y126.87 E56.31586
G0 F6000 X87.43 Y127.038
G0 X87.029 Y126.072
G0 X87.437 Y125.904
G1 F1200 X94.094 Y132.561 E56.78555
G0 F6000 X93.925 Y132.968
G0 X94.89 Y133.368
G0 X95.059 Y132.96
G1 F1200 X87.038 Y124.939 E57.35147
G0 F6000 X86.63 Y125.107
G0 X86.23 Y124.141
G0 X86.638 Y123.973
G1 F1200 X96.025 Y133.361 E58.01381
G0 F6000 X95.856 Y133.768
G0 X96.822 Y134.168
G0 X96.991 Y133.76
G1 F1200 X86.238 Y123.007 E58.77249
G0 F6000 X85.83 Y123.175
G0 X85.429 Y122.209
G0 X85.837 Y122.041
G1 F1200 X97.956 Y134.16 E59.62755
G0 F6000 X97.787 Y134.567
G0 X98.753 Y134.968
G0 X98.922 Y134.56
G1 F1200 X85.437 Y121.075 E60.57899
G0 F6000 X85.029 Y121.243
G0 X84.63 Y120.278
G0 X85.038 Y120.11
G1 F1200 X99.888 Y134.96 E61.62674
G0 F6000 X99.719 Y135.368
G0 X100.684 Y135.767
G0 X100.853 Y135.36
G1 F1200 X84.637 Y119.144 E62.77087
G0 F6000 X84.229 Y119.312
G0 X83.829 Y118.346
G0 X84.237 Y118.178
G1 F1200 X101.818 Y135.759 E64.0113
G0 F6000 X101.648 Y136.167
G0 X102.614 Y136.567
G0 X102.784 Y136.159
G1 F1200 X83.837 Y117.212 E65.34811
G0 F6000 X83.429 Y117.38
G0 X83.029 Y116.414
G0 X83.437 Y116.246
G1 F1200 X103.749 Y136.559 E66.78127
G0 F6000 X103.579 Y136.967
G0 X104.545 Y137.367
G0 X104.715 Y136.959
G1 F1200 X83.036 Y115.281 E68.31081
G0 F6000 X82.629 Y115.449
G0 X82.229 Y114.483
G0 X82.637 Y114.315
G1 F1200 X105.68 Y137.359 E69.93665
G0 F6000 X105.511 Y137.767
G0 X106.477 Y138.167
G0 X106.646 Y137.759
G1 F1200 X82.237 Y113.349 E71.65887
G0 F6000 X81.829 Y113.517
G0 X81.429 Y112.552
G0 X81.837 Y112.384
G1 F1200 X107.611 Y138.158 E73.47737
G0 F6000 X107.441 Y138.566
G0 X108.406 Y138.966
G0 X108.576 Y138.558
G1 F1200 X81.436 Y111.418 E75.39224
G0 F6000 X81.029 Y111.586
G0 X80.629 Y110.62
G0 X81.036 Y110.452
G1 F1200 X109.542 Y138.958 E77.40349
G0 F6000 X110.211 Y139.061
G1 F1200 X80.938 Y109.788 E79.46886
G0 F6000 X81.104 Y109.388
G1 F1200 X110.612 Y138.896 E81.55081
G0 F6000 X111.012 Y138.73
G1 F1200 X81.269 Y108.988 E83.6493
G0 F6000 X81.435 Y108.588
G1 F1200 X111.411 Y138.564 E85.76427
G0 F6000 X111.811 Y138.399
G1 F1200 X81.601 Y108.188 E87.89579
G0 F6000 X81.766 Y107.788
G1 F1200 X112.212 Y138.233 E90.04388
G0 F6000 X112.611 Y138.067
G1 F1200 X81.932 Y107.388 E92.20845
G0 F6000 X82.097 Y106.988
G1 F1200 X113.011 Y137.902 E94.3896
G0 F6000 X113.412 Y137.736
G1 F1200 X82.264 Y106.588 E96.58726
G0 F6000 X82.429 Y106.188
G1 F1200 X113.811 Y137.57 E98.80143
G0 F6000 X114.211 Y137.404
