;FLAVOR:Marlin
;TIME:8828
;Filament used: 5.08832m
;Layer height: 0.2
;MINX:70.313
;MINY:70.313
;MINZ:0.3
;MAXX:149.687
;MAXY:149.687
;MAXZ:160.007
;Generated with Cura_SteamEngine 4.11.0
M140 S65
M105
M190 S65
M104 S205
M105
M109 S205
M82 ;absolute extrusion mode
; Ender 3 Custom Start G-code
G92 E0 ; Reset Extruder
G28 ; Home all axes
M420 S1 Z2; enable ABL using saved mesh
G1 Z2.0 F3000 ; Move Z Axis up little to prevent scratching of Heat Bed
G1 X0.1 Y20 Z0.3 F5000.0 ; Move to start position
G1 X0.1 Y200.0 Z0.3 F1500.0 E15 ; Draw the first line
G1 X0.4 Y200.0 Z0.3 F5000.0 ; Move to side a little
G1 X0.4 Y20 Z0.3 F1500.0 E30 ; Draw the second line
G92 E0 ; Reset Extruder
G1 Z2.0 F3000 ; Move Z Axis up little to prevent scratching of Heat Bed
G1 X5 Y20 Z0.3 F5000.0 ; Move over to prevent blob squish
G92 E0
G92 E0
G1 F1500 E-6.5
;LAYER_COUNT:800
;LAYER:0
M107
G0 F6000 X85.112 Y85.499 Z0.3
;TYPE:SKIRT
G1 F1500 E0
G1 F1200 X85.779 Y84.84 E0.04678
G1 X86.781 Y84.033 E0.11097
G1 X87.567 Y83.521 E0.15777
G1 X88.661 Y82.953 E0.21926
G1 X88.921 Y82.836 E0.23349
G1 X89.225 Y82.705 E0.25
G1 X104.855 Y76.231 E1.09403
G1 X105.476 Y75.984 E1.12737
G1 X106.361 Y75.675 E1.17414
G1 X106.972 Y75.509 E1.20573
G1 X107.405 Y75.405 E1.22795
G1 X107.776 Y75.323 E1.2469
G1 X107.928 Y75.292 E1.25464
G1 X108.854 Y75.144 E1.30143
G1 X109.789 Y75.075 E1.3482
G1 X110.727 Y75.086 E1.395
G1 X111.661 Y75.178 E1.44182
G1 X112.583 Y75.348 E1.4886
G1 X113.487 Y75.596 E1.53536
G1 X113.985 Y75.769 E1.56167
G1 X114.308 Y75.89 E1.57887
G1 X114.659 Y76.028 E1.59769
G1 X130.069 Y82.411 E2.42984
G1 X130.86 Y82.751 E2.4728
G1 X131.705 Y83.158 E2.51959
G1 X132.268 Y83.481 E2.55197
G1 X132.597 Y83.683 E2.57123
G1 X132.855 Y83.847 E2.58648
G1 X133.025 Y83.958 E2.59661
G1 X133.788 Y84.503 E2.64339
G1 X134.501 Y85.112 E2.69017
G1 X135.16 Y85.779 E2.73695
G1 X135.967 Y86.781 E2.80114
G1 X136.479 Y87.567 E2.84794
G1 X137.069 Y88.71 E2.91211
G1 X137.212 Y89.032 E2.92969
G1 X137.321 Y89.287 E2.94353
G1 X143.763 Y104.838 E3.7833
G1 X144.018 Y105.48 E3.81777
G1 X144.327 Y106.366 E3.86458
G1 X144.491 Y106.972 E3.8959
G1 X144.595 Y107.405 E3.91812
G1 X144.677 Y107.776 E3.93707
G1 X144.708 Y107.928 E3.94481
G1 X144.856 Y108.854 E3.9916
G1 X144.925 Y109.789 E4.03837
G1 X144.914 Y110.727 E4.08517
G1 X144.822 Y111.661 E4.132
G1 X144.652 Y112.583 E4.17877
G1 X144.404 Y113.487 E4.22554
G1 X144.234 Y113.977 E4.25141
G1 X144.12 Y114.282 E4.26766
G1 X143.979 Y114.64 E4.28685
G1 X137.537 Y130.192 E5.12668
G1 X137.243 Y130.873 E5.16368
G1 X136.835 Y131.717 E5.21045
G1 X136.517 Y132.27 E5.24228
G1 X136.318 Y132.594 E5.26125
G1 X136.13 Y132.89 E5.27874
G1 X136.014 Y133.066 E5.28926
G1 X135.465 Y133.827 E5.33607
G1 X134.853 Y134.538 E5.38288
G1 X134.183 Y135.194 E5.42966
G1 X133.459 Y135.79 E5.47644
G1 X132.687 Y136.323 E5.52324
G1 X131.873 Y136.788 E5.57001
G1 X131.381 Y137.027 E5.5973
G1 X131.117 Y137.147 E5.61177
G1 X130.775 Y137.295 E5.63036
G1 X115.162 Y143.763 E6.47349
G1 X114.52 Y144.018 E6.50796
G1 X113.634 Y144.327 E6.55477
G1 X113.016 Y144.494 E6.58671
G1 X112.585 Y144.597 E6.60882
G1 X112.266 Y144.668 E6.62512
G1 X112.112 Y144.7 E6.63297
G1 X111.186 Y144.851 E6.67978
G1 X110.251 Y144.924 E6.72657
G1 X109.313 Y144.916 E6.77337
G1 X108.38 Y144.828 E6.82012
G1 X107.457 Y144.661 E6.86692
G1 X106.551 Y144.416 E6.91374
G1 X105.992 Y144.222 E6.94326
G1 X105.65 Y144.093 E6.9615
G1 X105.323 Y143.964 E6.97903
G1 X89.786 Y137.527 E7.81807
G1 X89.132 Y137.245 E7.8536
G1 X88.287 Y136.837 E7.90042
G1 X87.739 Y136.523 E7.93193
G1 X87.411 Y136.322 E7.95112
G1 X87.082 Y136.112 E7.97059
G1 X86.91 Y135.998 E7.98089
G1 X86.151 Y135.447 E8.02768
G1 X85.442 Y134.833 E8.07447
G1 X84.787 Y134.161 E8.12129
G1 X84.193 Y133.436 E8.16805
G1 X83.662 Y132.663 E8.21484
G1 X83.199 Y131.848 E8.2616
G1 X82.973 Y131.381 E8.28748
G1 X82.853 Y131.117 E8.30195
G1 X82.705 Y130.775 E8.32054
G1 X76.236 Y115.159 E9.16383
G1 X75.98 Y114.514 E9.19845
G1 X75.671 Y113.628 E9.24527
G1 X75.507 Y113.018 E9.27678
G1 X75.404 Y112.588 E9.29884
G1 X75.312 Y112.17 E9.32019
G1 X75.281 Y112.014 E9.32813
G1 X75.138 Y111.087 E9.37492
G1 X75.074 Y110.151 E9.42173
G1 X75.09 Y109.214 E9.46848
G1 X75.185 Y108.281 E9.51527
G1 X75.36 Y107.359 E9.56209
G1 X75.613 Y106.456 E9.60888
G1 X75.786 Y105.966 E9.6348
G1 X75.909 Y105.642 E9.65209
G1 X76.03 Y105.337 E9.66846
G1 X82.414 Y89.924 E10.50077
G1 X82.758 Y89.126 E10.54412
G1 X83.166 Y88.281 E10.59094
G1 X83.477 Y87.739 E10.62211
G1 X83.678 Y87.411 E10.64131
G1 X83.847 Y87.145 E10.65703
G1 X83.958 Y86.975 E10.66716
G1 X84.503 Y86.212 E10.71394
G1 X85.112 Y85.499 E10.76072
G0 F6000 X85.428 Y85.747
G1 F1200 X86.086 Y85.102 E10.80669
G1 X87.014 Y84.358 E10.86603
G1 X87.786 Y83.856 E10.91197
G1 X88.825 Y83.318 E10.97034
G1 X89.085 Y83.201 E10.98457
G1 X89.378 Y83.074 E11.0005
G1 X104.863 Y76.659 E11.83672
G1 X105.623 Y76.356 E11.87754
G1 X106.493 Y76.053 E11.9235
G1 X107.065 Y75.898 E11.95307
G1 X107.498 Y75.794 E11.97528
G1 X107.856 Y75.715 E11.99357
G1 X108.008 Y75.684 E12.00131
G1 X108.917 Y75.539 E12.04724
G1 X109.835 Y75.474 E12.09315
G1 X110.756 Y75.489 E12.13911
G1 X111.672 Y75.583 E12.18504
G1 X112.576 Y75.757 E12.23097
G1 X113.845 Y76.144 E12.29716
G1 X114.168 Y76.265 E12.31437
G1 X114.505 Y76.398 E12.33245
G1 X130.049 Y82.837 E13.17184
G1 X130.702 Y83.118 E13.20731
G1 X131.531 Y83.519 E13.25325
G1 X132.058 Y83.822 E13.28358
G1 X132.387 Y84.024 E13.30284
G1 X132.636 Y84.181 E13.31753
G1 X132.806 Y84.292 E13.32766
G1 X133.555 Y84.829 E13.37364
G1 X134.253 Y85.428 E13.41952
G1 X134.898 Y86.086 E13.46549
G1 X135.642 Y87.014 E13.52483
G1 X136.144 Y87.786 E13.57078
G1 X136.704 Y88.873 E13.63178
G1 X136.847 Y89.195 E13.64936
G1 X136.952 Y89.44 E13.66266
G1 X143.333 Y104.842 E14.4944
G1 X143.646 Y105.628 E14.53661
G1 X143.949 Y106.498 E14.58257
G1 X144.102 Y107.065 E14.61187
G1 X144.206 Y107.498 E14.63409
G1 X144.285 Y107.856 E14.65238
G1 X144.316 Y108.008 E14.66012
G1 X144.461 Y108.917 E14.70604
G1 X144.526 Y109.835 E14.75195
G1 X144.511 Y110.756 E14.79791
G1 X144.417 Y111.672 E14.84385
G1 X144.243 Y112.576 E14.88978
G1 X143.859 Y113.837 E14.95554
G1 X143.745 Y114.142 E14.97179
G1 X143.609 Y114.487 E14.99029
G1 X137.17 Y130.033 E15.82978
G1 X136.876 Y130.714 E15.86678
G1 X136.475 Y131.543 E15.91273
G1 X136.176 Y132.061 E15.94256
G1 X135.977 Y132.385 E15.96153
G1 X135.796 Y132.67 E15.97838
G1 X135.68 Y132.846 E15.98889
G1 X135.14 Y133.592 E16.03484
G1 X134.538 Y134.289 E16.08079
G1 X133.877 Y134.93 E16.12673
G1 X133.164 Y135.512 E16.17264
G1 X132.402 Y136.029 E16.21858
G1 X131.215 Y136.663 E16.28572
G1 X130.951 Y136.783 E16.30019
G1 X130.622 Y136.926 E16.31809
G1 X115.158 Y143.333 E17.15318
G1 X114.372 Y143.646 E17.19539
G1 X113.502 Y143.949 E17.24135
G1 X112.923 Y144.105 E17.27127
G1 X112.492 Y144.208 E17.29338
G1 X112.031 Y144.308 E17.31691
G1 X111.122 Y144.456 E17.36286
G1 X110.204 Y144.525 E17.40879
G1 X109.283 Y144.514 E17.45474
G1 X108.367 Y144.422 E17.50067
G1 X107.462 Y144.252 E17.54661
G1 X106.576 Y144.004 E17.59251
G1 X106.133 Y143.848 E17.61594
G1 X105.791 Y143.719 E17.63418
G1 X105.476 Y143.594 E17.65109
G1 X89.944 Y137.16 E18.48984
G1 X89.29 Y136.878 E18.52537
G1 X88.461 Y136.477 E18.57131
G1 X87.948 Y136.182 E18.60084
G1 X87.62 Y135.981 E18.62003
G1 X87.303 Y135.779 E18.63878
G1 X87.131 Y135.665 E18.64908
G1 X86.386 Y135.123 E18.69504
G1 X85.692 Y134.519 E18.74094
G1 X85.052 Y133.857 E18.78688
G1 X84.472 Y133.142 E18.83281
G1 X83.956 Y132.379 E18.87876
G1 X83.337 Y131.215 E18.94454
G1 X83.217 Y130.951 E18.959
G1 X83.074 Y130.622 E18.9769
G1 X76.667 Y115.158 E19.812
G1 X76.352 Y114.366 E19.85452
G1 X76.049 Y113.497 E19.90044
G1 X75.896 Y112.925 E19.92998
G1 X75.793 Y112.495 E19.95204
G1 X75.704 Y112.092 E19.97263
G1 X75.673 Y111.936 E19.98056
G1 X75.533 Y111.026 E20.0265
G1 X75.473 Y110.107 E20.07244
G1 X75.492 Y109.187 E20.11835
G1 X75.591 Y108.272 E20.16427
G1 X75.769 Y107.368 E20.21024
G1 X76.16 Y106.108 E20.27606
G1 X76.283 Y105.784 E20.29335
G1 X76.4 Y105.49 E20.30913
G1 X82.846 Y89.93 E21.1494
G1 X83.125 Y89.284 E21.18451
G1 X83.526 Y88.456 E21.2304
G1 X83.818 Y87.948 E21.25964
G1 X84.019 Y87.62 E21.27883
G1 X84.181 Y87.364 E21.29394
G1 X84.292 Y87.194 E21.30407
G1 X84.829 Y86.445 E21.35005
G1 X85.428 Y85.747 E21.39594
G0 F6000 X85.744 Y85.995
G1 F1200 X86.391 Y85.365 E21.44099
G1 X87.246 Y84.684 E21.49553
G1 X88.004 Y84.192 E21.54061
G1 X88.989 Y83.682 E21.59595
G1 X89.249 Y83.565 E21.61017
G1 X89.531 Y83.444 E21.62548
G1 X105.15 Y76.974 E22.46893
G1 X105.771 Y76.727 E22.50227
G1 X106.624 Y76.431 E22.54732
G1 X107.159 Y76.287 E22.57496
G1 X107.592 Y76.183 E22.59718
G1 X107.936 Y76.107 E22.61475
G1 X108.088 Y76.076 E22.62249
G1 X108.98 Y75.935 E22.66755
G1 X109.881 Y75.873 E22.7126
G1 X110.784 Y75.891 E22.75766
G1 X111.681 Y75.989 E22.80268
G1 X112.567 Y76.166 E22.84776
G1 X113.704 Y76.518 E22.90714
G1 X114.027 Y76.639 E22.92435
G1 X114.352 Y76.767 E22.94177
G1 X129.762 Y83.15 E23.77392
G1 X130.544 Y83.486 E23.81639
G1 X131.357 Y83.879 E23.86144
G1 X131.849 Y84.163 E23.88978
G1 X132.178 Y84.365 E23.90904
G1 X132.418 Y84.516 E23.92319
G1 X132.588 Y84.627 E23.93332
G1 X133.321 Y85.154 E23.97836
G1 X134.005 Y85.744 E24.02342
G1 X134.635 Y86.391 E24.06848
G1 X135.316 Y87.246 E24.12301
G1 X135.808 Y88.004 E24.16809
G1 X136.338 Y89.035 E24.22593
G1 X136.481 Y89.357 E24.24351
G1 X136.582 Y89.593 E24.25631
G1 X143.02 Y105.134 E25.09555
G1 X143.275 Y105.776 E25.13002
G1 X143.57 Y106.629 E25.17505
G1 X143.713 Y107.159 E25.20243
G1 X143.817 Y107.592 E25.22465
G1 X143.893 Y107.936 E25.24223
G1 X143.924 Y108.088 E25.24997
G1 X144.065 Y108.98 E25.29502
G1 X144.127 Y109.881 E25.34008
G1 X144.109 Y110.784 E25.38514
G1 X144.011 Y111.681 E25.43016
G1 X143.834 Y112.567 E25.47523
G1 X143.484 Y113.697 E25.53425
G1 X143.37 Y114.002 E25.55049
G1 X143.24 Y114.334 E25.56828
G1 X136.803 Y129.875 E26.4075
G1 X136.509 Y130.556 E26.44451
G1 X136.114 Y131.368 E26.48956
G1 X135.836 Y131.851 E26.51736
G1 X135.637 Y132.175 E26.53633
G1 X135.462 Y132.45 E26.55259
G1 X135.346 Y132.626 E26.56311
G1 X134.816 Y133.358 E26.6082
G1 X134.223 Y134.039 E26.65325
G1 X133.573 Y134.666 E26.69831
G1 X132.869 Y135.232 E26.74337
G1 X132.119 Y135.734 E26.7884
G1 X131.05 Y136.299 E26.84872
G1 X130.786 Y136.419 E26.86319
G1 X130.469 Y136.556 E26.88042
G1 X114.866 Y143.02 E27.72301
G1 X114.224 Y143.275 E27.75748
G1 X113.371 Y143.57 E27.8025
G1 X112.83 Y143.716 E27.83046
G1 X112.399 Y143.819 E27.85257
G1 X112.103 Y143.885 E27.8677
G1 X111.949 Y143.917 E27.87555
G1 X111.058 Y144.061 E27.92058
G1 X110.157 Y144.126 E27.96564
G1 X109.254 Y144.111 E28.0107
G1 X108.356 Y144.016 E28.05575
G1 X107.47 Y143.843 E28.10079
G1 X106.274 Y143.474 E28.16323
G1 X105.932 Y143.345 E28.18147
G1 X105.629 Y143.225 E28.19773
G1 X90.238 Y136.85 E29.02885
G1 X89.448 Y136.51 E29.07176
G1 X88.636 Y136.116 E29.11679
G1 X88.157 Y135.841 E29.14434
G1 X87.829 Y135.64 E29.16354
G1 X87.524 Y135.445 E29.1816
G1 X87.352 Y135.331 E29.19189
G1 X86.622 Y134.799 E29.23696
G1 X85.942 Y134.205 E29.282
G1 X85.317 Y133.553 E29.32706
G1 X84.752 Y132.848 E29.37214
G1 X84.252 Y132.096 E29.41719
G1 X83.701 Y131.05 E29.47617
G1 X83.581 Y130.786 E29.49064
G1 X83.444 Y130.469 E29.50787
G1 X76.979 Y114.864 E30.35057
G1 X76.723 Y114.219 E30.38519
G1 X76.428 Y113.365 E30.43027
G1 X76.285 Y112.832 E30.4578
G1 X76.182 Y112.402 E30.47986
G1 X76.097 Y112.014 E30.49968
G1 X76.066 Y111.858 E30.50761
G1 X75.929 Y110.965 E30.55269
G1 X75.872 Y110.064 E30.59773
G1 X75.895 Y109.161 E30.64279
G1 X75.997 Y108.264 E30.68783
G1 X76.179 Y107.379 E30.73291
G1 X76.534 Y106.25 E30.79196
G1 X76.657 Y105.926 E30.80925
G1 X76.769 Y105.643 E30.82443
G1 X83.153 Y90.23 E31.65674
G1 X83.492 Y89.443 E31.69949
G1 X83.886 Y88.63 E31.74456
G1 X84.159 Y88.157 E31.77181
G1 X84.36 Y87.829 E31.791
G1 X84.516 Y87.582 E31.80558
G1 X84.627 Y87.412 E31.81571
G1 X85.154 Y86.679 E31.86075
G1 X85.744 Y85.995 E31.90581
G1 F1500 E25.40581
;MESH:Low-poly_Rose_Vase.stl
G0 F6000 X92.315 Y93.072
G0 X93.229 Y93.655
G0 X87.709 Y110.002
G0 X94.238 Y125.762
G0 X110.002 Y132.478
;TYPE:WALL-INNER
G1 F1500 E31.90581
G1 F1200 X94.105 Y125.895 E32.76423
G1 X87.522 Y110.002 E33.62246
G1 X94.105 Y94.105 E34.48088
G1 X109.998 Y87.522 E35.33911
G1 X125.895 Y94.105 E36.19753
G1 X132.478 Y109.998 E37.05576
G1 X125.895 Y125.895 E37.91418
G1 X110.002 Y132.478 E38.77241
G0 F6000 X109.964 Y132.896
G1 F1200 X93.919 Y126.251 E39.63883
G1 X93.784 Y126.165 E39.64682
G1 X87.139 Y110.125 E40.51301
G1 X87.104 Y109.964 E40.52123
G1 X93.749 Y93.919 E41.38765
G1 X93.835 Y93.784 E41.39563
G1 X109.875 Y87.139 E42.26183
G1 X110.036 Y87.104 E42.27005
G1 X126.081 Y93.749 E43.13647
G1 X126.216 Y93.835 E43.14445
G1 X132.861 Y109.875 E44.01065
G1 X132.896 Y110.036 E44.01887
G1 X126.251 Y126.081 E44.88529
G1 X126.165 Y126.216 E44.89327
G1 X110.125 Y132.861 E45.75947
G1 X109.964 Y132.896 E45.76769
G0 F6000 X109.927 Y133.314
G1 F1200 X93.737 Y126.609 E46.64194
G1 X93.462 Y126.434 E46.6582
G1 X86.756 Y110.246 E47.53238
G1 X86.686 Y109.927 E47.54867
G1 X93.391 Y93.737 E48.42292
G1 X93.566 Y93.462 E48.43918
G1 X109.754 Y86.756 E49.31336
G1 X110.073 Y86.686 E49.32966
G1 X126.263 Y93.391 E50.20391
G1 X126.538 Y93.566 E50.22017
G1 X133.244 Y109.754 E51.09435
G1 X133.314 Y110.073 E51.11064
G1 X126.609 Y126.263 E51.98489
G1 X126.434 Y126.538 E52.00115
G1 X110.246 Y133.244 E52.87533
G1 X109.927 Y133.314 E52.89163
G0 F6000 X109.89 Y133.732
;TYPE:WALL-OUTER
G1 F1200 X93.555 Y126.967 E53.77371
G1 X93.14 Y126.703 E53.79824
G1 X86.373 Y110.367 E54.68041
G1 X86.268 Y109.89 E54.70478
G1 X93.033 Y93.555 E55.58686
G1 X93.297 Y93.14 E55.61139
G1 X109.633 Y86.373 E56.49356
G1 X110.11 Y86.268 E56.51793
G1 X126.445 Y93.033 E57.40001
G1 X126.86 Y93.297 E57.42454
G1 X133.627 Y109.633 E58.30671
G1 X133.732 Y110.11 E58.33108
G1 X126.967 Y126.445 E59.21316
G1 X126.703 Y126.86 E59.23769
G1 X110.367 Y133.627 E60.11986
G1 X109.89 Y133.732 E60.14423
G0 F6000 X109.928 Y133.294
G0 X109.894 Y132.314
G0 X110.002 Y132.055
;TYPE:SKIN
G1 F1200 X94.404 Y125.596 E60.98649
G1 X87.945 Y110.002 E61.82858
G1 X94.404 Y94.404 E62.67085
G1 X109.998 Y87.945 E63.51293
G1 X125.596 Y94.404 E64.3552
G1 X132.055 Y109.998 E65.19728
G1 X125.596 Y125.596 E66.03955
G1 X110.002 Y132.055 E66.88163
G0 F6000 X109.894 Y132.314
G0 X95.039 Y126.162
G0 X95.208 Y125.755
G1 F1200 X94.242 Y124.789 E66.94979
G0 F6000 X93.836 Y124.956
G0 X93.436 Y123.991
G0 X93.842 Y123.824
G1 F1200 X96.174 Y126.155 E67.11429
G0 F6000 X96.005 Y126.562
G0 X96.97 Y126.961
G0 X97.139 Y126.555
G1 F1200 X93.443 Y122.859 E67.37506
G0 F6000 X93.036 Y123.027
G0 X92.636 Y122.061
G0 X93.043 Y121.893
G1 F1200 X98.104 Y126.954 E67.73214
G0 F6000 X97.935 Y127.361
G0 X98.9 Y127.761
G0 X99.069 Y127.354
G1 F1200 X92.643 Y120.927 E68.18556
G0 F6000 X92.236 Y121.095
G0 X91.836 Y120.13
G0 X92.243 Y119.962
G1 F1200 X100.035 Y127.753 E68.7353
G0 F6000 X99.866 Y128.161
G0 X100.831 Y128.56
G0 X101 Y128.153
G1 F1200 X91.843 Y118.996 E69.38137
G0 F6000 X91.436 Y119.164
G0 X91.036 Y118.198
G0 X91.443 Y118.03
G1 F1200 X101.966 Y128.553 E70.12383
G0 F6000 X101.797 Y128.96
G0 X102.761 Y129.36
G0 X102.931 Y128.952
G1 F1200 X91.044 Y117.065 E70.96252
G0 F6000 X90.636 Y117.233
G0 X90.237 Y116.268
G0 X90.644 Y116.1
G1 F1200 X103.896 Y129.352 E71.89752
G0 F6000 X103.727 Y129.76
G0 X104.691 Y130.159
G0 X104.861 Y129.751
G1 F1200 X90.244 Y115.134 E72.92883
G0 F6000 X89.836 Y115.302
G0 X89.437 Y114.337
G0 X89.844 Y114.169
G1 F1200 X105.827 Y130.151 E74.05648
G0 F6000 X105.657 Y130.559
G0 X106.622 Y130.959
G0 X106.792 Y130.551
G1 F1200 X89.444 Y113.203 E75.28047
G0 F6000 X89.037 Y113.371
G0 X88.637 Y112.406
G0 X89.045 Y112.238
G1 F1200 X107.757 Y130.95 E76.60071
G0 F6000 X107.587 Y131.358
G0 X108.553 Y131.758
G0 X108.723 Y131.35
G1 F1200 X88.645 Y111.272 E78.01732
G0 F6000 X88.237 Y111.44
G0 X87.837 Y110.475
G0 X88.245 Y110.307
G1 F1200 X109.688 Y131.75 E79.53024
G0 F6000 X110.271 Y131.767
G1 F1200 X88.231 Y109.727 E81.08528
G0 F6000 X88.397 Y109.327
G1 F1200 X110.672 Y131.602 E82.6569
G0 F6000 X111.072 Y131.437
G1 F1200 X88.563 Y108.927 E84.24507
