;FLAVOR:Marlin
;TIME:40360
;Filament used: 32.4126m
;Layer height: 0.2
;MINX:65.328
;MINY:65.328
;MINZ:0.3
;MAXX:154.672
;MAXY:154.672
;MAXZ:179.9
;Generated with Cura_SteamEngine 4.11.0
M140 S65
M105
M190 S65
M104 S205
M105
M109 S205
M82 ;absolute extrusion mode
; Ender 3 Custom Start G-code
G92 E0 ; Reset Extruder
G28 ; Home all axes
M420 S1 Z2; enable ABL using saved mesh
G1 Z2.0 F3000 ; Move Z Axis up little to prevent scratching of Heat Bed
G1 X0.1 Y20 Z0.3 F5000.0 ; Move to start position
G1 X0.1 Y200.0 Z0.3 F1500.0 E15 ; Draw the first line
G1 X0.4 Y200.0 Z0.3 F5000.0 ; Move to side a little
G1 X0.4 Y20 Z0.3 F1500.0 E30 ; Draw the second line
G92 E0 ; Reset Extruder
G1 Z2.0 F3000 ; Move Z Axis up little to prevent scratching of Heat Bed
G1 X5 Y20 Z0.3 F5000.0 ; Move over to prevent blob squish
G92 E0
G92 E0
G1 F1500 E-6.5
;LAYER_COUNT:900
;LAYER:0
M107
G0 F6000 X83.002 Y83.389 Z0.3
;TYPE:SKIRT
G1 F1500 E0
G1 F1200 X83.669 Y82.73 E0.04678
G1 X84.671 Y81.923 E0.11097
G1 X85.457 Y81.411 E0.15777
G1 X86.551 Y80.843 E0.21926
G1 X86.811 Y80.726 E0.23349
G1 X87.115 Y80.594 E0.25002
G1 X104.684 Y73.316 E1.19878
G1 X105.46 Y73.006 E1.24046
G1 X106.345 Y72.695 E1.28726
G1 X106.977 Y72.524 E1.31993
G1 X107.411 Y72.42 E1.34219
G1 X107.776 Y72.339 E1.36085
G1 X107.928 Y72.308 E1.36859
G1 X108.854 Y72.16 E1.41537
G1 X109.789 Y72.091 E1.46215
G1 X110.727 Y72.102 E1.50895
G1 X111.661 Y72.194 E1.55577
G1 X112.583 Y72.364 E1.60254
G1 X113.487 Y72.612 E1.64931
G1 X113.985 Y72.785 E1.67561
G1 X114.308 Y72.906 E1.69282
G1 X114.659 Y73.044 E1.71164
G1 X132.179 Y80.301 E2.65773
G1 X132.97 Y80.641 E2.70068
G1 X133.815 Y81.048 E2.74748
G1 X134.378 Y81.371 E2.77986
G1 X134.707 Y81.573 E2.79912
G1 X134.965 Y81.737 E2.81437
G1 X135.135 Y81.848 E2.8245
G1 X135.898 Y82.393 E2.87128
G1 X136.611 Y83.002 E2.91806
G1 X137.27 Y83.669 E2.96484
G1 X138.077 Y84.671 E3.02903
G1 X138.589 Y85.457 E3.07583
G1 X139.17 Y86.579 E3.13886
G1 X139.308 Y86.888 E3.15575
G1 X139.427 Y87.164 E3.17074
G1 X146.684 Y104.684 E4.11684
G1 X146.994 Y105.46 E4.15852
G1 X147.305 Y106.345 E4.20532
G1 X147.476 Y106.977 E4.23799
G1 X147.58 Y107.411 E4.26025
G1 X147.661 Y107.776 E4.27891
G1 X147.692 Y107.928 E4.28665
G1 X147.84 Y108.854 E4.33343
G1 X147.909 Y109.789 E4.38021
G1 X147.898 Y110.727 E4.42701
G1 X147.806 Y111.661 E4.47383
G1 X147.636 Y112.583 E4.5206
G1 X147.388 Y113.487 E4.56737
G1 X147.218 Y113.977 E4.59325
G1 X147.104 Y114.282 E4.60949
G1 X146.963 Y114.64 E4.62869
G1 X139.647 Y132.302 E5.58245
G1 X139.353 Y132.983 E5.61946
G1 X138.945 Y133.827 E5.66623
G1 X138.627 Y134.38 E5.69805
G1 X138.428 Y134.704 E5.71702
G1 X138.271 Y134.953 E5.73171
G1 X138.155 Y135.131 E5.74231
G1 X137.61 Y135.894 E5.78909
G1 X137.002 Y136.608 E5.83587
G1 X136.335 Y137.268 E5.88269
G1 X135.614 Y137.868 E5.92949
G1 X134.845 Y138.405 E5.97628
G1 X134.033 Y138.874 E6.02306
G1 X133.428 Y139.167 E6.0566
G1 X133.164 Y139.285 E6.07103
G1 X132.885 Y139.406 E6.0862
G1 X115.18 Y146.739 E7.04227
G1 X114.533 Y146.997 E7.07702
G1 X113.648 Y147.307 E7.1238
G1 X113.016 Y147.478 E7.15647
G1 X112.585 Y147.581 E7.17858
G1 X112.266 Y147.652 E7.19488
G1 X112.112 Y147.684 E7.20273
G1 X111.186 Y147.835 E7.24954
G1 X110.251 Y147.908 E7.29632
G1 X109.313 Y147.9 E7.34312
G1 X108.38 Y147.812 E7.38988
G1 X107.457 Y147.645 E7.43667
G1 X106.551 Y147.4 E7.4835
G1 X105.992 Y147.206 E7.51302
G1 X105.65 Y147.077 E7.53125
G1 X105.323 Y146.948 E7.54879
G1 X87.676 Y139.637 E8.50177
G1 X87.022 Y139.355 E8.5373
G1 X86.177 Y138.947 E8.58412
G1 X85.629 Y138.633 E8.61563
G1 X85.301 Y138.432 E8.63482
G1 X85.035 Y138.263 E8.65054
G1 X84.865 Y138.152 E8.66067
G1 X84.102 Y137.607 E8.70745
G1 X83.389 Y136.998 E8.75423
G1 X82.73 Y136.331 E8.80101
G1 X81.923 Y135.329 E8.8652
G1 X81.411 Y134.543 E8.912
G1 X80.843 Y133.449 E8.97349
G1 X80.726 Y133.189 E8.98772
G1 X80.594 Y132.885 E9.00425
G1 X73.316 Y115.316 E9.95301
G1 X73.004 Y114.534 E9.99501
G1 X72.693 Y113.649 E10.04181
G1 X72.521 Y113.014 E10.07463
G1 X72.418 Y112.583 E10.09674
G1 X72.328 Y112.17 E10.11783
G1 X72.297 Y112.014 E10.12576
G1 X72.154 Y111.087 E10.17256
G1 X72.09 Y110.151 E10.21936
G1 X72.106 Y109.214 E10.26612
G1 X72.201 Y108.281 E10.31291
G1 X72.376 Y107.359 E10.35973
G1 X72.629 Y106.456 E10.40651
G1 X72.802 Y105.966 E10.43244
G1 X72.925 Y105.642 E10.44973
G1 X73.046 Y105.337 E10.4661
G1 X80.304 Y87.814 E11.41235
G1 X80.648 Y87.016 E11.4557
G1 X81.056 Y86.171 E11.50252
G1 X81.367 Y85.629 E11.53369
G1 X81.568 Y85.301 E11.55288
G1 X81.737 Y85.035 E11.56861
G1 X81.848 Y84.865 E11.57874
G1 X82.393 Y84.102 E11.62552
G1 X83.002 Y83.389 E11.6723
G0 F6000 X83.318 Y83.637
G1 F1200 X83.976 Y82.992 E11.71827
G1 X84.904 Y82.248 E11.77761
G1 X85.676 Y81.746 E11.82355
G1 X86.715 Y81.208 E11.88192
G1 X86.975 Y81.091 E11.89615
G1 X87.268 Y80.964 E11.91208
G1 X104.963 Y73.635 E12.86761
G1 X105.609 Y73.377 E12.90232
G1 X106.478 Y73.073 E12.94825
G1 X107.07 Y72.913 E12.97884
G1 X107.504 Y72.809 E13.00111
G1 X107.856 Y72.731 E13.01909
G1 X108.008 Y72.7 E13.02683
G1 X108.917 Y72.555 E13.07276
G1 X109.835 Y72.49 E13.11867
G1 X110.756 Y72.505 E13.16463
G1 X111.672 Y72.599 E13.21057
G1 X112.576 Y72.773 E13.25649
G1 X113.845 Y73.16 E13.32268
G1 X114.168 Y73.281 E13.33989
G1 X114.505 Y73.414 E13.35797
G1 X132.159 Y80.727 E14.31131
G1 X132.812 Y81.008 E14.34677
G1 X133.641 Y81.409 E14.39272
G1 X134.168 Y81.712 E14.42304
G1 X134.497 Y81.914 E14.4423
G1 X134.746 Y82.071 E14.45699
G1 X134.916 Y82.182 E14.46712
G1 X135.665 Y82.719 E14.5131
G1 X136.363 Y83.318 E14.55899
G1 X137.008 Y83.976 E14.60496
G1 X137.752 Y84.904 E14.6643
G1 X138.254 Y85.676 E14.71024
G1 X138.805 Y86.743 E14.77015
G1 X138.943 Y87.052 E14.78703
G1 X139.057 Y87.318 E14.80147
G1 X146.365 Y104.963 E15.7543
G1 X146.623 Y105.609 E15.789
G1 X146.927 Y106.478 E15.83494
G1 X147.087 Y107.07 E15.86553
G1 X147.191 Y107.504 E15.8878
G1 X147.269 Y107.856 E15.90578
G1 X147.3 Y108.008 E15.91352
G1 X147.445 Y108.917 E15.95945
G1 X147.51 Y109.835 E16.00536
G1 X147.495 Y110.756 E16.05131
G1 X147.401 Y111.672 E16.09725
G1 X147.227 Y112.576 E16.14318
G1 X146.843 Y113.837 E16.20895
G1 X146.729 Y114.142 E16.22519
G1 X146.593 Y114.487 E16.24369
G1 X139.28 Y132.143 E17.19712
G1 X138.986 Y132.824 E17.23413
G1 X138.585 Y133.653 E17.28007
G1 X138.286 Y134.171 E17.30991
G1 X138.087 Y134.495 E17.32888
G1 X137.936 Y134.734 E17.34299
G1 X137.82 Y134.912 E17.35359
G1 X137.284 Y135.661 E17.39954
G1 X136.685 Y136.361 E17.4455
G1 X136.028 Y137.005 E17.4914
G1 X135.318 Y137.591 E17.53733
G1 X134.559 Y138.112 E17.58326
G1 X133.758 Y138.566 E17.62919
G1 X133.264 Y138.802 E17.65651
G1 X133 Y138.92 E17.67093
G1 X132.732 Y139.036 E17.6855
G1 X115.032 Y146.367 E18.6413
G1 X114.385 Y146.625 E18.67606
G1 X113.516 Y146.929 E18.72199
G1 X112.923 Y147.089 E18.75263
G1 X112.492 Y147.192 E18.77474
G1 X112.031 Y147.292 E18.79827
G1 X111.122 Y147.44 E18.84422
G1 X110.204 Y147.509 E18.89015
G1 X109.283 Y147.498 E18.9361
G1 X108.367 Y147.406 E18.98203
G1 X107.462 Y147.236 E19.02797
G1 X106.576 Y146.988 E19.07387
G1 X106.133 Y146.832 E19.0973
G1 X105.791 Y146.703 E19.11554
G1 X105.476 Y146.578 E19.13245
G1 X87.834 Y139.27 E20.08514
G1 X87.18 Y138.988 E20.12067
G1 X86.351 Y138.587 E20.16661
G1 X85.838 Y138.292 E20.19614
G1 X85.51 Y138.091 E20.21533
G1 X85.254 Y137.929 E20.23044
G1 X85.084 Y137.818 E20.24057
G1 X84.335 Y137.281 E20.28655
G1 X83.637 Y136.682 E20.33244
G1 X82.992 Y136.024 E20.37841
G1 X82.248 Y135.096 E20.43775
G1 X81.746 Y134.324 E20.48369
G1 X81.208 Y133.285 E20.54206
G1 X81.091 Y133.025 E20.55629
G1 X80.964 Y132.732 E20.57222
G1 X73.634 Y115.035 E21.52786
G1 X73.375 Y114.386 E21.56273
G1 X73.071 Y113.517 E21.60866
G1 X72.91 Y112.921 E21.63946
G1 X72.807 Y112.49 E21.66157
G1 X72.72 Y112.092 E21.68189
G1 X72.689 Y111.936 E21.68983
G1 X72.549 Y111.026 E21.73576
G1 X72.489 Y110.107 E21.78171
G1 X72.508 Y109.187 E21.82762
G1 X72.607 Y108.272 E21.87353
G1 X72.785 Y107.368 E21.9195
G1 X73.176 Y106.108 E21.98532
G1 X73.299 Y105.784 E22.00261
G1 X73.416 Y105.49 E22.01839
G1 X80.736 Y87.82 E22.9726
G1 X81.015 Y87.174 E23.00771
G1 X81.416 Y86.346 E23.05361
G1 X81.708 Y85.838 E23.08284
G1 X81.909 Y85.51 E23.10203
G1 X82.071 Y85.254 E23.11715
G1 X82.182 Y85.084 E23.12728
G1 X82.719 Y84.335 E23.17326
G1 X83.318 Y83.637 E23.21914
G0 F6000 X83.634 Y83.885
G1 F1200 X84.281 Y83.255 E23.2642
G1 X85.136 Y82.574 E23.31873
G1 X85.894 Y82.082 E23.36382
G1 X86.879 Y81.572 E23.41915
G1 X87.139 Y81.455 E23.43338
G1 X87.421 Y81.334 E23.44869
G1 X105.111 Y74.007 E24.40395
G1 X105.757 Y73.749 E24.43866
G1 X106.61 Y73.451 E24.48374
G1 X107.163 Y73.302 E24.51231
G1 X107.597 Y73.198 E24.53457
G1 X107.936 Y73.123 E24.5519
G1 X108.088 Y73.092 E24.55964
G1 X108.98 Y72.951 E24.60469
G1 X109.881 Y72.889 E24.64975
G1 X110.784 Y72.907 E24.69481
G1 X111.681 Y73.005 E24.73983
G1 X112.567 Y73.182 E24.7849
G1 X113.704 Y73.534 E24.84428
G1 X114.027 Y73.655 E24.86149
G1 X114.352 Y73.783 E24.87892
G1 X131.872 Y81.04 E25.82501
G1 X132.654 Y81.376 E25.86747
G1 X133.467 Y81.769 E25.91252
G1 X133.959 Y82.053 E25.94087
G1 X134.288 Y82.255 E25.96013
G1 X134.528 Y82.406 E25.97427
G1 X134.698 Y82.517 E25.9844
G1 X135.431 Y83.044 E26.02944
G1 X136.115 Y83.634 E26.07451
G1 X136.745 Y84.281 E26.11956
G1 X137.426 Y85.136 E26.1741
G1 X137.918 Y85.894 E26.21918
G1 X138.439 Y86.906 E26.27597
G1 X138.577 Y87.215 E26.29285
G1 X138.688 Y87.471 E26.30677
G1 X145.945 Y104.991 E27.25286
G1 X146.251 Y105.757 E27.29402
G1 X146.549 Y106.61 E27.3391
G1 X146.698 Y107.163 E27.36767
G1 X146.802 Y107.597 E27.38993
G1 X146.877 Y107.936 E27.40726
G1 X146.908 Y108.088 E27.41499
G1 X147.049 Y108.98 E27.46005
G1 X147.111 Y109.881 E27.50511
G1 X147.093 Y110.784 E27.55017
G1 X146.995 Y111.681 E27.59518
G1 X146.818 Y112.567 E27.64026
G1 X146.468 Y113.697 E27.69928
G1 X146.354 Y114.002 E27.71552
G1 X146.224 Y114.334 E27.73331
G1 X138.913 Y131.985 E28.68647
G1 X138.619 Y132.666 E28.72348
G1 X138.224 Y133.478 E28.76853
G1 X137.946 Y133.961 E28.79633
G1 X137.747 Y134.285 E28.8153
G1 X137.601 Y134.516 E28.82894
G1 X137.485 Y134.694 E28.83954
G1 X136.958 Y135.428 E28.88462
G1 X136.369 Y136.113 E28.92969
G1 X135.722 Y136.743 E28.97474
G1 X135.022 Y137.313 E29.01978
G1 X134.274 Y137.819 E29.06483
G1 X133.101 Y138.437 E29.13098
G1 X132.837 Y138.555 E29.14541
G1 X132.579 Y138.666 E29.15942
G1 X114.884 Y145.995 E30.11495
G1 X114.237 Y146.253 E30.1497
G1 X113.384 Y146.551 E30.19478
G1 X112.83 Y146.7 E30.2234
G1 X112.399 Y146.803 E30.24551
G1 X112.103 Y146.869 E30.26064
G1 X111.949 Y146.901 E30.26849
G1 X111.058 Y147.045 E30.31352
G1 X110.157 Y147.11 E30.35859
G1 X109.254 Y147.095 E30.40364
G1 X108.356 Y147 E30.44869
G1 X107.47 Y146.827 E30.49373
G1 X106.274 Y146.458 E30.55618
G1 X105.932 Y146.329 E30.57441
G1 X105.629 Y146.209 E30.59067
G1 X88.128 Y138.96 E31.53573
G1 X87.338 Y138.62 E31.57864
G1 X86.526 Y138.226 E31.62367
G1 X86.047 Y137.951 E31.65123
G1 X85.719 Y137.75 E31.67042
G1 X85.472 Y137.594 E31.68499
G1 X85.302 Y137.483 E31.69512
G1 X84.569 Y136.956 E31.74016
G1 X83.885 Y136.366 E31.78523
G1 X83.255 Y135.719 E31.83028
G1 X82.574 Y134.864 E31.88482
G1 X82.082 Y134.106 E31.9299
G1 X81.572 Y133.121 E31.98524
G1 X81.455 Y132.861 E31.99946
G1 X81.334 Y132.579 E32.01477
G1 X74.006 Y114.887 E32.97015
G1 X73.747 Y114.238 E33.00501
G1 X73.449 Y113.385 E33.05009
G1 X73.299 Y112.828 E33.07887
G1 X73.196 Y112.397 E33.10098
G1 X73.113 Y112.014 E33.12053
G1 X73.082 Y111.858 E33.12846
G1 X72.945 Y110.965 E33.17354
G1 X72.888 Y110.064 E33.21858
G1 X72.911 Y109.161 E33.26364
G1 X73.013 Y108.264 E33.30868
G1 X73.195 Y107.379 E33.35376
G1 X73.55 Y106.25 E33.4128
G1 X73.673 Y105.926 E33.43009
G1 X73.785 Y105.643 E33.44528
G1 X81.043 Y88.12 E34.39153
G1 X81.382 Y87.333 E34.43428
G1 X81.776 Y86.52 E34.47935
G1 X82.049 Y86.047 E34.5066
G1 X82.25 Y85.719 E34.52579
G1 X82.406 Y85.472 E34.54037
G1 X82.517 Y85.302 E34.5505
G1 X83.044 Y84.569 E34.59554
G1 X83.634 Y83.885 E34.6406
G1 F1500 E28.1406
;MESH:Low-poly_Rose_Vase.stl
G0 F6000 X90.205 Y90.962
G0 X91.119 Y91.545
G0 X85.591 Y110.002
G0 X92.74 Y127.26
G0 X110.002 Y134.596
;TYPE:WALL-INNER
G1 F1500 E34.6406
G1 F1200 X92.607 Y127.393 E35.5799
G1 X85.404 Y110.002 E36.51902
G1 X92.607 Y92.607 E37.45832
G1 X109.998 Y85.404 E38.39744
G1 X127.393 Y92.607 E39.33674
G1 X134.596 Y109.998 E40.27585
G1 X127.393 Y127.393 E41.21515
G1 X110.002 Y134.596 E42.15427
G0 F6000 X110.002 Y135.029
G1 F1200 X92.301 Y127.699 E43.1101
G1 X84.971 Y110.002 E44.06574
G1 X92.301 Y92.301 E45.02157
G1 X109.998 Y84.971 E45.97722
G1 X127.699 Y92.301 E46.93305
G1 X135.029 Y109.998 E47.88869
G1 X127.699 Y127.699 E48.84452
G1 X110.002 Y135.029 E49.80017
G0 F6000 X110.002 Y135.462
G1 F1200 X91.995 Y128.005 E50.77253
G1 X84.538 Y110.002 E51.7447
G1 X91.995 Y91.995 E52.71706
G1 X109.998 Y84.538 E53.68923
G1 X128.005 Y91.995 E54.66159
G1 X135.462 Y109.998 E55.63376
G1 X128.005 Y128.005 E56.60612
G1 X110.002 Y135.462 E57.5783
G0 F6000 X109.964 Y135.88
G1 F1200 X91.809 Y128.361 E58.55866
G1 X91.674 Y128.275 E58.56665
G1 X84.155 Y110.125 E59.54678
G1 X84.12 Y109.964 E59.555
G1 X91.639 Y91.809 E60.53536
G1 X91.725 Y91.674 E60.54335
G1 X109.875 Y84.155 E61.52348
G1 X110.036 Y84.12 E61.5317
G1 X128.191 Y91.639 E62.51207
G1 X128.326 Y91.725 E62.52005
G1 X135.845 Y109.875 E63.50019
G1 X135.88 Y110.036 E63.50841
G1 X128.361 Y128.191 E64.48877
G1 X128.275 Y128.326 E64.49676
G1 X110.125 Y135.845 E65.47689
G1 X109.964 Y135.88 E65.48511
G0 F6000 X109.927 Y136.298
G1 F1200 X91.627 Y128.719 E66.4733
G1 X91.352 Y128.544 E66.48956
G1 X83.772 Y110.246 E67.47768
G1 X83.702 Y109.927 E67.49398
G1 X91.281 Y91.627 E68.48217
G1 X91.456 Y91.352 E68.49843
G1 X109.754 Y83.772 E69.48655
G1 X110.073 Y83.702 E69.50285
G1 X128.373 Y91.281 E70.49104
G1 X128.648 Y91.456 E70.5073
G1 X136.228 Y109.754 E71.49542
G1 X136.298 Y110.073 E71.51171
G1 X128.719 Y128.373 E72.49991
G1 X128.544 Y128.648 E72.51617
G1 X110.246 Y136.228 E73.50429
G1 X109.927 Y136.298 E73.52058
G0 F6000 X109.89 Y136.716
;TYPE:WALL-OUTER
G1 F1200 X91.445 Y129.077 E74.51661
G1 X91.03 Y128.813 E74.54114
G1 X83.389 Y110.367 E75.53725
G1 X83.284 Y109.89 E75.56162
G1 X90.923 Y91.445 E76.55764
G1 X91.187 Y91.03 E76.58218
G1 X109.633 Y83.389 E77.57828
G1 X110.11 Y83.284 E77.60265
G1 X128.555 Y90.923 E78.59867
G1 X128.97 Y91.187 E78.62321
G1 X136.611 Y109.633 E79.61932
G1 X136.716 Y110.11 E79.64369
G1 X129.077 Y128.555 E80.63971
G1 X128.813 Y128.97 E80.66425
G1 X110.367 Y136.611 E81.66035
G1 X109.89 Y136.716 E81.68472
G0 F6000 X109.928 Y136.278
G0 X109.894 Y134.432
G0 X110.002 Y134.173
;TYPE:SKIN
G1 F1200 X92.906 Y127.094 E82.60787
G1 X85.827 Y110.002 E83.53084
G1 X92.906 Y92.906 E84.45399
G1 X109.998 Y85.827 E85.37696
G1 X127.094 Y92.906 E86.30011
G1 X134.173 Y109.998 E87.22307
G1 X127.094 Y127.094 E88.14623
G1 X110.002 Y134.173 E89.06919
G0 F6000 X109.894 Y134.432
G0 X93.828 Y127.778
G0 X93.997 Y127.372
G1 F1200 X92.625 Y126 E89.16599
G0 F6000 X92.219 Y126.167
G0 X91.819 Y125.202
G0 X92.225 Y125.035
G1 F1200 X94.962 Y127.772 E89.3591
G0 F6000 X94.793 Y128.178
G0 X95.759 Y128.578
G0 X95.928 Y128.172
G1 F1200 X91.826 Y124.07 E89.64852
G0 F6000 X91.42 Y124.238
G0 X91.019 Y123.272
G0 X91.426 Y123.104
G1 F1200 X96.893 Y128.571 E90.03425
G0 F6000 X96.724 Y128.978
G0 X97.689 Y129.377
G0 X97.858 Y128.971
G1 F1200 X91.026 Y122.139 E90.51628
G0 F6000 X90.62 Y122.306
G0 X90.22 Y121.342
G0 X90.627 Y121.174
G1 F1200 X98.823 Y129.37 E91.09456
G0 F6000 X98.654 Y129.777
G0 X99.62 Y130.177
G0 X99.789 Y129.77
G1 F1200 X90.226 Y120.208 E91.76924
G0 F6000 X89.82 Y120.375
G0 X89.42 Y119.41
G0 X89.827 Y119.242
G1 F1200 X100.754 Y130.169 E92.5402
G0 F6000 X100.585 Y130.576
G0 X101.55 Y130.976
G0 X101.719 Y130.569
G1 F1200 X89.427 Y118.277 E93.40747
G0 F6000 X89.02 Y118.445
G0 X88.62 Y117.479
G0 X89.027 Y117.311
G1 F1200 X102.684 Y130.968 E94.37104
G0 F6000 X102.515 Y131.376
G0 X103.48 Y131.775
G0 X103.649 Y131.368
G1 F1200 X88.628 Y116.346 E95.43089
G0 F6000 X88.22 Y116.514
G0 X87.821 Y115.549
G0 X88.228 Y115.381
G1 F1200 X104.615 Y131.767 E96.58705
G0 F6000 X104.445 Y132.175
G0 X105.41 Y132.575
G0 X105.58 Y132.167
