;FLAVOR:Marlin
;TIME:15019
;Filament used: 11.9625m
;Layer height: 0.2
;MINX:80.258
;MINY:80.258
;MINZ:0.3
;MAXX:139.742
;MAXY:139.742
;MAXZ:120.1
;Generated with Cura_SteamEngine 4.11.0
M140 S65
M105
M190 S65
M104 S205
M105
M109 S205
M82 ;absolute extrusion mode
; Ender 3 Custom Start G-code
G92 E0 ; Reset Extruder
G28 ; Home all axes
M420 S1 Z2; enable ABL using saved mesh
G1 Z2.0 F3000 ; Move Z Axis up little to prevent scratching of Heat Bed
G1 X0.1 Y20 Z0.3 F5000.0 ; Move to start position
G1 X0.1 Y200.0 Z0.3 F1500.0 E15 ; Draw the first line
G1 X0.4 Y200.0 Z0.3 F5000.0 ; Move to side a little
G1 X0.4 Y20 Z0.3 F1500.0 E30 ; Draw the second line
G92 E0 ; Reset Extruder
G1 Z2.0 F3000 ; Move Z Axis up little to prevent scratching of Heat Bed
G1 X5 Y20 Z0.3 F5000.0 ; Move over to prevent blob squish
G92 E0
G92 E0
G1 F1500 E-6.5
;LAYER_COUNT:600
;LAYER:0
M107
G0 F6000 X89.447 Y89.579 Z0.3
;TYPE:SKIRT
G1 F1500 E0
G1 F1200 X90.125 Y88.93 E0.04682
G1 X90.855 Y88.342 E0.09359
G1 X91.633 Y87.818 E0.14039
G1 X92.871 Y87.163 E0.21026
G1 X93.131 Y87.046 E0.22449
G1 X93.435 Y86.914 E0.24102
G1 X104.684 Y82.254 E0.84849
G1 X105.46 Y81.944 E0.89018
G1 X106.345 Y81.633 E0.93698
G1 X106.977 Y81.462 E0.96964
G1 X107.411 Y81.358 E0.99191
G1 X107.776 Y81.277 E1.01056
G1 X107.928 Y81.246 E1.0183
G1 X108.854 Y81.098 E1.06508
G1 X109.789 Y81.029 E1.11186
G1 X110.727 Y81.04 E1.15866
G1 X111.661 Y81.132 E1.20548
G1 X112.583 Y81.302 E1.25225
G1 X113.487 Y81.55 E1.29902
G1 X113.985 Y81.723 E1.32532
G1 X114.308 Y81.844 E1.34253
G1 X114.658 Y81.982 E1.3613
G1 X126.013 Y86.686 E1.97449
G1 X126.651 Y86.961 E2.00915
G1 X127.496 Y87.369 E2.05597
G1 X128.056 Y87.691 E2.08819
G1 X128.414 Y87.911 E2.10916
G1 X128.812 Y88.168 E2.13279
G1 X128.963 Y88.27 E2.14189
G1 X129.717 Y88.827 E2.18865
G1 X130.421 Y89.447 E2.23546
G1 X131.07 Y90.125 E2.28228
G1 X131.658 Y90.855 E2.32904
G1 X132.182 Y91.633 E2.37584
G1 X132.638 Y92.452 E2.42261
G1 X132.854 Y92.909 E2.44783
G1 X132.997 Y93.23 E2.46536
G1 X133.112 Y93.497 E2.47986
G1 X137.798 Y104.814 E3.09096
G1 X138.056 Y105.46 E3.12566
G1 X138.367 Y106.345 E3.17246
G1 X138.538 Y106.977 E3.20513
G1 X138.642 Y107.411 E3.22739
G1 X138.723 Y107.776 E3.24604
G1 X138.754 Y107.928 E3.25378
G1 X138.902 Y108.854 E3.30057
G1 X138.971 Y109.789 E3.34734
G1 X138.96 Y110.727 E3.39414
G1 X138.868 Y111.661 E3.44097
G1 X138.698 Y112.583 E3.48774
G1 X138.45 Y113.487 E3.53451
G1 X138.28 Y113.977 E3.56038
G1 X138.166 Y114.282 E3.57663
G1 X138.025 Y114.639 E3.59578
G1 X133.332 Y125.97 E4.20765
G1 X133.042 Y126.644 E4.24426
G1 X132.635 Y127.489 E4.29105
G1 X132.305 Y128.063 E4.32408
G1 X132.084 Y128.422 E4.34511
G1 X131.926 Y128.671 E4.35983
G1 X131.828 Y128.821 E4.36877
G1 X131.282 Y129.584 E4.41558
G1 X130.673 Y130.297 E4.46236
G1 X130.005 Y130.956 E4.50917
G1 X129.284 Y131.556 E4.55597
G1 X128.515 Y132.092 E4.60273
G1 X127.702 Y132.56 E4.64953
G1 X127.108 Y132.847 E4.68245
G1 X126.844 Y132.965 E4.69687
G1 X126.565 Y133.086 E4.71205
G1 X115.18 Y137.801 E5.32683
G1 X114.533 Y138.059 E5.36158
G1 X113.648 Y138.369 E5.40836
G1 X113.016 Y138.54 E5.44103
G1 X112.585 Y138.643 E5.46314
G1 X112.266 Y138.714 E5.47944
G1 X112.112 Y138.746 E5.48729
G1 X111.186 Y138.897 E5.5341
G1 X110.251 Y138.97 E5.58088
G1 X109.313 Y138.962 E5.62768
G1 X108.38 Y138.874 E5.67444
G1 X107.457 Y138.707 E5.72123
G1 X106.551 Y138.462 E5.76806
G1 X106.015 Y138.277 E5.79635
G1 X105.692 Y138.156 E5.81356
G1 X105.342 Y138.018 E5.83233
G1 X93.987 Y133.314 E6.44552
G1 X93.349 Y133.039 E6.48018
G1 X92.504 Y132.631 E6.52699
G1 X91.944 Y132.309 E6.55922
G1 X91.586 Y132.089 E6.58018
G1 X91.243 Y131.87 E6.60048
G1 X91.093 Y131.77 E6.60948
G1 X90.336 Y131.217 E6.65625
G1 X89.628 Y130.601 E6.70307
G1 X88.976 Y129.927 E6.74985
G1 X88.383 Y129.201 E6.79662
G1 X87.854 Y128.426 E6.84344
G1 X87.393 Y127.609 E6.89024
G1 X87.165 Y127.134 E6.91652
G1 X87.047 Y126.872 E6.93086
G1 X86.914 Y126.565 E6.94755
G1 X82.254 Y115.316 E7.55502
G1 X81.942 Y114.534 E7.59702
G1 X81.631 Y113.649 E7.64382
G1 X81.459 Y113.014 E7.67664
G1 X81.356 Y112.583 E7.69875
G1 X81.266 Y112.17 E7.71984
G1 X81.235 Y112.014 E7.72777
G1 X81.092 Y111.087 E7.77457
G1 X81.028 Y110.151 E7.82137
G1 X81.044 Y109.214 E7.86813
G1 X81.139 Y108.281 E7.91492
G1 X81.314 Y107.359 E7.96174
G1 X81.567 Y106.456 E8.00852
G1 X81.739 Y105.969 E8.03429
G1 X81.86 Y105.65 E8.05131
G1 X81.982 Y105.342 E8.06784
G1 X86.701 Y93.951 E8.68297
G1 X86.965 Y93.34 E8.71618
G1 X87.374 Y92.496 E8.76297
G1 X87.691 Y91.944 E8.79473
G1 X87.911 Y91.586 E8.81569
G1 X88.168 Y91.188 E8.83933
G1 X88.27 Y91.037 E8.84842
G1 X88.827 Y90.283 E8.89519
G1 X89.447 Y89.579 E8.94199
G0 F6000 X89.759 Y89.831
G1 F1200 X90.427 Y89.197 E8.98794
G1 X91.147 Y88.624 E9.03385
G1 X91.914 Y88.115 E9.07977
G1 X93.035 Y87.528 E9.1429
G1 X93.295 Y87.411 E9.15713
G1 X93.588 Y87.284 E9.17306
G1 X104.963 Y82.573 E9.7873
G1 X105.609 Y82.315 E9.82201
G1 X106.478 Y82.011 E9.86794
G1 X107.07 Y81.851 E9.89853
G1 X107.504 Y81.747 E9.9208
G1 X107.856 Y81.669 E9.93879
G1 X108.008 Y81.638 E9.94653
G1 X108.917 Y81.493 E9.99245
G1 X109.835 Y81.428 E10.03836
G1 X110.756 Y81.443 E10.08432
G1 X111.672 Y81.537 E10.13026
G1 X112.576 Y81.711 E10.17619
G1 X113.845 Y82.098 E10.24238
G1 X114.168 Y82.219 E10.25958
G1 X114.505 Y82.352 E10.27766
G1 X125.855 Y87.054 E10.89058
G1 X126.493 Y87.329 E10.92524
G1 X127.322 Y87.73 E10.97118
G1 X127.847 Y88.032 E11.0014
G1 X128.205 Y88.252 E11.02237
G1 X128.588 Y88.499 E11.0451
G1 X128.739 Y88.601 E11.05419
G1 X129.479 Y89.149 E11.10013
G1 X130.169 Y89.759 E11.14608
G1 X130.803 Y90.427 E11.19203
G1 X131.376 Y91.147 E11.23794
G1 X131.885 Y91.914 E11.28386
G1 X132.489 Y93.072 E11.34902
G1 X132.632 Y93.393 E11.36655
G1 X132.742 Y93.65 E11.3805
G1 X137.427 Y104.963 E11.99139
G1 X137.685 Y105.609 E12.0261
G1 X137.989 Y106.478 E12.07203
G1 X138.149 Y107.07 E12.10262
G1 X138.253 Y107.504 E12.12489
G1 X138.331 Y107.856 E12.14287
G1 X138.362 Y108.008 E12.15061
G1 X138.507 Y108.917 E12.19654
G1 X138.572 Y109.835 E12.24245
G1 X138.557 Y110.756 E12.28841
G1 X138.463 Y111.672 E12.33434
G1 X138.289 Y112.576 E12.38027
G1 X137.905 Y113.837 E12.44604
G1 X137.791 Y114.142 E12.46228
G1 X137.656 Y114.486 E12.48072
G1 X132.965 Y125.811 E13.09228
G1 X132.675 Y126.485 E13.12888
G1 X132.275 Y127.315 E13.17485
G1 X131.965 Y127.853 E13.20583
G1 X131.744 Y128.212 E13.22686
G1 X131.591 Y128.453 E13.2411
G1 X131.493 Y128.603 E13.25004
G1 X130.956 Y129.351 E13.29598
G1 X130.357 Y130.05 E13.34191
G1 X129.699 Y130.694 E13.38784
G1 X128.988 Y131.278 E13.43375
G1 X128.229 Y131.799 E13.47967
G1 X127.427 Y132.252 E13.52563
G1 X126.944 Y132.482 E13.55232
G1 X126.68 Y132.6 E13.56674
G1 X126.412 Y132.716 E13.58131
G1 X115.032 Y137.429 E14.19583
G1 X114.385 Y137.687 E14.23058
G1 X113.516 Y137.991 E14.27651
G1 X112.923 Y138.151 E14.30715
G1 X112.492 Y138.254 E14.32926
G1 X112.031 Y138.354 E14.35279
G1 X111.122 Y138.502 E14.39874
G1 X110.204 Y138.571 E14.44467
G1 X109.283 Y138.56 E14.49062
G1 X108.367 Y138.468 E14.53655
G1 X107.462 Y138.298 E14.58249
G1 X106.155 Y137.902 E14.65063
G1 X105.832 Y137.781 E14.66783
G1 X105.495 Y137.648 E14.68591
G1 X94.145 Y132.946 E15.29883
G1 X93.507 Y132.671 E15.33349
G1 X92.678 Y132.27 E15.37944
G1 X92.153 Y131.968 E15.40965
G1 X91.795 Y131.748 E15.43062
G1 X91.465 Y131.537 E15.45016
G1 X91.315 Y131.437 E15.45915
G1 X90.572 Y130.893 E15.50509
G1 X89.879 Y130.287 E15.55102
G1 X89.241 Y129.624 E15.59693
G1 X88.663 Y128.907 E15.64287
G1 X88.149 Y128.143 E15.68881
G1 X87.53 Y126.97 E15.75498
G1 X87.412 Y126.708 E15.76932
G1 X87.284 Y126.412 E15.78541
G1 X82.572 Y115.035 E16.39976
G1 X82.313 Y114.386 E16.43463
G1 X82.009 Y113.517 E16.48056
G1 X81.848 Y112.921 E16.51136
G1 X81.745 Y112.49 E16.53347
G1 X81.658 Y112.092 E16.55379
G1 X81.627 Y111.936 E16.56173
G1 X81.487 Y111.026 E16.60766
G1 X81.427 Y110.107 E16.65361
G1 X81.446 Y109.187 E16.69952
G1 X81.545 Y108.272 E16.74543
G1 X81.723 Y107.368 E16.7914
G1 X82.113 Y106.111 E16.85706
G1 X82.234 Y105.792 E16.87408
G1 X82.352 Y105.495 E16.89002
G1 X87.068 Y94.11 E17.50483
G1 X87.332 Y93.499 E17.53803
G1 X87.734 Y92.67 E17.584
G1 X88.032 Y92.153 E17.61377
G1 X88.252 Y91.795 E17.63473
G1 X88.499 Y91.412 E17.65747
G1 X88.601 Y91.261 E17.66656
G1 X89.149 Y90.521 E17.7125
G1 X89.759 Y89.831 E17.75845
G0 F6000 X90.071 Y90.084
G1 F1200 X90.729 Y89.465 E17.80352
G1 X91.438 Y88.907 E17.84853
G1 X92.195 Y88.413 E17.89363
G1 X93.199 Y87.892 E17.95006
G1 X93.459 Y87.775 E17.96429
G1 X93.741 Y87.654 E17.9796
G1 X105.111 Y82.945 E18.59357
G1 X105.757 Y82.687 E18.62828
G1 X106.61 Y82.389 E18.67336
G1 X107.163 Y82.24 E18.70193
G1 X107.597 Y82.136 E18.72419
G1 X107.936 Y82.061 E18.74152
G1 X108.088 Y82.03 E18.74926
G1 X108.98 Y81.889 E18.79431
G1 X109.881 Y81.827 E18.83937
G1 X110.784 Y81.845 E18.88443
G1 X111.681 Y81.943 E18.92945
G1 X112.567 Y82.12 E18.97452
G1 X113.704 Y82.472 E19.0339
G1 X114.027 Y82.593 E19.05111
G1 X114.352 Y82.721 E19.06854
G1 X125.696 Y87.421 E19.68114
G1 X126.334 Y87.696 E19.71581
G1 X127.147 Y88.09 E19.76088
G1 X127.637 Y88.373 E19.78911
G1 X127.995 Y88.593 E19.81007
G1 X128.365 Y88.831 E19.83202
G1 X128.516 Y88.933 E19.84111
G1 X129.241 Y89.471 E19.88615
G1 X129.916 Y90.071 E19.93121
G1 X130.535 Y90.729 E19.97628
G1 X131.093 Y91.438 E20.02129
G1 X131.587 Y92.195 E20.06639
G1 X132.123 Y93.234 E20.12472
G1 X132.266 Y93.555 E20.14225
G1 X132.373 Y93.803 E20.15573
G1 X137.007 Y104.991 E20.75988
G1 X137.313 Y105.757 E20.80103
G1 X137.611 Y106.61 E20.84611
G1 X137.76 Y107.163 E20.87469
G1 X137.864 Y107.597 E20.89695
G1 X137.939 Y107.936 E20.91427
G1 X137.97 Y108.088 E20.92201
G1 X138.111 Y108.98 E20.96707
G1 X138.173 Y109.881 E21.01212
G1 X138.155 Y110.784 E21.05718
G1 X138.057 Y111.681 E21.1022
G1 X137.88 Y112.567 E21.14728
G1 X137.53 Y113.697 E21.2063
G1 X137.416 Y114.002 E21.22254
G1 X137.286 Y114.333 E21.24028
G1 X132.598 Y125.653 E21.85155
G1 X132.308 Y126.327 E21.88816
G1 X131.914 Y127.14 E21.93323
G1 X131.624 Y127.643 E21.9622
G1 X131.403 Y128.002 E21.98323
G1 X131.256 Y128.234 E21.99694
G1 X131.158 Y128.384 E22.00587
G1 X130.631 Y129.117 E22.05091
G1 X130.041 Y129.801 E22.09598
G1 X129.393 Y130.43 E22.14104
G1 X128.692 Y131 E22.18611
G1 X127.944 Y131.505 E22.23114
G1 X126.781 Y132.117 E22.2967
G1 X126.517 Y132.235 E22.31113
G1 X126.259 Y132.346 E22.32514
G1 X114.884 Y137.057 E22.93939
G1 X114.237 Y137.315 E22.97414
G1 X113.384 Y137.613 E23.01922
G1 X112.83 Y137.762 E23.04784
G1 X112.399 Y137.865 E23.06995
G1 X112.103 Y137.931 E23.08508
G1 X111.949 Y137.963 E23.09292
G1 X111.058 Y138.107 E23.13795
G1 X110.157 Y138.172 E23.18302
G1 X109.254 Y138.157 E23.22808
G1 X108.356 Y138.062 E23.27313
G1 X107.47 Y137.889 E23.31817
G1 X106.296 Y137.528 E23.37944
G1 X105.973 Y137.407 E23.39665
G1 X105.648 Y137.279 E23.41408
G1 X94.304 Y132.579 E24.02669
G1 X93.666 Y132.304 E24.06135
G1 X92.853 Y131.91 E24.10642
G1 X92.363 Y131.627 E24.13465
G1 X92.005 Y131.407 E24.15561
G1 X91.687 Y131.204 E24.17444
G1 X91.537 Y131.104 E24.18343
G1 X90.809 Y130.57 E24.22847
G1 X90.13 Y129.974 E24.27355
G1 X89.507 Y129.32 E24.31861
G1 X88.944 Y128.614 E24.36366
G1 X88.446 Y127.861 E24.4087
G1 X87.895 Y126.806 E24.46808
G1 X87.777 Y126.544 E24.48242
G1 X87.654 Y126.259 E24.4979
G1 X82.944 Y114.887 E25.11199
G1 X82.685 Y114.238 E25.14685
G1 X82.387 Y113.385 E25.19193
G1 X82.237 Y112.828 E25.22071
G1 X82.134 Y112.397 E25.24282
G1 X82.051 Y112.014 E25.26237
G1 X82.02 Y111.858 E25.27031
G1 X81.883 Y110.965 E25.31538
G1 X81.826 Y110.064 E25.36042
G1 X81.849 Y109.161 E25.40549
G1 X81.951 Y108.264 E25.45053
G1 X82.133 Y107.379 E25.4956
G1 X82.487 Y106.253 E25.55449
G1 X82.608 Y105.934 E25.57151
G1 X82.721 Y105.648 E25.58685
G1 X87.375 Y94.411 E26.19365
G1 X87.7 Y93.657 E26.23461
G1 X88.094 Y92.845 E26.27964
G1 X88.373 Y92.363 E26.30743
G1 X88.593 Y92.005 E26.32839
G1 X88.831 Y91.635 E26.35034
G1 X88.933 Y91.484 E26.35943
G1 X89.471 Y90.759 E26.40447
G1 X90.071 Y90.084 E26.44953
G1 F1500 E19.94953
;MESH:Low-poly_Rose_Vase.stl
G0 F6000 X96.525 Y97.282
G0 X97.439 Y97.865
G0 X94.096 Y110.002
G0 X98.754 Y121.246
G0 X110.002 Y126.091
;TYPE:WALL-INNER
G1 F1500 E26.44953
G1 F1200 X98.621 Y121.379 E27.06407
G1 X93.909 Y110.002 E27.67843
G1 X98.621 Y98.621 E28.29297
G1 X109.998 Y93.909 E28.90732
G1 X121.379 Y98.621 E29.52187
G1 X126.091 Y109.998 E30.13622
G1 X121.379 Y121.379 E30.75076
G1 X110.002 Y126.091 E31.36512
G0 F6000 X110.002 Y126.524
G1 F1200 X98.315 Y121.685 E31.99619
G1 X93.476 Y110.002 E32.62708
G1 X98.315 Y98.315 E33.25815
G1 X109.998 Y93.476 E33.88903
G1 X121.685 Y98.315 E34.5201
G1 X126.524 Y109.998 E35.15099
G1 X121.685 Y121.685 E35.78206
G1 X110.002 Y126.524 E36.41295
G0 F6000 X109.964 Y126.942
G1 F1200 X98.129 Y122.041 E37.05202
G1 X97.994 Y121.955 E37.06001
G1 X93.093 Y110.124 E37.6989
G1 X93.058 Y109.964 E37.70707
G1 X97.959 Y98.129 E38.34615
G1 X98.045 Y97.994 E38.35413
G1 X109.876 Y93.093 E38.99302
G1 X110.036 Y93.058 E39.00119
G1 X121.871 Y97.959 E39.64027
G1 X122.006 Y98.045 E39.64826
G1 X126.907 Y109.876 E40.28715
G1 X126.942 Y110.036 E40.29532
G1 X122.041 Y121.871 E40.93439
G1 X121.955 Y122.006 E40.94238
G1 X110.124 Y126.907 E41.58127
G1 X109.964 Y126.942 E41.58944
G0 F6000 X109.926 Y127.36
G1 F1200 X97.947 Y122.399 E42.2363
G1 X97.672 Y122.224 E42.25256
G1 X92.71 Y110.246 E42.8994
G1 X92.64 Y109.926 E42.91574
G1 X97.601 Y97.947 E43.5626
G1 X97.776 Y97.672 E43.57886
G1 X109.754 Y92.71 E44.22569
G1 X110.074 Y92.64 E44.24203
G1 X122.053 Y97.601 E44.88889
G1 X122.328 Y97.776 E44.90515
G1 X127.29 Y109.754 E45.55199
G1 X127.36 Y110.074 E45.56833
G1 X122.399 Y122.053 E46.21519
G1 X122.224 Y122.328 E46.23145
G1 X110.246 Y127.29 E46.87828
G1 X109.926 Y127.36 E46.89462
G0 F6000 X109.889 Y127.778
;TYPE:WALL-OUTER
G1 F1200 X97.765 Y122.757 E47.54931
G1 X97.35 Y122.493 E47.57385
G1 X92.327 Y110.367 E48.22867
G1 X92.222 Y109.889 E48.25308
G1 X97.243 Y97.765 E48.90777
G1 X97.507 Y97.35 E48.93231
G1 X109.633 Y92.327 E49.58713
G1 X110.111 Y92.222 E49.61154
G1 X122.235 Y97.243 E50.26623
G1 X122.65 Y97.507 E50.29077
G1 X127.673 Y109.633 E50.94559
G1 X127.778 Y110.111 E50.97
G1 X122.757 Y122.235 E51.62469
G1 X122.493 Y122.65 E51.64923
G1 X110.367 Y127.673 E52.30405
G1 X109.889 Y127.778 E52.32846
G0 F6000 X109.927 Y127.34
G0 X109.894 Y125.927
G0 X110.002 Y125.668
;TYPE:SKIN
G1 F1200 X98.92 Y121.08 E52.92686
G1 X94.332 Y110.002 E53.52507
G1 X98.92 Y98.92 E54.12346
G1 X109.998 Y94.332 E54.72167
G1 X121.08 Y98.92 E55.32006
G1 X125.668 Y109.998 E55.91827
G1 X121.08 Y121.08 E56.51666
G1 X110.002 Y125.668 E57.11487
G0 F6000 X109.894 Y125.927
G0 X99.587 Y121.659
G0 X99.756 Y121.252
G1 F1200 X98.746 Y120.242 E57.18613
G0 F6000 X98.339 Y120.41
G0 X97.939 Y119.444
G0 X98.346 Y119.276
G1 F1200 X100.721 Y121.652 E57.35373
G0 F6000 X100.552 Y122.058
G0 X101.517 Y122.458
G0 X101.686 Y122.05
G1 F1200 X97.946 Y118.31 E57.61761
G0 F6000 X97.539 Y118.478
G0 X97.139 Y117.513
G0 X97.546 Y117.345
G1 F1200 X102.651 Y122.45 E57.97779
G0 F6000 X102.482 Y122.857
G0 X103.446 Y123.257
G0 X103.616 Y122.849
G1 F1200 X97.146 Y116.379 E58.43429
G0 F6000 X96.739 Y116.547
G0 X96.339 Y115.582
G0 X96.747 Y115.414
G1 F1200 X104.581 Y123.249 E58.98705
G0 F6000 X104.412 Y123.657
G0 X105.377 Y124.056
G0 X105.547 Y123.648
G1 F1200 X96.347 Y114.449 E59.63613
G0 F6000 X95.94 Y114.617
G0 X95.539 Y113.651
G0 X95.947 Y113.483
G1 F1200 X106.512 Y124.048 E60.38155
G0 F6000 X106.342 Y124.456
G0 X107.307 Y124.856
G0 X107.477 Y124.447
G1 F1200 X95.547 Y112.518 E61.22324
G0 F6000 X95.14 Y112.686
G0 X94.74 Y111.72
G0 X95.147 Y111.552
G1 F1200 X108.442 Y124.847 E62.16127
G0 F6000 X108.272 Y125.255
G0 X109.237 Y125.655
G0 X109.407 Y125.246
G1 F1200 X94.748 Y110.587 E63.19554
G0 F6000 X94.569 Y109.843
G1 F1200 X110.155 Y125.428 E64.29518
G0 F6000 X110.555 Y125.263
G1 F1200 X94.736 Y109.443 E65.41133
G0 F6000 X94.901 Y109.043
G1 F1200 X110.955 Y125.097 E66.54403
G0 F6000 X111.355 Y124.932
G1 F1200 X95.066 Y108.643 E67.69331
G0 F6000 X95.232 Y108.243
G1 F1200 X111.755 Y124.766 E68.85909
G0 F6000 X112.155 Y124.6
G1 F1200 X95.397 Y107.842 E70.04146
G0 F6000 X95.564 Y107.443
