;FLAVOR:Marlin
;TIME:1996
;Filament used: 1.42229m
;Layer height: 0.2
;MINX:89
;MINY:89
;MINZ:0.3
;MAXX:131
;MAXY:131
;MAXZ:19.9
;Generated with Cura_SteamEngine 4.11.0
M140 S60
M105
M190 S60
M104 S220
M105
M109 S220
M82 ;absolute extrusion mode
; Ender 3 Custom Start G-code
G92 E0 ; Reset Extruder
G28 ; Home all axes
M420 S1 Z2; enable ABL using saved mesh
G1 Z2.0 F3000 ; Move Z Axis up little to prevent scratching of Heat Bed
G1 X0.1 Y20 Z0.3 F5000.0 ; Move to start position
G1 X0.1 Y200.0 Z0.3 F1500.0 E15 ; Draw the first line
G1 X0.4 Y200.0 Z0.3 F5000.0 ; Move to side a little
G1 X0.4 Y20 Z0.3 F1500.0 E30 ; Draw the second line
G92 E0 ; Reset Extruder
G1 Z2.0 F3000 ; Move Z Axis up little to prevent scratching of Heat Bed
G1 X5 Y20 Z0.3 F5000.0 ; Move over to prevent blob squish
G92 E0
G92 E0
G1 F1500 E-6.5
;LAYER_COUNT:100
;LAYER:0
M107
G0 F6000 X92.198 Y92.264 Z0.3
;TYPE:SKIRT
G1 F1500 E0
G1 F1200 X92.886 Y91.627 E0.04678
G1 X93.626 Y91.051 E0.09356
G1 X94.412 Y90.539 E0.14036
G1 X95.239 Y90.097 E0.18714
G1 X96.101 Y89.727 E0.23394
G1 X96.991 Y89.431 E0.28074
G1 X97.903 Y89.213 E0.32752
G1 X98.83 Y89.072 E0.3743
G1 X99.701 Y89.013 E0.41785
G1 X100.022 Y89.004 E0.43387
G1 X100.33 Y89 E0.44924
G1 X119.293 Y89 E1.39531
G1 X120.149 Y89.011 E1.43802
G1 X121.085 Y89.065 E1.48479
G1 X122.013 Y89.197 E1.53156
G1 X122.927 Y89.409 E1.57837
G1 X123.819 Y89.698 E1.62515
G1 X124.684 Y90.061 E1.67195
G1 X125.514 Y90.497 E1.71872
G1 X126.305 Y91.002 E1.76554
G1 X127.049 Y91.573 E1.81233
G1 X127.742 Y92.205 E1.85913
G1 X128.379 Y92.893 E1.9059
G1 X128.954 Y93.634 E1.9527
G1 X129.465 Y94.42 E1.99947
G1 X129.907 Y95.248 E2.0463
G1 X130.276 Y96.11 E2.09308
G1 X130.571 Y97 E2.13985
G1 X130.789 Y97.912 E2.18663
G1 X130.929 Y98.84 E2.23346
G1 X130.987 Y99.701 E2.27651
G1 X130.996 Y100.021 E2.29248
G1 X131 Y100.33 E2.3079
G1 X130.999 Y119.4 E3.2593
G1 X130.99 Y120.127 E3.29558
G1 X130.939 Y121.064 E3.34239
G1 X130.807 Y121.992 E3.38916
G1 X130.598 Y122.906 E3.43593
G1 X130.311 Y123.799 E3.48273
G1 X129.949 Y124.665 E3.52956
G1 X129.515 Y125.496 E3.57633
G1 X129.011 Y126.287 E3.62312
G1 X128.442 Y127.032 E3.66989
G1 X127.811 Y127.727 E3.71673
G1 X127.124 Y128.365 E3.7635
G1 X126.385 Y128.942 E3.81028
G1 X125.599 Y129.454 E3.85708
G1 X124.773 Y129.897 E3.90384
G1 X123.911 Y130.269 E3.95068
G1 X123.022 Y130.565 E3.99742
G1 X122.11 Y130.785 E4.04423
G1 X121.183 Y130.926 E4.09101
G1 X120.299 Y130.987 E4.13522
G1 X119.978 Y130.996 E4.15124
G1 X119.67 Y131 E4.1666
G1 X100.565 Y130.999 E5.11976
G1 X99.867 Y130.99 E5.15458
G1 X98.931 Y130.938 E5.20135
G1 X98.002 Y130.806 E5.24817
G1 X97.088 Y130.596 E5.29495
G1 X96.195 Y130.309 E5.34175
G1 X95.33 Y129.946 E5.38855
G1 X94.499 Y129.512 E5.43532
G1 X93.708 Y129.008 E5.48212
G1 X92.963 Y128.438 E5.52892
G1 X92.269 Y127.807 E5.57571
G1 X91.632 Y127.12 E5.62245
G1 X91.055 Y126.38 E5.66927
G1 X90.543 Y125.594 E5.71607
G1 X90.1 Y124.767 E5.76287
G1 X89.729 Y123.906 E5.80965
G1 X89.433 Y123.016 E5.85644
G1 X89.214 Y122.104 E5.90323
G1 X89.073 Y121.177 E5.95001
G1 X89.013 Y120.288 E5.99447
G1 X89.004 Y119.955 E6.01109
G1 X89 Y119.658 E6.02591
G1 X89.001 Y100.525 E6.98045
G1 X89.01 Y99.86 E7.01363
G1 X89.063 Y98.924 E7.06041
G1 X89.195 Y97.995 E7.10722
G1 X89.406 Y97.081 E7.15402
G1 X89.694 Y96.189 E7.20078
G1 X90.057 Y95.324 E7.24758
G1 X90.492 Y94.493 E7.29438
G1 X90.996 Y93.703 E7.34113
G1 X91.566 Y92.958 E7.38793
G1 X92.198 Y92.264 E7.43476
G0 F6000 X92.589 Y92.439
G1 F1200 X93.274 Y91.823 E7.48072
G1 X94.01 Y91.27 E7.52665
G1 X94.791 Y90.782 E7.57259
G1 X95.611 Y90.364 E7.61851
G1 X96.465 Y90.019 E7.66446
G1 X97.345 Y89.749 E7.71039
G1 X98.245 Y89.557 E7.7563
G1 X99.159 Y89.443 E7.80225
G1 X99.712 Y89.413 E7.82988
G1 X100.033 Y89.404 E7.8459
G1 X100.33 Y89.4 E7.86072
G1 X119.293 Y89.4 E8.80679
G1 X120.143 Y89.411 E8.8492
G1 X121.062 Y89.464 E8.89513
G1 X121.973 Y89.597 E8.94106
G1 X122.869 Y89.808 E8.98698
G1 X123.743 Y90.096 E9.03289
G1 X124.59 Y90.459 E9.07887
G1 X125.401 Y90.894 E9.12478
G1 X126.171 Y91.398 E9.17069
G1 X126.895 Y91.967 E9.21663
G1 X127.567 Y92.597 E9.26259
G1 X128.182 Y93.282 E9.30852
G1 X128.735 Y94.018 E9.35445
G1 X129.222 Y94.799 E9.40036
G1 X129.639 Y95.62 E9.4463
G1 X129.984 Y96.474 E9.49226
G1 X130.253 Y97.354 E9.53816
G1 X130.445 Y98.255 E9.58412
G1 X130.558 Y99.168 E9.63002
G1 X130.587 Y99.712 E9.6572
G1 X130.596 Y100.032 E9.67317
G1 X130.6 Y100.33 E9.68804
G1 X130.599 Y119.395 E10.6392
G1 X130.59 Y120.122 E10.67547
G1 X130.539 Y121.041 E10.72139
G1 X130.408 Y121.953 E10.76736
G1 X130.198 Y122.849 E10.81327
G1 X129.912 Y123.724 E10.8592
G1 X129.551 Y124.571 E10.90513
G1 X129.117 Y125.383 E10.95107
G1 X128.615 Y126.155 E10.99701
G1 X128.047 Y126.88 E11.04296
G1 X127.419 Y127.553 E11.08888
G1 X126.735 Y128.169 E11.1348
G1 X126 Y128.723 E11.18072
G1 X125.22 Y129.212 E11.22665
G1 X124.4 Y129.631 E11.27259
G1 X123.547 Y129.977 E11.31852
G1 X122.667 Y130.248 E11.36446
G1 X121.767 Y130.441 E11.41038
G1 X120.853 Y130.556 E11.45634
G1 X120.288 Y130.587 E11.48457
G1 X119.967 Y130.596 E11.50059
G1 X119.67 Y130.6 E11.51541
G1 X100.57 Y130.599 E12.46831
G1 X99.872 Y130.59 E12.50314
G1 X98.953 Y130.538 E12.54906
G1 X98.042 Y130.407 E12.59498
G1 X97.146 Y130.197 E12.64089
G1 X96.271 Y129.91 E12.68683
G1 X95.424 Y129.548 E12.73279
G1 X94.612 Y129.114 E12.77872
G1 X93.841 Y128.612 E12.82462
G1 X93.116 Y128.044 E12.87057
G1 X92.443 Y127.415 E12.91653
G1 X91.828 Y126.731 E12.96242
G1 X91.274 Y125.996 E13.00834
G1 X90.786 Y125.215 E13.05428
G1 X90.367 Y124.395 E13.10022
G1 X90.021 Y123.542 E13.14615
G1 X89.751 Y122.662 E13.19207
G1 X89.558 Y121.761 E13.23804
G1 X89.444 Y120.848 E13.28395
G1 X89.413 Y120.277 E13.31247
G1 X89.404 Y119.944 E13.32909
G1 X89.4 Y119.658 E13.34336
G1 X89.401 Y100.531 E14.29761
G1 X89.41 Y99.866 E14.33079
G1 X89.462 Y98.946 E14.37677
G1 X89.594 Y98.035 E14.42269
G1 X89.805 Y97.139 E14.46862
G1 X90.092 Y96.264 E14.51456
G1 X90.455 Y95.418 E14.56049
G1 X90.889 Y94.606 E14.60642
G1 X91.392 Y93.835 E14.65235
G1 X91.961 Y93.111 E14.69829
G1 X92.589 Y92.439 E14.74418
G0 F6000 X92.981 Y92.617
G1 F1200 X93.662 Y92.024 E14.78923
G1 X94.394 Y91.494 E14.83431
G1 X95.169 Y91.031 E14.87935
G1 X95.982 Y90.638 E14.9244
G1 X96.827 Y90.318 E14.96948
G1 X97.696 Y90.075 E15.0145
G1 X98.584 Y89.909 E15.05957
G1 X99.723 Y89.813 E15.1166
G1 X100.044 Y89.804 E15.13262
G1 X100.33 Y89.8 E15.14689
G1 X119.293 Y89.8 E16.09296
G1 X120.137 Y89.811 E16.13507
G1 X121.039 Y89.864 E16.18015
G1 X121.932 Y89.996 E16.22518
G1 X122.81 Y90.207 E16.27023
G1 X123.666 Y90.495 E16.31529
G1 X124.493 Y90.857 E16.36033
G1 X125.285 Y91.292 E16.40541
G1 X126.036 Y91.794 E16.45048
G1 X126.739 Y92.361 E16.49554
G1 X127.389 Y92.988 E16.54059
G1 X127.981 Y93.67 E16.58565
G1 X128.511 Y94.401 E16.6307
G1 X128.973 Y95.177 E16.67575
G1 X129.366 Y95.99 E16.7208
G1 X129.684 Y96.835 E16.76585
G1 X129.927 Y97.705 E16.81091
G1 X130.092 Y98.593 E16.85597
G1 X130.187 Y99.723 E16.91255
G1 X130.196 Y100.043 E16.92852
G1 X130.2 Y100.33 E16.94284
G1 X130.199 Y119.39 E17.89375
G1 X130.19 Y120.117 E17.93002
G1 X130.139 Y121.019 E17.97509
G1 X130.008 Y121.913 E18.02017
G1 X129.799 Y122.791 E18.0652
G1 X129.513 Y123.648 E18.11027
G1 X129.152 Y124.476 E18.15534
G1 X128.72 Y125.268 E18.20035
G1 X128.219 Y126.02 E18.24543
G1 X127.653 Y126.724 E18.29049
G1 X127.028 Y127.375 E18.33552
G1 X126.347 Y127.969 E18.3806
G1 X125.616 Y128.5 E18.42568
G1 X124.842 Y128.964 E18.4707
G1 X124.029 Y129.358 E18.51577
G1 X123.185 Y129.678 E18.5608
G1 X122.315 Y129.923 E18.6059
G1 X121.428 Y130.089 E18.65092
G1 X120.277 Y130.187 E18.70855
G1 X119.956 Y130.196 E18.72457
G1 X119.67 Y130.2 E18.73884
G1 X100.575 Y130.199 E19.69149
G1 X99.877 Y130.19 E19.72632
G1 X98.976 Y130.139 E19.77134
G1 X98.082 Y130.007 E19.81643
G1 X97.204 Y129.798 E19.86146
G1 X96.347 Y129.511 E19.90655
G1 X95.52 Y129.15 E19.95156
G1 X94.727 Y128.717 E19.99664
G1 X93.976 Y128.216 E20.04168
G1 X93.272 Y127.65 E20.08675
G1 X92.621 Y127.024 E20.1318
G1 X92.028 Y126.343 E20.17686
G1 X91.498 Y125.612 E20.2219
G1 X91.034 Y124.837 E20.26697
G1 X90.64 Y124.024 E20.31204
G1 X90.32 Y123.18 E20.35707
G1 X90.076 Y122.31 E20.40215
G1 X89.91 Y121.422 E20.44722
G1 X89.813 Y120.267 E20.50505
G1 X89.804 Y119.934 E20.52167
G1 X89.8 Y119.658 E20.53544
G1 X89.801 Y100.536 E21.48944
G1 X89.81 Y99.871 E21.52262
G1 X89.862 Y98.969 E21.56769
G1 X89.994 Y98.076 E21.61273
G1 X90.204 Y97.198 E21.65777
G1 X90.491 Y96.341 E21.70286
G1 X90.853 Y95.514 E21.7479
G1 X91.286 Y94.722 E21.79293
G1 X91.788 Y93.971 E21.838
G1 X92.355 Y93.267 E21.8831
G1 X92.981 Y92.617 E21.92812
G1 F1500 E15.42812
;MESH:xyzCalibration_cube.stl
G0 F6000 X100.414 Y99.335
G0 X100.414 Y100.414
G0 X119.218 Y100.782
G0 X119.4 Y119.4
;TYPE:WALL-INNER
G1 F1500 E21.92812
G1 F1200 X100.6 Y119.4 E22.86605
G1 X100.6 Y100.6 E23.80399
G1 X119.4 Y100.6 E24.74193
G1 X119.4 Y119.4 E25.67986
G0 F6000 X119.8 Y119.8
;TYPE:WALL-OUTER
G1 F1200 X100.2 Y119.8 E26.65771
G1 X100.2 Y100.2 E27.63556
G1 X119.8 Y100.2 E28.61341
G1 X119.8 Y119.8 E29.59125
G0 F6000 X119.53 Y119.53
G0 X119.29 Y119.01
G0 X119.01 Y119.01
;TYPE:SKIN
G1 F1200 X100.99 Y119.01 E30.49027
G1 X100.99 Y100.99 E31.3893
G1 X119.01 Y100.99 E32.28832
G1 X119.01 Y119.01 E33.18734
G0 F6000 X119.29 Y119.01
G0 X119.29 Y101.313
G0 X118.849 Y101.313
G1 F1200 X118.686 Y101.15 E33.19884
G0 F6000 X118.12 Y101.15
G1 F1200 X118.849 Y101.879 E33.25027
G0 F6000 X118.849 Y102.444
G1 F1200 X117.555 Y101.15 E33.34157
G0 F6000 X116.989 Y101.15
G1 F1200 X118.849 Y103.01 E33.47281
G0 F6000 X118.849 Y103.576
G1 F1200 X116.423 Y101.15 E33.64397
G0 F6000 X115.858 Y101.15
G1 F1200 X118.849 Y104.141 E33.85501
G0 F6000 X118.849 Y104.707
G1 F1200 X115.292 Y101.15 E34.10597
G0 F6000 X114.726 Y101.15
G1 F1200 X118.849 Y105.273 E34.39687
G0 F6000 X118.849 Y105.839
G1 F1200 X114.16 Y101.15 E34.7277
G0 F6000 X113.595 Y101.15
G1 F1200 X118.849 Y106.404 E35.0984
G0 F6000 X118.849 Y106.97
G1 F1200 X113.029 Y101.15 E35.50904
G0 F6000 X112.463 Y101.15
G1 F1200 X118.849 Y107.536 E35.9596
G0 F6000 X118.849 Y108.101
G1 F1200 X111.898 Y101.15 E36.45003
G0 F6000 X111.332 Y101.15
G1 F1200 X118.849 Y108.667 E36.9804
G0 F6000 X118.849 Y109.233
G1 F1200 X110.766 Y101.15 E37.5507
G0 F6000 X110.201 Y101.15
G1 F1200 X118.849 Y109.798 E38.16086
G0 F6000 X118.849 Y110.364
G1 F1200 X109.635 Y101.15 E38.81096
G0 F6000 X109.069 Y101.15
G1 F1200 X118.849 Y110.93 E39.50099
G0 F6000 X118.849 Y111.495
G1 F1200 X108.504 Y101.15 E40.23088
G0 F6000 X107.938 Y101.15
G1 F1200 X118.849 Y112.061 E41.00071
G0 F6000 X118.849 Y112.627
G1 F1200 X107.372 Y101.15 E41.81048
G0 F6000 X106.807 Y101.15
G1 F1200 X118.849 Y113.192 E42.66011
G0 F6000 X118.849 Y113.758
G1 F1200 X106.241 Y101.15 E43.54967
G0 F6000 X105.675 Y101.15
G1 F1200 X118.849 Y114.324 E44.47917
G0 F6000 X118.849 Y114.89
G1 F1200 X105.11 Y101.15 E45.44856
G0 F6000 X104.544 Y101.15
G1 F1200 X118.849 Y115.455 E46.45786
G0 F6000 X118.849 Y116.021
G1 F1200 X103.978 Y101.15 E47.50709
G0 F6000 X103.412 Y101.15
G1 F1200 X118.849 Y116.587 E48.59625
G0 F6000 X118.849 Y117.152
G1 F1200 X102.847 Y101.15 E49.72528
G0 F6000 X102.281 Y101.15
G1 F1200 X118.849 Y117.718 E50.89424
G0 F6000 X118.849 Y118.284
G1 F1200 X101.715 Y101.15 E52.10314
G0 F6000 X101.149 Y101.149
G1 F1200 X118.849 Y118.849 E53.35197
G0 F6000 X118.283 Y118.849
G1 F1200 X101.149 Y101.715 E54.56086
G0 F6000 X101.149 Y102.28
G1 F1200 X117.717 Y118.849 E55.72986
G0 F6000 X117.152 Y118.849
G1 F1200 X101.149 Y102.846 E56.85896
G0 F6000 X101.149 Y103.412
G1 F1200 X116.586 Y118.849 E57.94812
G0 F6000 X116.02 Y118.849
G1 F1200 X101.149 Y103.977 E58.99739
G0 F6000 X101.149 Y104.543
G1 F1200 X115.454 Y118.849 E60.00672
G0 F6000 X114.889 Y118.849
G1 F1200 X101.149 Y105.109 E60.97615
G0 F6000 X101.149 Y105.674
G1 F1200 X114.323 Y118.849 E61.90568
G0 F6000 X113.757 Y118.849
G1 F1200 X101.149 Y106.24 E62.79528
G0 F6000 X101.149 Y106.806
G1 F1200 X113.192 Y118.849 E63.64498
G0 F6000 X112.626 Y118.849
G1 F1200 X101.149 Y107.372 E64.45474
G0 F6000 X101.149 Y107.937
G1 F1200 X112.06 Y118.849 E65.22461
G0 F6000 X111.495 Y118.849
G1 F1200 X101.149 Y108.503 E65.95457
G0 F6000 X101.149 Y109.069
G1 F1200 X110.929 Y118.849 E66.6446
G0 F6000 X110.363 Y118.849
G1 F1200 X101.149 Y109.634 E67.29474
G0 F6000 X101.149 Y110.2
G1 F1200 X109.798 Y118.849 E67.90497
G0 F6000 X109.232 Y118.849
G1 F1200 X101.149 Y110.766 E68.47527
G0 F6000 X101.149 Y111.331
G1 F1200 X108.666 Y118.849 E69.00567
G0 F6000 X108.101 Y118.849
G1 F1200 X101.149 Y111.897 E69.49617
G0 F6000 X101.149 Y112.463
G1 F1200 X107.535 Y118.849 E69.94674
G0 F6000 X106.969 Y118.849
G1 F1200 X101.149 Y113.028 E70.35741
G0 F6000 X101.149 Y113.594
G1 F1200 X106.404 Y118.849 E70.72817
G0 F6000 X105.838 Y118.849
G1 F1200 X101.149 Y114.16 E71.05901
G0 F6000 X101.149 Y114.725
G1 F1200 X105.272 Y118.849 E71.34994
G0 F6000 X104.706 Y118.849
G1 F1200 X101.149 Y115.291 E71.60095
G0 F6000 X101.149 Y115.857
G1 F1200 X104.141 Y118.849 E71.81205
G0 F6000 X103.575 Y118.849
G1 F1200 X101.149 Y116.423 E71.98321
G0 F6000 X101.149 Y116.988
G1 F1200 X103.009 Y118.849 E72.11448
G0 F6000 X102.444 Y118.849
G1 F1200 X101.149 Y117.554 E72.20585
G0 F6000 X101.149 Y118.12
G1 F1200 X101.878 Y118.849 E72.25729
G0 F6000 X101.312 Y118.849
G1 F1200 X101.149 Y118.685 E72.26882
G0 F6000 X100.8 Y118.685
;MESH:NONMESH
G0 F300 X100.8 Y118.685 Z0.5
G0 F6000 X100.71 Y118.685
G0 X100.782 Y119.218
G0 X119.4 Y119.4
;TIME_ELAPSED:84.339349
;LAYER:1
M106 S127.5
;TYPE:WALL-INNER
;MESH:xyzCalibration_cube.stl
G1 F1350 X100.6 Y119.4 E72.89411
G1 X100.6 Y100.6 E73.5194
G1 X119.4 Y100.6 E74.14469
G1 X119.4 Y119.4 E74.76998
G0 F7500 X119.8 Y119.8
;TYPE:WALL-OUTER
G1 F1350 X100.2 Y119.8 E75.42188
G1 X100.2 Y100.2 E76.07378
G1 X119.8 Y100.2 E76.72568
G1 X119.8 Y119.8 E77.37758
G0 F7500 X119.53 Y119.53
G0 X119.29 Y119.01
G0 X119.01 Y119.01
;TYPE:SKIN
G1 F1350 X100.99 Y119.01 E77.97693
G1 X100.99 Y100.99 E78.57627
G1 X119.01 Y100.99 E79.17562
G1 X119.01 Y119.01 E79.77497
G0 F7500 X118.738 Y118.849
G1 F1350 X118.849 Y118.738 E79.78019
G0 F7500 X118.849 Y118.173
G1 F1350 X118.172 Y118.849 E79.81201
G0 F7500 X117.606 Y118.849
G1 F1350 X118.849 Y117.607 E79.87045
G0 F7500 X118.849 Y117.041
G1 F1350 X117.041 Y118.849 E79.9555
G0 F7500 X116.475 Y118.849
G1 F1350 X118.849 Y116.476 E80.06714
G0 F7500 X118.849 Y115.91
G1 F1350 X115.909 Y118.849 E80.2054
G0 F7500 X115.343 Y118.849
G1 F1350 X118.849 Y115.344 E80.37029
G0 F7500 X118.849 Y114.778
G1 F1350 X114.778 Y118.849 E80.56178
G0 F7500 X114.212 Y118.849
G1 F1350 X118.849 Y114.213 E80.77987
G0 F7500 X118.849 Y113.647
G1 F1350 X113.646 Y118.849 E81.02458
G0 F7500 X113.081 Y118.849
G1 F1350 X118.849 Y113.081 E81.29589
G0 F7500 X118.849 Y112.516
G1 F1350 X112.515 Y118.849 E81.59379
G0 F7500 X111.949 Y118.849
G1 F1350 X118.849 Y111.95 E81.91833
G0 F7500 X118.849 Y111.384
G1 F1350 X111.384 Y118.849 E82.26946
G0 F7500 X110.818 Y118.849
G1 F1350 X118.849 Y110.819 E82.64719
G0 F7500 X118.849 Y110.253
G1 F1350 X110.252 Y118.849 E83.05154
G0 F7500 X109.687 Y118.849
G1 F1350 X118.849 Y109.687 E83.48249
G0 F7500 X118.849 Y109.122
G1 F1350 X109.121 Y118.849 E83.94004
G0 F7500 X108.555 Y118.849
G1 F1350 X118.849 Y108.556 E84.42422
G0 F7500 X118.849 Y107.99
G1 F1350 X107.99 Y118.849 E84.93499
G0 F7500 X107.424 Y118.849
G1 F1350 X118.849 Y107.425 E85.47237
G0 F7500 X118.849 Y106.859
G1 F1350 X106.858 Y118.849 E86.03636
G0 F7500 X106.292 Y118.849
G1 F1350 X118.849 Y106.293 E86.62698
G0 F7500 X118.849 Y105.728
G1 F1350 X105.727 Y118.849 E87.24418
G0 F7500 X105.161 Y118.849
G1 F1350 X118.849 Y105.162 E87.88799
G0 F7500 X118.849 Y104.596
G1 F1350 X104.595 Y118.849 E88.55844
G0 F7500 X104.03 Y118.849
G1 F1350 X118.849 Y104.03 E89.25548
G0 F7500 X118.849 Y103.465
G1 F1350 X103.464 Y118.849 E89.97912
G0 F7500 X102.898 Y118.849
G1 F1350 X118.849 Y102.899 E90.72938
G0 F7500 X118.849 Y102.333
G1 F1350 X102.333 Y118.849 E91.50624
G0 F7500 X101.767 Y118.849
G1 F1350 X118.849 Y101.768 E92.3097
G0 F7500 X118.849 Y101.202
G1 F1350 X101.201 Y118.849 E93.13979
G0 F7500 X101.15 Y118.335
G1 F1350 X118.336 Y101.149 E93.94816
